;FLAVOR:Marlin
;TIME:388
;Filament used: 0.534836m
;Layer height: 0.2
;MINX:6.8
;MINY:6.8
;MINZ:0.3
;MAXX:213.2
;MAXY:213.2
;MAXZ:0.3
;Generated with Cura_SteamEngine 4.13.1
M140 S60
M105
M190 S60
M104 S210
M105
M109 S210
M82 ;absolute extrusion mode
; Aquila X2 Custom Start G-code
G92 E0 ; Reset Extruder
G28 ; Home all axes
G1 Z2.0 F3000 ; Move Z Axis up little to prevent scratching of Heat Bed
G1 X0.1 Y20 Z0.3 F5000.0 ; Move to start position
G1 X0.1 Y200.0 Z0.3 F1500.0 E15 ; Draw the first line
G1 X0.4 Y200.0 Z0.3 F5000.0 ; Move to side a little
G1 X0.4 Y20 Z0.3 F1500.0 E30 ; Draw the second line
G92 E0 ; Reset Extruder
G1 Z2.0 F3000 ; Move Z Axis up little to prevent scratching of Heat Bed
G1 X5 Y20 Z0.3 F5000.0 ; Move over to prevent blob squish
G92 E0
G92 E0
G1 F2400 E-3
;LAYER_COUNT:1
;LAYER:0
M107
G0 F3600 X7.789 Y7.704 Z0.3
;TYPE:SKIRT
G1 F2400 E0
G1 F1800 X8.18 Y7.383 E0.02524
G1 X8.617 Y7.128 E0.05048
G1 X9.088 Y6.944 E0.07571
G1 X9.582 Y6.838 E0.10092
G1 X10.24 Y6.801 E0.1338
G1 X29.339 Y6.8 E1.08665
G1 X30.041 Y6.81 E1.12167
G1 X30.544 Y6.857 E1.14688
G1 X31.034 Y6.983 E1.17212
G1 X31.497 Y7.185 E1.19732
G1 X31.924 Y7.456 E1.22255
G1 X32.302 Y7.792 E1.24779
G1 X32.538 Y8.068 E1.2659
G1 X33.015 Y8.693 E1.30513
G1 X34.727 Y10.872 E1.44338
G1 X36.489 Y12.989 E1.58079
G1 X38.282 Y15.023 E1.71607
G1 X40.159 Y17.036 E1.85338
G1 X42.08 Y18.98 E1.98973
G1 X44.071 Y20.887 E2.12728
G1 X46.095 Y22.717 E2.26341
G1 X48.202 Y24.518 E2.4017
G1 X50.295 Y26.207 E2.53588
G1 X52.485 Y27.872 E2.67313
G1 X54.708 Y29.465 E2.80957
G1 X56.987 Y31.004 E2.94677
G1 X59.288 Y32.464 E3.08272
G1 X61.635 Y33.863 E3.21904
G1 X64.04 Y35.204 E3.35642
G1 X66.472 Y36.472 E3.49325
G1 X68.925 Y37.664 E3.62931
G1 X71.418 Y38.789 E3.76577
G1 X73.996 Y39.869 E3.90522
G1 X76.477 Y40.821 E4.03779
G1 X79.085 Y41.742 E4.17578
G1 X81.703 Y42.582 E4.31295
G1 X84.321 Y43.343 E4.44897
G1 X86.984 Y44.036 E4.58625
G1 X89.657 Y44.652 E4.72311
G1 X92.334 Y45.186 E4.85929
G1 X95.021 Y45.646 E4.9953
G1 X97.715 Y46.029 E5.13105
G1 X100.481 Y46.342 E5.26993
G1 X103.165 Y46.571 E5.40432
G1 X105.91 Y46.725 E5.54149
G1 X108.66 Y46.802 E5.67874
G1 X111.378 Y46.802 E5.81434
G1 X114.134 Y46.723 E5.95189
G1 X116.875 Y46.568 E6.08886
G1 X119.592 Y46.335 E6.22491
G1 X122.293 Y46.028 E6.36053
G1 X125.015 Y45.64 E6.49771
G1 X127.731 Y45.174 E6.63519
G1 X130.377 Y44.643 E6.76983
G1 X133.076 Y44.022 E6.908
G1 X135.685 Y43.342 E7.04251
G1 X138.369 Y42.561 E7.18197
G1 X140.953 Y41.73 E7.31739
G1 X143.511 Y40.827 E7.45273
G1 X146.109 Y39.825 E7.59165
G1 X148.627 Y38.771 E7.72783
G1 X151.085 Y37.661 E7.86239
G1 X153.577 Y36.449 E8.00064
G1 X156.008 Y35.179 E8.13747
G1 X158.393 Y33.847 E8.27376
G1 X160.746 Y32.445 E8.41041
G1 X163.056 Y30.977 E8.54696
G1 X165.326 Y29.443 E8.68365
G1 X167.547 Y27.849 E8.82004
G1 X169.727 Y26.189 E8.95674
G1 X171.856 Y24.472 E9.09319
G1 X173.936 Y22.692 E9.22978
G1 X175.976 Y20.846 E9.36704
G1 X177.942 Y18.963 E9.50285
G1 X179.863 Y17.016 E9.63931
G1 X181.743 Y14.999 E9.77687
G1 X183.53 Y12.969 E9.9118
G1 X185.3 Y10.842 E10.04985
G1 X186.996 Y8.682 E10.18686
G1 X187.359 Y8.199 E10.21701
G1 X187.501 Y8.02 E10.22841
G1 X187.846 Y7.65 E10.25365
G1 X188.244 Y7.339 E10.27884
G1 X188.687 Y7.095 E10.30408
G1 X189.162 Y6.923 E10.32928
G1 X189.659 Y6.828 E10.35452
G1 X190.241 Y6.801 E10.38359
G1 X209.334 Y6.8 E11.33615
G1 X210.032 Y6.809 E11.37097
G1 X210.536 Y6.856 E11.39623
G1 X211.026 Y6.981 E11.42146
G1 X211.49 Y7.182 E11.44668
G1 X211.916 Y7.453 E11.47187
G1 X212.295 Y7.788 E11.49711
G1 X212.616 Y8.179 E11.52235
G1 X212.871 Y8.615 E11.54755
G1 X213.055 Y9.086 E11.57277
G1 X213.162 Y9.58 E11.59799
G1 X213.199 Y10.24 E11.63097
G1 X213.2 Y29.318 E12.58278
G1 X213.19 Y30.039 E12.61875
G1 X213.143 Y30.543 E12.644
G1 X213.017 Y31.032 E12.6692
G1 X212.816 Y31.496 E12.69442
G1 X212.544 Y31.923 E12.71968
G1 X212.209 Y32.301 E12.74488
G1 X211.932 Y32.538 E12.76307
G1 X211.307 Y33.015 E12.80229
G1 X209.128 Y34.727 E12.94054
G1 X207.019 Y36.483 E13.07746
G1 X204.96 Y38.297 E13.21436
G1 X202.956 Y40.165 E13.35104
G1 X201.01 Y42.087 E13.4875
G1 X199.128 Y44.054 E13.62332
G1 X197.277 Y46.101 E13.761
G1 X195.507 Y48.173 E13.89696
G1 X193.777 Y50.318 E14.03444
G1 X192.124 Y52.492 E14.17069
G1 X190.539 Y54.703 E14.30642
G1 X188.991 Y56.994 E14.44436
G1 X187.536 Y59.287 E14.57985
G1 X186.13 Y61.648 E14.71694
G1 X184.801 Y64.03 E14.85303
G1 X183.53 Y66.468 E14.99019
G1 X182.333 Y68.93 E15.12677
G1 X181.211 Y71.417 E15.26289
G1 X180.155 Y73.943 E15.39948
G1 X179.159 Y76.525 E15.53755
G1 X178.257 Y79.089 E15.67316
G1 X177.421 Y81.693 E15.8096
G1 X176.656 Y84.325 E15.94635
G1 X175.971 Y86.957 E16.08203
G1 X175.35 Y89.659 E16.22035
G1 X174.814 Y92.326 E16.35607
G1 X174.351 Y95.043 E16.49357
G1 X173.971 Y97.715 E16.62822
G1 X173.658 Y100.48 E16.76705
G1 X173.429 Y103.165 E16.90149
G1 X173.275 Y105.909 E17.0386
G1 X173.198 Y108.656 E17.17571
G1 X173.198 Y111.379 E17.31156
G1 X173.277 Y114.131 E17.44891
G1 X173.432 Y116.876 E17.58608
G1 X173.664 Y119.59 E17.72197
G1 X173.972 Y122.294 E17.85775
G1 X174.36 Y125.015 E17.99487
G1 X174.82 Y127.7 E18.13078
G1 X175.361 Y130.399 E18.26811
G1 X175.972 Y133.048 E18.40374
G1 X176.669 Y135.722 E18.5416
G1 X177.432 Y138.349 E18.67808
G1 X178.272 Y140.958 E18.81483
G1 X179.18 Y143.531 E18.95095
G1 X180.151 Y146.046 E19.08545
G1 X181.224 Y148.616 E19.2244
G1 X182.352 Y151.11 E19.36096
G1 X183.544 Y153.564 E19.49707
G1 X184.818 Y156.003 E19.63435
G1 X186.151 Y158.391 E19.77079
G1 X187.554 Y160.744 E19.90747
G1 X189.008 Y163.034 E20.0428
G1 X190.549 Y165.315 E20.18014
G1 X192.151 Y167.547 E20.3172
G1 X193.807 Y169.72 E20.45351
G1 X195.522 Y171.847 E20.58982
G1 X197.303 Y173.932 E20.72663
G1 X199.145 Y175.966 E20.86353
G1 X201.02 Y177.924 E20.99878
G1 X202.995 Y179.872 E21.13718
G1 X204.999 Y181.742 E21.27393
G1 X207.044 Y183.542 E21.40985
G1 X209.139 Y185.285 E21.54581
G1 X211.305 Y186.985 E21.68318
G1 X211.766 Y187.332 E21.71197
G1 X211.966 Y187.489 E21.72465
G1 X212.338 Y187.832 E21.7499
G1 X212.651 Y188.228 E21.77508
G1 X212.898 Y188.67 E21.80034
G1 X213.072 Y189.144 E21.82553
G1 X213.169 Y189.64 E21.85075
G1 X213.198 Y190.231 E21.88027
G1 X213.2 Y190.33 E21.88521
G1 X213.2 Y209.304 E22.83182
G1 X213.191 Y210.031 E22.8681
G1 X213.145 Y210.534 E22.8933
G1 X213.02 Y211.024 E22.91852
G1 X212.819 Y211.488 E22.94375
G1 X212.548 Y211.915 E22.96898
G1 X212.213 Y212.294 E22.99422
G1 X211.823 Y212.615 E23.01942
G1 X211.387 Y212.871 E23.04464
G1 X210.916 Y213.054 E23.06985
G1 X210.422 Y213.162 E23.09508
G1 X209.76 Y213.199 E23.12816
G1 X190.661 Y213.2 E24.08101
G1 X189.959 Y213.19 E24.11604
G1 X189.456 Y213.143 E24.14124
G1 X188.966 Y213.017 E24.16649
G1 X188.503 Y212.815 E24.19169
G1 X188.076 Y212.544 E24.21692
G1 X187.698 Y212.208 E24.24215
G1 X187.462 Y211.932 E24.26027
G1 X186.958 Y211.272 E24.3017
G1 X185.262 Y209.114 E24.43863
G1 X183.509 Y207.009 E24.5753
G1 X181.699 Y204.955 E24.71188
G1 X179.824 Y202.945 E24.84902
G1 X177.913 Y201.01 E24.9847
G1 X175.946 Y199.128 E25.12052
G1 X173.888 Y197.267 E25.25895
G1 X171.827 Y195.507 E25.39416
G1 X169.682 Y193.777 E25.53164
G1 X167.504 Y192.121 E25.66814
G1 X165.297 Y190.539 E25.80362
G1 X163.007 Y188.992 E25.94149
G1 X160.713 Y187.536 E26.07705
G1 X158.352 Y186.13 E26.21414
G1 X155.97 Y184.801 E26.35023
G1 X153.527 Y183.527 E26.48769
G1 X151.063 Y182.329 E26.62437
G1 X148.583 Y181.211 E26.76009
G1 X146.057 Y180.155 E26.89669
G1 X143.475 Y179.159 E27.03475
G1 X140.905 Y178.255 E27.17067
G1 X138.307 Y177.421 E27.3068
G1 X135.671 Y176.655 E27.44375
G1 X133.043 Y175.971 E27.57923
G1 X130.341 Y175.35 E27.71755
G1 X127.671 Y174.813 E27.85342
G1 X124.957 Y174.351 E27.99077
G1 X122.285 Y173.971 E28.12542
G1 X119.52 Y173.658 E28.26425
G1 X116.835 Y173.429 E28.39869
G1 X114.091 Y173.275 E28.5358
G1 X111.34 Y173.198 E28.67311
G1 X108.621 Y173.198 E28.80876
G1 X105.866 Y173.277 E28.94626
G1 X103.124 Y173.432 E29.08328
G1 X100.408 Y173.665 E29.21928
G1 X97.706 Y173.972 E29.35495
G1 X94.985 Y174.36 E29.49207
G1 X92.294 Y174.821 E29.62828
G1 X89.601 Y175.361 E29.76531
G1 X86.952 Y175.972 E29.90094
G1 X84.272 Y176.67 E30.03911
G1 X81.64 Y177.436 E30.17587
G1 X79.041 Y178.272 E30.31207
G1 X76.469 Y179.18 E30.44815
G1 X73.954 Y180.151 E30.58265
G1 X71.382 Y181.225 E30.72171
G1 X68.89 Y182.352 E30.85816
G1 X66.437 Y183.544 E30.99422
G1 X63.997 Y184.818 E31.13155
G1 X61.599 Y186.157 E31.26857
G1 X59.254 Y187.556 E31.40481
G1 X56.966 Y189.008 E31.54
G1 X54.684 Y190.55 E31.6774
G1 X52.451 Y192.152 E31.81451
G1 X50.28 Y193.807 E31.95071
G1 X48.152 Y195.523 E32.08709
G1 X46.068 Y197.303 E32.22383
G1 X44.026 Y199.152 E32.36126
G1 X42.075 Y201.02 E32.49602
G1 X40.128 Y202.995 E32.63438
G1 X38.257 Y205 E32.7712
G1 X36.455 Y207.047 E32.90726
G1 X34.714 Y209.14 E33.04308
G1 X33.013 Y211.307 E33.18052
G1 X32.665 Y211.769 E33.20938
G1 X32.504 Y211.973 E33.22234
G1 X32.16 Y212.344 E33.24759
G1 X31.763 Y212.656 E33.27278
G1 X31.321 Y212.902 E33.29801
G1 X30.846 Y213.075 E33.32323
G1 X30.349 Y213.171 E33.34849
G1 X29.759 Y213.199 E33.37796
G1 X10.666 Y213.2 E34.33051
G1 X9.968 Y213.191 E34.36534
G1 X9.464 Y213.144 E34.39059
G1 X8.974 Y213.019 E34.41582
G1 X8.51 Y212.818 E34.44105
G1 X8.084 Y212.547 E34.46624
G1 X7.705 Y212.212 E34.49147
G1 X7.384 Y211.821 E34.51671
G1 X7.129 Y211.385 E34.54191
G1 X6.945 Y210.914 E34.56714
G1 X6.838 Y210.42 E34.59236
G1 X6.801 Y209.744 E34.62613
G1 X6.8 Y190.661 E35.57819
G1 X6.81 Y189.959 E35.61321
G1 X6.857 Y189.456 E35.63842
G1 X6.983 Y188.966 E35.66366
G1 X7.185 Y188.503 E35.68886
G1 X7.456 Y188.076 E35.71409
G1 X7.792 Y187.698 E35.73932
G1 X8.068 Y187.462 E35.75744
G1 X8.715 Y186.968 E35.79805
G1 X10.872 Y185.273 E35.93492
G1 X12.986 Y183.513 E36.07215
G1 X15.044 Y181.699 E36.20902
G1 X17.055 Y179.824 E36.34619
G1 X18.99 Y177.913 E36.48187
G1 X20.884 Y175.933 E36.61857
G1 X22.732 Y173.888 E36.75608
G1 X24.499 Y171.82 E36.89179
G1 X26.223 Y169.682 E37.02881
G1 X27.877 Y167.507 E37.16513
G1 X29.461 Y165.297 E37.30079
G1 X31.009 Y163.006 E37.43873
G1 X32.464 Y160.713 E37.57422
G1 X33.87 Y158.351 E37.71136
G1 X35.205 Y155.959 E37.84802
G1 X36.473 Y153.527 E37.98486
G1 X37.671 Y151.063 E38.12154
G1 X38.793 Y148.574 E38.25775
G1 X39.845 Y146.057 E38.39386
G1 X40.841 Y143.475 E38.53192
G1 X41.744 Y140.907 E38.66773
G1 X42.58 Y138.305 E38.80408
G1 X43.345 Y135.671 E38.94092
G1 X44.033 Y133.025 E39.07732
G1 X44.652 Y130.334 E39.21508
G1 X45.187 Y127.671 E39.35059
G1 X45.649 Y124.957 E39.48794
G1 X46.029 Y122.285 E39.62259
G1 X46.342 Y119.52 E39.76142
G1 X46.572 Y116.814 E39.89691
G1 X46.725 Y114.091 E40.03297
G1 X46.802 Y111.34 E40.17028
G1 X46.802 Y108.607 E40.30663
G1 X46.723 Y105.865 E40.44348
G1 X46.568 Y103.124 E40.58045
G1 X46.335 Y100.407 E40.7165
G1 X46.028 Y97.706 E40.85212
G1 X45.639 Y94.978 E40.9896
G1 X45.179 Y92.295 E41.12541
G1 X44.638 Y89.598 E41.26264
G1 X44.022 Y86.928 E41.39935
G1 X43.33 Y84.272 E41.53628
G1 X42.564 Y81.64 E41.67304
G1 X41.73 Y79.047 E41.80893
G1 X40.816 Y76.458 E41.94591
G1 X39.849 Y73.954 E42.07982
G1 X38.775 Y71.382 E42.21888
G1 X37.655 Y68.903 E42.35459
G1 X36.449 Y66.423 E42.49218
G1 X35.179 Y63.992 E42.62901
G1 X33.843 Y61.599 E42.76575
G1 X32.444 Y59.254 E42.90198
G1 X30.978 Y56.945 E43.03843
G1 X29.445 Y54.677 E43.175
G1 X27.847 Y52.449 E43.31179
G1 X26.188 Y50.273 E43.44831
G1 X24.473 Y48.148 E43.58454
G1 X22.697 Y46.068 E43.721
G1 X20.841 Y44.019 E43.85892
G1 X18.98 Y42.075 E43.99319
G1 X17.005 Y40.128 E44.13155
G1 X15 Y38.257 E44.26837
G1 X12.953 Y36.455 E44.40443
G1 X10.848 Y34.705 E44.541
G1 X8.691 Y33.011 E44.67783
G1 X8.232 Y32.667 E44.70645
G1 X8.031 Y32.509 E44.7192
G1 X7.66 Y32.166 E44.74441
G1 X7.347 Y31.769 E44.76963
G1 X7.1 Y31.327 E44.79489
G1 X6.927 Y30.853 E44.82007
G1 X6.83 Y30.356 E44.84533
G1 X6.801 Y29.759 E44.87515
G1 X6.8 Y10.631 E45.82945
G1 X6.809 Y9.966 E45.86263
G1 X6.856 Y9.462 E45.88788
G1 X6.982 Y8.973 E45.91308
G1 X7.183 Y8.509 E45.93831
G1 X7.454 Y8.082 E45.96354
G1 X7.789 Y7.704 E45.98874
G1 F2400 E42.98874
;MESH:Boxes-Body.stl
G0 F3600 X10.614 Y9.335
G0 X10.614 Y10.614
G0 X110 Y112.121
;TYPE:WALL-INNER
G1 F2400 E45.98874
G1 F1800 X29 Y193.121 E51.70372
G1 X29 Y209 E52.49593
G1 X11 Y209 E53.39395
G1 X11 Y191 E54.29198
G1 X26.879 Y191 E55.08418
G1 X107.879 Y110 E60.79917
G1 X26.879 Y29 E66.51416
G1 X11 Y29 E67.30636
G1 X11 Y11 E68.20439
G1 X29 Y11 E69.10241
G1 X29 Y26.879 E69.89462
G1 X110 Y107.879 E75.60961
G1 X191 Y26.879 E81.32459
G1 X191 Y11 E82.1168
G1 X209 Y11 E83.01482
G1 X209 Y29 E83.91285
G1 X193.121 Y29 E84.70505
G1 X112.121 Y110 E90.42004
G1 X193.121 Y191 E96.13503
G1 X209 Y191 E96.92724
G1 X209 Y209 E97.82526
G1 X191 Y209 E98.72328
G1 X191 Y193.121 E99.51549
G1 X110 Y112.121 E105.23048
G0 F3600 X110 Y112.687
G1 F1800 X29.4 Y193.287 E110.91724
G1 X29.4 Y209.4 E111.72112
G1 X10.6 Y209.4 E112.65906
G1 X10.6 Y190.6 E113.59699
G1 X26.713 Y190.6 E114.40088
G1 X107.313 Y110 E120.08764
G1 X26.713 Y29.4 E125.77441
G1 X10.6 Y29.4 E126.57829
G1 X10.6 Y10.6 E127.51622
G1 X29.4 Y10.6 E128.45416
G1 X29.4 Y26.713 E129.25804
G1 X110 Y107.313 E134.9448
G1 X190.6 Y26.713 E140.63157
G1 X190.6 Y10.6 E141.43545
G1 X209.4 Y10.6 E142.37339
G1 X209.4 Y29.4 E143.31132
G1 X193.287 Y29.4 E144.1152
G1 X112.687 Y110 E149.80197
G1 X193.287 Y190.6 E155.48873
G1 X209.4 Y190.6 E156.29261
G1 X209.4 Y209.4 E157.23055
G1 X190.6 Y209.4 E158.16849
G1 X190.6 Y193.287 E158.97237
G1 X110 Y112.687 E164.65913
G0 F3600 X110 Y113.253
;TYPE:WALL-OUTER
G1 F1800 X29.8 Y193.453 E170.31768
G1 X29.8 Y209.8 E171.13323
G1 X10.2 Y209.8 E172.11108
G1 X10.2 Y190.2 E173.08893
G1 X26.547 Y190.2 E173.90448
G1 X106.747 Y110 E179.56302
G1 X26.547 Y29.8 E185.22157
G1 X10.2 Y29.8 E186.03712
G1 X10.2 Y10.2 E187.01497
G1 X29.8 Y10.2 E187.99282
G1 X29.8 Y26.547 E188.80837
G1 X110 Y106.747 E194.46692
G1 X190.2 Y26.547 E200.12546
G1 X190.2 Y10.2 E200.94102
G1 X209.8 Y10.2 E201.91886
G1 X209.8 Y29.8 E202.89671
G1 X193.453 Y29.8 E203.71227
G1 X113.253 Y110 E209.37081
G1 X193.453 Y190.2 E215.02935
G1 X209.8 Y190.2 E215.84491
G1 X209.8 Y209.8 E216.82276
G1 X190.2 Y209.8 E217.8006
G1 X190.2 Y193.453 E218.61616
G1 X110 Y113.253 E224.2747
G0 F3600 X109.859 Y113.394
G0 X109.506 Y113.041
G0 X110 Y111.569
;TYPE:SKIN
G1 F1800 X28.61 Y192.959 E230.01721
G1 X28.61 Y208.61 E230.79804
G1 X11.39 Y208.61 E231.65715
G1 X11.39 Y191.39 E232.51626
G1 X27.041 Y191.39 E233.29709
G1 X108.431 Y110 E239.03959
G1 X27.041 Y28.61 E244.7821
G1 X11.39 Y28.61 E245.56293
G1 X11.39 Y11.39 E246.42204
G1 X28.61 Y11.39 E247.28115
G1 X28.61 Y27.041 E248.06198
G1 X110 Y108.431 E253.80448
G1 X191.39 Y27.041 E259.54699
G1 X191.39 Y11.39 E260.32782
G1 X208.61 Y11.39 E261.18693
G1 X208.61 Y28.61 E262.04604
G1 X192.959 Y28.61 E262.82687
G1 X111.569 Y110 E268.56937
G1 X192.959 Y191.39 E274.31188
G1 X208.61 Y191.39 E275.09271
G1 X208.61 Y208.61 E275.95182
G1 X191.39 Y208.61 E276.81093
G1 X191.39 Y192.959 E277.59176
G1 X110 Y111.569 E283.33426
G0 F3600 X190.636 Y193.272
G0 X191.57 Y208.4
G1 F1800 X208.43 Y208.4 E284.17541
G0 F3600 X208.43 Y208
G1 F1800 X191.57 Y208 E285.01656
G0 F3600 X191.57 Y207.6
G1 F1800 X208.43 Y207.6 E285.85771
G0 F3600 X208.43 Y207.2
G1 F1800 X191.57 Y207.2 E286.69886
G0 F3600 X191.57 Y206.8
G1 F1800 X208.43 Y206.8 E287.54001
G0 F3600 X208.43 Y206.4
G1 F1800 X191.57 Y206.4 E288.38115
G0 F3600 X191.57 Y206
G1 F1800 X208.43 Y206 E289.2223
G0 F3600 X208.43 Y205.6
G1 F1800 X191.57 Y205.6 E290.06345
G0 F3600 X191.57 Y205.2
G1 F1800 X208.43 Y205.2 E290.9046
G0 F3600 X208.43 Y204.8
G1 F1800 X191.57 Y204.8 E291.74575
G0 F3600 X191.57 Y204.4
G1 F1800 X208.43 Y204.4 E292.5869
G0 F3600 X208.43 Y204
G1 F1800 X191.57 Y204 E293.42805
G0 F3600 X191.57 Y203.6
G1 F1800 X208.43 Y203.6 E294.2692
G0 F3600 X208.43 Y203.2
G1 F1800 X191.57 Y203.2 E295.11035
G0 F3600 X191.57 Y202.8
G1 F1800 X208.43 Y202.8 E295.95149
G0 F3600 X208.43 Y202.4
G1 F1800 X191.57 Y202.4 E296.79264
G0 F3600 X191.57 Y202
G1 F1800 X208.43 Y202 E297.63379
G0 F3600 X208.43 Y201.6
G1 F1800 X191.57 Y201.6 E298.47494
G0 F3600 X191.57 Y201.2
G1 F1800 X208.43 Y201.2 E299.31609
G0 F3600 X208.43 Y200.8
G1 F1800 X191.57 Y200.8 E300.15724
