;FLAVOR:Marlin
;TIME:995
;Filament used: 0.871261m
;Layer height: 0.2
;MINX:91.401
;MINY:91.401
;MINZ:0.3
;MAXX:128.599
;MAXY:128.599
;MAXZ:27.3
;Generated with Cura_SteamEngine 4.13.1
M140 S60
M105
M190 S60
M104 S210
M105
M109 S210
M82 ;absolute extrusion mode
; Aquila X2 Custom Start G-code
G92 E0 ; Reset Extruder
G28 ; Home all axes
G1 Z2.0 F3000 ; Move Z Axis up little to prevent scratching of Heat Bed
G1 X0.1 Y20 Z0.3 F5000.0 ; Move to start position
G1 X0.1 Y200.0 Z0.3 F1500.0 E15 ; Draw the first line
G1 X0.4 Y200.0 Z0.3 F5000.0 ; Move to side a little
G1 X0.4 Y20 Z0.3 F1500.0 E30 ; Draw the second line
G92 E0 ; Reset Extruder
G1 Z2.0 F3000 ; Move Z Axis up little to prevent scratching of Heat Bed
G1 X5 Y20 Z0.3 F5000.0 ; Move over to prevent blob squish
G92 E0
G92 E0
G1 F2700 E-5
;LAYER_COUNT:136
;LAYER:0
M107
G0 F3600 X92.398 Y92.532 Z0.3
;TYPE:SKIRT
G1 F2700 E0
G1 F1800 X92.795 Y92.172 E0.02674
G1 X93.242 Y91.874 E0.05354
G1 X93.727 Y91.646 E0.08028
G1 X94.241 Y91.493 E0.10703
G1 X94.909 Y91.411 E0.14061
G1 X95.331 Y91.401 E0.16167
G1 X124.344 Y91.401 E1.60913
G1 X125.042 Y91.411 E1.64396
G1 X125.576 Y91.459 E1.67071
G1 X126.097 Y91.585 E1.69745
G1 X126.594 Y91.788 E1.72423
G1 X127.055 Y92.062 E1.75099
G1 X127.47 Y92.401 E1.77772
G1 X127.83 Y92.799 E1.8045
G1 X128.127 Y93.245 E1.83123
G1 X128.355 Y93.731 E1.85801
G1 X128.507 Y94.245 E1.88475
G1 X128.589 Y94.91 E1.91818
G1 X128.599 Y95.331 E1.93919
G1 X128.599 Y124.308 E3.38486
G1 X128.59 Y125.035 E3.42113
G1 X128.543 Y125.569 E3.44788
G1 X128.418 Y126.09 E3.47461
G1 X128.216 Y126.587 E3.50137
G1 X127.943 Y127.049 E3.52815
G1 X127.605 Y127.465 E3.55489
G1 X127.208 Y127.826 E3.58166
G1 X126.762 Y128.124 E3.60842
G1 X126.277 Y128.352 E3.63516
G1 X125.763 Y128.506 E3.66193
G1 X125.091 Y128.589 E3.69571
G1 X124.669 Y128.599 E3.71677
G1 X95.662 Y128.599 E5.16393
G1 X94.964 Y128.59 E5.19876
G1 X94.429 Y128.543 E5.22555
G1 X93.908 Y128.417 E5.25229
G1 X93.411 Y128.215 E5.27906
G1 X92.95 Y127.942 E5.30579
G1 X92.534 Y127.603 E5.33256
G1 X92.173 Y127.207 E5.3593
G1 X91.875 Y126.761 E5.38606
G1 X91.647 Y126.275 E5.41284
G1 X91.494 Y125.761 E5.43959
G1 X91.411 Y125.087 E5.47347
G1 X91.401 Y124.657 E5.49493
G1 X91.401 Y95.626 E6.9433
G1 X91.41 Y94.961 E6.97648
G1 X91.458 Y94.427 E7.00322
G1 X91.584 Y93.906 E7.02997
G1 X91.786 Y93.409 E7.05673
G1 X92.059 Y92.948 E7.08346
G1 X92.398 Y92.532 E7.11023
G0 F3600 X92.79 Y92.705
G1 F1800 X93.181 Y92.384 E7.13547
G1 X93.618 Y92.129 E7.16072
G1 X94.089 Y91.945 E7.18594
G1 X94.583 Y91.839 E7.21115
G1 X95.241 Y91.802 E7.24403
G1 X124.338 Y91.801 E8.69569
G1 X125.036 Y91.811 E8.73051
G1 X125.539 Y91.858 E8.75572
G1 X126.029 Y91.984 E8.78096
G1 X126.493 Y92.186 E8.80621
G1 X126.919 Y92.458 E8.83142
G1 X127.297 Y92.793 E8.85662
G1 X127.617 Y93.184 E8.88183
G1 X127.872 Y93.621 E8.90707
G1 X128.055 Y94.092 E8.93228
G1 X128.162 Y94.586 E8.9575
G1 X128.198 Y95.241 E8.99022
G1 X128.199 Y124.303 E10.44013
G1 X128.19 Y125.03 E10.47641
G1 X128.144 Y125.533 E10.50161
G1 X128.019 Y126.023 E10.52683
G1 X127.818 Y126.487 E10.55206
G1 X127.547 Y126.914 E10.57729
G1 X127.212 Y127.293 E10.60253
G1 X126.822 Y127.614 E10.62773
G1 X126.386 Y127.87 E10.65295
G1 X125.915 Y128.053 E10.67816
G1 X125.421 Y128.161 E10.70339
G1 X124.759 Y128.198 E10.73647
G1 X95.667 Y128.199 E12.18788
G1 X94.969 Y128.19 E12.2227
G1 X94.465 Y128.143 E12.24796
G1 X93.975 Y128.018 E12.27319
G1 X93.511 Y127.817 E12.29841
G1 X93.085 Y127.546 E12.3236
G1 X92.706 Y127.211 E12.34884
G1 X92.385 Y126.82 E12.37408
G1 X92.13 Y126.384 E12.39928
G1 X91.946 Y125.913 E12.4245
G1 X91.839 Y125.419 E12.44972
G1 X91.802 Y124.743 E12.4835
G1 X91.801 Y95.632 E13.93585
G1 X91.81 Y94.967 E13.96903
G1 X91.857 Y94.463 E13.99429
G1 X91.983 Y93.974 E14.01948
G1 X92.184 Y93.51 E14.04471
G1 X92.455 Y93.083 E14.06994
G1 X92.79 Y92.705 E14.09514
G1 F2700 E9.09514
;MESH:cube.stl
G0 F3600 X95.215 Y94.336
G0 X95.215 Y95.215
G0 X124.699 Y124.729
G1 F2700 E14.09514
G0 F3600 X124.799 Y124.799
;TYPE:WALL-OUTER
G1 F1800 X95.201 Y124.799 E15.57179
G1 X95.201 Y95.201 E17.04844
G1 X124.799 Y95.201 E18.52509
G1 X124.799 Y124.799 E20.00174
G0 F3600 X124.599 Y124.799
G0 X124.409 Y124.409
;TYPE:SKIN
G1 F1800 X95.591 Y124.409 E21.43947
G1 X95.591 Y95.591 E22.87721
G1 X124.409 Y95.591 E24.31494
G1 X124.409 Y124.409 E25.75268
G0 F3600 X124.228 Y124
G1 F1800 X95.77 Y124 E27.17246
G0 F3600 X95.77 Y123.6
G1 F1800 X124.228 Y123.6 E28.59223
G0 F3600 X124.228 Y123.2
G1 F1800 X95.77 Y123.2 E30.01201
G0 F3600 X95.77 Y122.8
G1 F1800 X124.228 Y122.8 E31.43178
G0 F3600 X124.228 Y122.4
G1 F1800 X95.77 Y122.4 E32.85156
G0 F3600 X95.77 Y122
G1 F1800 X124.228 Y122 E34.27133
G0 F3600 X124.228 Y121.6
G1 F1800 X95.77 Y121.6 E35.69111
G0 F3600 X95.77 Y121.2
G1 F1800 X124.228 Y121.2 E37.11088
G0 F3600 X124.228 Y120.8
G1 F1800 X95.77 Y120.8 E38.53066
G0 F3600 X95.77 Y120.4
G1 F1800 X124.228 Y120.4 E39.95043
G0 F3600 X124.228 Y120
G1 F1800 X95.77 Y120 E41.37021
G0 F3600 X95.77 Y119.6
G1 F1800 X124.228 Y119.6 E42.78999
G0 F3600 X124.228 Y119.2
G1 F1800 X95.77 Y119.2 E44.20976
G0 F3600 X95.771 Y118.8
G1 F1800 X124.229 Y118.8 E45.62954
G0 F3600 X124.229 Y118.4
G1 F1800 X95.771 Y118.4 E47.04931
G0 F3600 X95.771 Y118
G1 F1800 X124.229 Y118 E48.46909
G0 F3600 X124.229 Y117.6
G1 F1800 X95.771 Y117.6 E49.88886
G0 F3600 X95.771 Y117.2
G1 F1800 X124.229 Y117.2 E51.30864
G0 F3600 X124.229 Y116.8
G1 F1800 X95.771 Y116.8 E52.72841
G0 F3600 X95.771 Y116.4
G1 F1800 X124.229 Y116.4 E54.14819
G0 F3600 X124.229 Y116
G1 F1800 X95.771 Y116 E55.56796
G0 F3600 X95.771 Y115.6
G1 F1800 X124.229 Y115.6 E56.98774
G0 F3600 X124.229 Y115.2
G1 F1800 X95.771 Y115.2 E58.40751
G0 F3600 X95.771 Y114.8
G1 F1800 X124.229 Y114.8 E59.82729
G0 F3600 X124.229 Y114.4
G1 F1800 X95.771 Y114.4 E61.24707
G0 F3600 X95.771 Y114
G1 F1800 X124.229 Y114 E62.66684
G0 F3600 X124.229 Y113.6
G1 F1800 X95.771 Y113.6 E64.08662
G0 F3600 X95.771 Y113.2
G1 F1800 X124.229 Y113.2 E65.50639
G0 F3600 X124.229 Y112.8
G1 F1800 X95.771 Y112.8 E66.92617
G0 F3600 X95.771 Y112.4
G1 F1800 X124.229 Y112.4 E68.34594
G0 F3600 X124.229 Y112
G1 F1800 X95.771 Y112 E69.76572
G0 F3600 X95.771 Y111.6
G1 F1800 X124.229 Y111.6 E71.18549
G0 F3600 X124.229 Y111.2
G1 F1800 X95.771 Y111.2 E72.60527
G0 F3600 X95.771 Y110.8
G1 F1800 X124.229 Y110.8 E74.02504
G0 F3600 X124.229 Y110.4
G1 F1800 X95.771 Y110.4 E75.44482
G0 F3600 X95.771 Y110
G1 F1800 X124.229 Y110 E76.86459
G0 F3600 X124.229 Y109.6
G1 F1800 X95.771 Y109.6 E78.28437
G0 F3600 X95.771 Y109.2
G1 F1800 X124.229 Y109.2 E79.70415
G0 F3600 X124.229 Y108.8
G1 F1800 X95.771 Y108.8 E81.12392
G0 F3600 X95.771 Y108.4
G1 F1800 X124.229 Y108.4 E82.5437
G0 F3600 X124.229 Y108
G1 F1800 X95.771 Y108 E83.96347
G0 F3600 X95.771 Y107.6
G1 F1800 X124.229 Y107.6 E85.38325
G0 F3600 X124.229 Y107.2
G1 F1800 X95.771 Y107.2 E86.80302
G0 F3600 X95.771 Y106.8
G1 F1800 X124.229 Y106.8 E88.2228
G0 F3600 X124.229 Y106.4
G1 F1800 X95.771 Y106.4 E89.64257
G0 F3600 X95.771 Y106
G1 F1800 X124.229 Y106 E91.06235
G0 F3600 X124.229 Y105.6
G1 F1800 X95.771 Y105.6 E92.48212
G0 F3600 X95.771 Y105.2
G1 F1800 X124.229 Y105.2 E93.9019
G0 F3600 X124.229 Y104.8
G1 F1800 X95.771 Y104.8 E95.32167
G0 F3600 X95.771 Y104.4
G1 F1800 X124.229 Y104.4 E96.74145
G0 F3600 X124.229 Y104
G1 F1800 X95.771 Y104 E98.16123
G0 F3600 X95.771 Y103.6
G1 F1800 X124.229 Y103.6 E99.581
G0 F3600 X124.229 Y103.2
G1 F1800 X95.771 Y103.2 E101.00078
G0 F3600 X95.771 Y102.8
G1 F1800 X124.229 Y102.8 E102.42055
G0 F3600 X124.229 Y102.4
G1 F1800 X95.771 Y102.4 E103.84033
G0 F3600 X95.771 Y102
G1 F1800 X124.229 Y102 E105.2601
G0 F3600 X124.229 Y101.6
G1 F1800 X95.771 Y101.6 E106.67988
G0 F3600 X95.771 Y101.2
G1 F1800 X124.229 Y101.2 E108.09965
G0 F3600 X124.229 Y100.8
G1 F1800 X95.771 Y100.8 E109.51943
G0 F3600 X95.771 Y100.4
G1 F1800 X124.229 Y100.4 E110.9392
G0 F3600 X124.229 Y100
G1 F1800 X95.771 Y100 E112.35898
G0 F3600 X95.771 Y99.6
G1 F1800 X124.229 Y99.6 E113.77875
G0 F3600 X124.229 Y99.2
G1 F1800 X95.771 Y99.2 E115.19853
G0 F3600 X95.771 Y98.8
G1 F1800 X124.229 Y98.8 E116.61831
G0 F3600 X124.229 Y98.4
G1 F1800 X95.771 Y98.4 E118.03808
G0 F3600 X95.771 Y98
G1 F1800 X124.229 Y98 E119.45786
G0 F3600 X124.229 Y97.6
G1 F1800 X95.771 Y97.6 E120.87763
G0 F3600 X95.771 Y97.2
G1 F1800 X124.229 Y97.2 E122.29741
G0 F3600 X124.229 Y96.8
G1 F1800 X95.771 Y96.8 E123.71718
G0 F3600 X95.771 Y96.4
G1 F1800 X124.229 Y96.4 E125.13696
G0 F3600 X124.229 Y96
G1 F1800 X95.771 Y96 E126.55673
G1 X95.671 Y96
;MESH:NONMESH
G0 F600 X95.671 Y96 Z0.5
G0 F3600 X124.729 Y124.729
G0 X124.799 Y124.799
;TIME_ELAPSED:91.414125
;LAYER:1
M106 S255
;TYPE:WALL-OUTER
;MESH:cube.stl
G1 F1800 X95.201 Y124.799 E127.54117
G1 X95.201 Y95.201 E128.5256
G1 X124.799 Y95.201 E129.51003
G1 X124.799 Y124.799 E130.49447
G0 F5400 X124.599 Y124.799
G0 X124.409 Y124.409
;TYPE:SKIN
G1 F1800 X95.591 Y124.409 E131.45296
G1 X95.591 Y95.591 E132.41145
G1 X124.409 Y95.591 E133.36994
G1 X124.409 Y124.409 E134.32843
G0 F5400 X124.228 Y124
G1 F1800 X95.77 Y124 E135.27495
G0 F5400 X95.77 Y123.6
G1 F1800 X124.228 Y123.6 E136.22146
G0 F5400 X124.228 Y123.2
G1 F1800 X95.77 Y123.2 E137.16798
G0 F5400 X95.77 Y122.8
G1 F1800 X124.228 Y122.8 E138.1145
G0 F5400 X124.228 Y122.4
G1 F1800 X95.77 Y122.4 E139.06101
G0 F5400 X95.77 Y122
G1 F1800 X124.228 Y122 E140.00753
G0 F5400 X124.228 Y121.6
G1 F1800 X95.77 Y121.6 E140.95405
G0 F5400 X95.77 Y121.2
G1 F1800 X124.228 Y121.2 E141.90056
G0 F5400 X124.228 Y120.8
G1 F1800 X95.77 Y120.8 E142.84708
G0 F5400 X95.77 Y120.4
G1 F1800 X124.228 Y120.4 E143.7936
G0 F5400 X124.228 Y120
G1 F1800 X95.77 Y120 E144.74012
G0 F5400 X95.77 Y119.6
G1 F1800 X124.228 Y119.6 E145.68663
G0 F5400 X124.228 Y119.2
G1 F1800 X95.77 Y119.2 E146.63315
G0 F5400 X95.771 Y118.8
G1 F1800 X124.229 Y118.8 E147.57967
G0 F5400 X124.229 Y118.4
G1 F1800 X95.771 Y118.4 E148.52618
G0 F5400 X95.771 Y118
G1 F1800 X124.229 Y118 E149.4727
G0 F5400 X124.229 Y117.6
G1 F1800 X95.771 Y117.6 E150.41922
G0 F5400 X95.771 Y117.2
G1 F1800 X124.229 Y117.2 E151.36573
G0 F5400 X124.229 Y116.8
G1 F1800 X95.771 Y116.8 E152.31225
G0 F5400 X95.771 Y116.4
G1 F1800 X124.229 Y116.4 E153.25877
G0 F5400 X124.229 Y116
G1 F1800 X95.771 Y116 E154.20528
G0 F5400 X95.771 Y115.6
G1 F1800 X124.229 Y115.6 E155.1518
G0 F5400 X124.229 Y115.2
G1 F1800 X95.771 Y115.2 E156.09832
G0 F5400 X95.771 Y114.8
G1 F1800 X124.229 Y114.8 E157.04484
G0 F5400 X124.229 Y114.4
G1 F1800 X95.771 Y114.4 E157.99135
G0 F5400 X95.771 Y114
G1 F1800 X124.229 Y114 E158.93787
G0 F5400 X124.229 Y113.6
G1 F1800 X95.771 Y113.6 E159.88439
G0 F5400 X95.771 Y113.2
G1 F1800 X124.229 Y113.2 E160.8309
G0 F5400 X124.229 Y112.8
G1 F1800 X95.771 Y112.8 E161.77742
G0 F5400 X95.771 Y112.4
G1 F1800 X124.229 Y112.4 E162.72394
G0 F5400 X124.229 Y112
G1 F1800 X95.771 Y112 E163.67045
G0 F5400 X95.771 Y111.6
G1 F1800 X124.229 Y111.6 E164.61697
G0 F5400 X124.229 Y111.2
G1 F1800 X95.771 Y111.2 E165.56349
G0 F5400 X95.771 Y110.8
G1 F1800 X124.229 Y110.8 E166.51
G0 F5400 X124.229 Y110.4
G1 F1800 X95.771 Y110.4 E167.45652
G0 F5400 X95.771 Y110
G1 F1800 X124.229 Y110 E168.40304
G0 F5400 X124.229 Y109.6
G1 F1800 X95.771 Y109.6 E169.34956
G0 F5400 X95.771 Y109.2
G1 F1800 X124.229 Y109.2 E170.29607
G0 F5400 X124.229 Y108.8
G1 F1800 X95.771 Y108.8 E171.24259
G0 F5400 X95.771 Y108.4
G1 F1800 X124.229 Y108.4 E172.18911
G0 F5400 X124.229 Y108
G1 F1800 X95.771 Y108 E173.13562
G0 F5400 X95.771 Y107.6
G1 F1800 X124.229 Y107.6 E174.08214
G0 F5400 X124.229 Y107.2
G1 F1800 X95.771 Y107.2 E175.02866
G0 F5400 X95.771 Y106.8
G1 F1800 X124.229 Y106.8 E175.97517
G0 F5400 X124.229 Y106.4
G1 F1800 X95.771 Y106.4 E176.92169
G0 F5400 X95.771 Y106
G1 F1800 X124.229 Y106 E177.86821
G0 F5400 X124.229 Y105.6
G1 F1800 X95.771 Y105.6 E178.81472
G0 F5400 X95.771 Y105.2
G1 F1800 X124.229 Y105.2 E179.76124
G0 F5400 X124.229 Y104.8
G1 F1800 X95.771 Y104.8 E180.70776
G0 F5400 X95.771 Y104.4
G1 F1800 X124.229 Y104.4 E181.65428
G0 F5400 X124.229 Y104
G1 F1800 X95.771 Y104 E182.60079
G0 F5400 X95.771 Y103.6
G1 F1800 X124.229 Y103.6 E183.54731
G0 F5400 X124.229 Y103.2
G1 F1800 X95.771 Y103.2 E184.49383
G0 F5400 X95.771 Y102.8
G1 F1800 X124.229 Y102.8 E185.44034
G0 F5400 X124.229 Y102.4
G1 F1800 X95.771 Y102.4 E186.38686
G0 F5400 X95.771 Y102
G1 F1800 X124.229 Y102 E187.33338
G0 F5400 X124.229 Y101.6
G1 F1800 X95.771 Y101.6 E188.27989
G0 F5400 X95.771 Y101.2
G1 F1800 X124.229 Y101.2 E189.22641
G0 F5400 X124.229 Y100.8
G1 F1800 X95.771 Y100.8 E190.17293
G0 F5400 X95.771 Y100.4
G1 F1800 X124.229 Y100.4 E191.11944
G0 F5400 X124.229 Y100
G1 F1800 X95.771 Y100 E192.06596
G0 F5400 X95.771 Y99.6
G1 F1800 X124.229 Y99.6 E193.01248
G0 F5400 X124.229 Y99.2
G1 F1800 X95.771 Y99.2 E193.959
G0 F5400 X95.771 Y98.8
G1 F1800 X124.229 Y98.8 E194.90551
G0 F5400 X124.229 Y98.4
G1 F1800 X95.771 Y98.4 E195.85203
G0 F5400 X95.771 Y98
G1 F1800 X124.229 Y98 E196.79855
G0 F5400 X124.229 Y97.6
G1 F1800 X95.771 Y97.6 E197.74506
G0 F5400 X95.771 Y97.2
G1 F1800 X124.229 Y97.2 E198.69158
G0 F5400 X124.229 Y96.8
G1 F1800 X95.771 Y96.8 E199.6381
G0 F5400 X95.771 Y96.4
G1 F1800 X124.229 Y96.4 E200.58461
G0 F5400 X124.229 Y96
G1 F1800 X95.771 Y96 E201.53113
G1 X95.671 Y96
;MESH:NONMESH
G0 F600 X95.671 Y96 Z0.7
G0 F5400 X124.729 Y124.729
G0 X124.799 Y124.799
;TIME_ELAPSED:168.400777
;LAYER:2
;TYPE:WALL-OUTER
;MESH:cube.stl
G1 F1800 X95.201 Y124.799 E202.51556
G1 X95.201 Y95.201 E203.5
G1 X124.799 Y95.201 E204.48443
G1 X124.799 Y124.799 E205.46886
G0 F7200 X124.599 Y124.799
G0 X124.409 Y124.409
;TYPE:SKIN
G1 F1800 X95.591 Y124.409 E206.42736
G1 X95.591 Y95.591 E207.38585
G1 X124.409 Y95.591 E208.34434
G1 X124.409 Y124.409 E209.30283
G0 F7200 X124.228 Y124
G1 F1800 X95.77 Y124 E210.24934
G0 F7200 X95.77 Y123.6
G1 F1800 X124.228 Y123.6 E211.19586
G0 F7200 X124.228 Y123.2
G1 F1800 X95.77 Y123.2 E212.14238
G0 F7200 X95.77 Y122.8
G1 F1800 X124.228 Y122.8 E213.08889
G0 F7200 X124.228 Y122.4
G1 F1800 X95.77 Y122.4 E214.03541
G0 F7200 X95.77 Y122
G1 F1800 X124.228 Y122 E214.98193
G0 F7200 X124.228 Y121.6
G1 F1800 X95.77 Y121.6 E215.92845
G0 F7200 X95.77 Y121.2
G1 F1800 X124.228 Y121.2 E216.87496
G0 F7200 X124.228 Y120.8
G1 F1800 X95.77 Y120.8 E217.82148
G0 F7200 X95.77 Y120.4
G1 F1800 X124.228 Y120.4 E218.768
G0 F7200 X124.228 Y120
G1 F1800 X95.77 Y120 E219.71451
G0 F7200 X95.77 Y119.6
G1 F1800 X124.228 Y119.6 E220.66103
G0 F7200 X124.228 Y119.2
G1 F1800 X95.77 Y119.2 E221.60755
G0 F7200 X95.771 Y118.8
G1 F1800 X124.229 Y118.8 E222.55406
G0 F7200 X124.229 Y118.4
G1 F1800 X95.771 Y118.4 E223.50058
G0 F7200 X95.771 Y118
G1 F1800 X124.229 Y118 E224.4471
G0 F7200 X124.229 Y117.6
G1 F1800 X95.771 Y117.6 E225.39361
G0 F7200 X95.771 Y117.2
G1 F1800 X124.229 Y117.2 E226.34013
G0 F7200 X124.229 Y116.8
G1 F1800 X95.771 Y116.8 E227.28665
G0 F7200 X95.771 Y116.4
G1 F1800 X124.229 Y116.4 E228.23317
G0 F7200 X124.229 Y116
G1 F1800 X95.771 Y116 E229.17968
G0 F7200 X95.771 Y115.6
G1 F1800 X124.229 Y115.6 E230.1262
G0 F7200 X124.229 Y115.2
G1 F1800 X95.771 Y115.2 E231.07272
G0 F7200 X95.771 Y114.8
G1 F1800 X124.229 Y114.8 E232.01923
G0 F7200 X124.229 Y114.4
G1 F1800 X95.771 Y114.4 E232.96575
G0 F7200 X95.771 Y114
G1 F1800 X124.229 Y114 E233.91227
G0 F7200 X124.229 Y113.6
G1 F1800 X95.771 Y113.6 E234.85878
G0 F7200 X95.771 Y113.2
G1 F1800 X124.229 Y113.2 E235.8053
G0 F7200 X124.229 Y112.8
G1 F1800 X95.771 Y112.8 E236.75182
G0 F7200 X95.771 Y112.4
G1 F1800 X124.229 Y112.4 E237.69833
G0 F7200 X124.229 Y112
G1 F1800 X95.771 Y112 E238.64485
G0 F7200 X95.771 Y111.6
G1 F1800 X124.229 Y111.6 E239.59137
G0 F7200 X124.229 Y111.2
G1 F1800 X95.771 Y111.2 E240.53789
G0 F7200 X95.771 Y110.8
G1 F1800 X124.229 Y110.8 E241.4844
G0 F7200 X124.229 Y110.4
G1 F1800 X95.771 Y110.4 E242.43092
G0 F7200 X95.771 Y110
G1 F1800 X124.229 Y110 E243.37744
G0 F7200 X124.229 Y109.6
G1 F1800 X95.771 Y109.6 E244.32395
G0 F7200 X95.771 Y109.2
G1 F1800 X124.229 Y109.2 E245.27047
G0 F7200 X124.229 Y108.8
G1 F1800 X95.771 Y108.8 E246.21699
G0 F7200 X95.771 Y108.4
G1 F1800 X124.229 Y108.4 E247.1635
G0 F7200 X124.229 Y108
G1 F1800 X95.771 Y108 E248.11002
G0 F7200 X95.771 Y107.6
