; G-Code originally generated by Simplify3D(R) Version 4.1.2
; This calibration test gcode modified by the Teaching Tech Calibration website: https://teachingtechyt.github.io/calibration.html
;M80 ; power supply on
G90
M82
M106 S0
M140 S60 ; custom bed temp
M190 S60 ; custom bed temp
M104 S160 T0 ; custom hot end temp minus 50 degrees
G28 ; home all axes
G29 ; probe ABL
;M420 S1 ; restore ABL mesh
M109 S210 T0 ; custom hot end temp 
;customstart
G0 Z3; fix for delta printers that home at max
; square 1
;process Process
;layer 1, Z = 0.200
T0
G92 E0.0000
G1 E-6 F2400 ; custom retraction
;fan1;
G1 Z0.200 F1200
G1 X14.6360 Y16.3140 F6000
G1 E0 F2400 ; custom un-retraction/prime
G92 E0.0000
G1 X16.3140 Y14.6360 E0.1023 F1800
G1 X43.6860 Y14.6360 E1.2822
G1 X45.3640 Y16.3140 E1.3844
G1 X45.3640 Y43.6860 E2.5643
G1 X43.6860 Y45.3640 E2.6666
G1 X16.3140 Y45.3640 E3.8465
G1 X14.6360 Y43.6860 E3.9487
G1 X14.6360 Y16.3140 E5.1286
G92 E0.0000
G1 E-6 F2400 ; custom retraction
;zhop1
G1 X15.2120 Y16.5520 F6000
G1 Z0.200 F1200
G1 E0 F2400 ; custom un-retraction/prime
G92 E0.0000
G1 X16.5520 Y15.2120 E0.0817 F1800
G1 X43.4480 Y15.2120 E1.2410
G1 X44.7880 Y16.5520 E1.3227
G1 X44.7880 Y43.4480 E2.4820
G1 X43.4480 Y44.7880 E2.5637
G1 X16.5520 Y44.7880 E3.7231
G1 X15.2120 Y43.4480 E3.8048
G1 X15.2120 Y16.5520 E4.9641
G92 E0.0000
G1 E-6 F2400 ; custom retraction
;zhop1
G1 X17.7880 Y17.7880 F6000
G1 X17.7880 Y18.2020
G1 X18.9400 Y18.9400
G1 Z0.200 F1200
G1 E0 F2400 ; custom un-retraction/prime
G92 E0.0000
G1 X41.0600 Y18.9400 E0.9535 F1440
G1 X41.0600 Y41.0600 E1.9069
G1 X18.9400 Y41.0600 E2.8604
G1 X18.9400 Y18.9400 E3.8139
G1 X18.3640 Y18.3640 F6000
G92 E0.0000
G1 X41.6360 Y18.3640 E1.0031 F1440
G1 X41.6360 Y41.6360 E2.0063
G1 X18.3640 Y41.6360 E3.0094
G1 X18.3640 Y18.3640 E4.0125
G1 X17.7880 Y17.7880 F6000
G92 E0.0000
G1 X42.2120 Y17.7880 E1.0528 F1080
G1 X42.2120 Y42.2120 E2.1056
G1 X17.7880 Y42.2120 E3.1584
G1 X17.7880 Y17.7880 E4.2111
G1 X40.4650 Y19.2860 F6000
G92 E0.0000
G1 X40.7140 Y19.5350 E0.0152 F1440
G1 X40.7140 Y20.3500 E0.0503
G1 X39.6500 Y19.2860 E0.1152
G1 X38.8360 Y19.2860 E0.1503
G1 X40.7140 Y21.1640 E0.2648
G1 X40.7140 Y21.9790 E0.2999
G1 X38.0210 Y19.2860 E0.4640
G1 X37.2070 Y19.2860 E0.4992
G1 X40.7140 Y22.7930 E0.7130
G1 X40.7140 Y23.6080 E0.7481
G1 X36.3920 Y19.2860 E1.0116
G1 X35.5780 Y19.2860 E1.0467
G1 X40.7140 Y24.4220 E1.3598
G1 X40.7140 Y25.2370 E1.3949
G1 X34.7630 Y19.2860 E1.7577
G1 X33.9480 Y19.2860 E1.7928
G1 X40.7140 Y26.0520 E2.2053
G1 X40.7140 Y26.8660 E2.2404
G1 X33.1340 Y19.2860 E2.7025
G1 X32.3190 Y19.2860 E2.7376
G1 X40.7140 Y27.6810 E3.2494
G1 X40.7140 Y28.4950 E3.2845
G1 X31.5050 Y19.2860 E3.8459
G1 X30.6900 Y19.2860 E3.8810
G1 X40.7140 Y29.3100 E4.4921
G1 X40.7140 Y30.1250 E4.5272
G1 X29.8750 Y19.2860 E5.1879
G1 X29.0610 Y19.2860 E5.2231
G1 X40.7140 Y30.9390 E5.9334
G1 X40.7140 Y31.7540 E5.9686
G1 X28.2460 Y19.2860 E6.7286
G1 X27.4320 Y19.2860 E6.7637
G1 X40.7140 Y32.5680 E7.5734
G1 X40.7140 Y33.3830 E7.6085
G1 X26.6170 Y19.2860 E8.4679
G1 X25.8020 Y19.2860 E8.5030
G1 X40.7140 Y34.1980 E9.4120
G1 X40.7140 Y35.0120 E9.4471
G1 X24.9880 Y19.2860 E10.4058
G1 X24.1730 Y19.2860 E10.4409
G1 X40.7140 Y35.8270 E11.4493
G1 X40.7140 Y36.6410 E11.4844
G1 X23.3590 Y19.2860 E12.5424
G1 X22.5440 Y19.2860 E12.5775
G1 X40.7140 Y37.4560 E13.6851
G1 X40.7140 Y38.2700 E13.7202
G1 X21.7300 Y19.2860 E14.8775
G1 X20.9150 Y19.2860 E14.9127
G1 X40.7140 Y39.0850 E16.1196
G1 X40.7140 Y39.9000 E16.1547
G1 X20.1000 Y19.2860 E17.4113
G1 X19.2860 Y19.2860 E17.4465
G1 X40.7140 Y40.7140 E18.7527
G1 X39.9000 Y40.7140 E18.7879
G1 X19.2860 Y20.1000 E20.0445
G1 X19.2860 Y20.9150 E20.0796
G1 X39.0850 Y40.7140 E21.2865
G1 X38.2700 Y40.7140 E21.3217
G1 X19.2860 Y21.7300 E22.4790
G1 X19.2860 Y22.5440 E22.5141
G1 X37.4560 Y40.7140 E23.6217
G1 X36.6410 Y40.7140 E23.6568
G1 X19.2860 Y23.3590 E24.7148
G1 X19.2860 Y24.1730 E24.7499
G1 X35.8270 Y40.7140 E25.7583
G1 X35.0120 Y40.7140 E25.7934
G1 X19.2860 Y24.9880 E26.7521
G1 X19.2860 Y25.8020 E26.7872
G1 X34.1980 Y40.7140 E27.6962
G1 X33.3830 Y40.7140 E27.7313
G1 X19.2860 Y26.6170 E28.5907
G1 X19.2860 Y27.4320 E28.6258
G1 X32.5680 Y40.7140 E29.4355
G1 X31.7540 Y40.7140 E29.4706
G1 X19.2860 Y28.2460 E30.2307
G1 X19.2860 Y29.0610 E30.2658
G1 X30.9390 Y40.7140 E30.9762
G1 X30.1250 Y40.7140 E31.0113
G1 X19.2860 Y29.8750 E31.6720
G1 X19.2860 Y30.6900 E31.7071
G1 X29.3100 Y40.7140 E32.3182
G1 X28.4950 Y40.7140 E32.3533
G1 X19.2860 Y31.5050 E32.9147
G1 X19.2860 Y32.3190 E32.9499
G1 X27.6810 Y40.7140 E33.4616
G1 X26.8660 Y40.7140 E33.4967
G1 X19.2860 Y33.1340 E33.9588
G1 X19.2860 Y33.9480 E33.9939
G1 X26.0520 Y40.7140 E34.4064
G1 X25.2370 Y40.7140 E34.4415
G1 X19.2860 Y34.7630 E34.8043
G1 X19.2860 Y35.5770 E34.8394
G1 X24.4230 Y40.7140 E35.1525
G1 X23.6080 Y40.7140 E35.1877
G1 X19.2860 Y36.3920 E35.4511
G1 X19.2860 Y37.2070 E35.4863
G1 X22.7930 Y40.7140 E35.7001
G1 X21.9790 Y40.7140 E35.7352
G1 X19.2860 Y38.0210 E35.8994
G1 X19.2860 Y38.8360 E35.9345
G1 X21.1640 Y40.7140 E36.0490
G1 X20.3500 Y40.7140 E36.0841
G1 X19.2860 Y39.6500 E36.1489
G1 X19.2860 Y40.4650 E36.1840
G1 X19.5350 Y40.7140 E36.1992
G92 E0.0000
G1 E-6 F2400 ; custom retraction

; square 2
;process Process
;layer 1, Z = 0.200
T0
G92 E0.0000
G1 E-6 F2400 ; custom retraction
;fan1;
G1 Z0.200 F1200
G1 X14.6360 Y186.3140 F6000
G1 E0 F2400 ; custom un-retraction/prime
G92 E0.0000
G1 X16.3140 Y184.6360 E0.1023 F1800
G1 X43.6860 Y184.6360 E1.2822
G1 X45.3640 Y186.3140 E1.3844
G1 X45.3640 Y213.6860 E2.5643
G1 X43.6860 Y215.3640 E2.6666
G1 X16.3140 Y215.3640 E3.8465
G1 X14.6360 Y213.6860 E3.9487
G1 X14.6360 Y186.3140 E5.1286
G92 E0.0000
G1 E-6 F2400 ; custom retraction
;zhop1
G1 X15.2120 Y186.5520 F6000
G1 Z0.200 F1200
G1 E0 F2400 ; custom un-retraction/prime
G92 E0.0000
G1 X16.5520 Y185.2120 E0.0817 F1800
G1 X43.4480 Y185.2120 E1.2410
G1 X44.7880 Y186.5520 E1.3227
G1 X44.7880 Y213.4480 E2.4820
G1 X43.4480 Y214.7880 E2.5637
G1 X16.5520 Y214.7880 E3.7231
G1 X15.2120 Y213.4480 E3.8048
G1 X15.2120 Y186.5520 E4.9641
G92 E0.0000
G1 E-6 F2400 ; custom retraction
;zhop1
G1 X17.7880 Y187.7880 F6000
G1 X17.7880 Y188.2020
G1 X18.9400 Y188.9400
G1 Z0.200 F1200
G1 E0 F2400 ; custom un-retraction/prime
G92 E0.0000
G1 X41.0600 Y188.9400 E0.9535 F1440
G1 X41.0600 Y211.0600 E1.9069
G1 X18.9400 Y211.0600 E2.8604
G1 X18.9400 Y188.9400 E3.8139
G1 X18.3640 Y188.3640 F6000
G92 E0.0000
G1 X41.6360 Y188.3640 E1.0031 F1440
G1 X41.6360 Y211.6360 E2.0063
G1 X18.3640 Y211.6360 E3.0094
G1 X18.3640 Y188.3640 E4.0125
G1 X17.7880 Y187.7880 F6000
G92 E0.0000
G1 X42.2120 Y187.7880 E1.0528 F1080
G1 X42.2120 Y212.2120 E2.1056
G1 X17.7880 Y212.2120 E3.1584
G1 X17.7880 Y187.7880 E4.2111
G1 X40.4650 Y189.2860 F6000
G92 E0.0000
G1 X40.7140 Y189.5350 E0.0152 F1440
G1 X40.7140 Y190.3500 E0.0503
G1 X39.6500 Y189.2860 E0.1152
G1 X38.8360 Y189.2860 E0.1503
G1 X40.7140 Y191.1640 E0.2648
G1 X40.7140 Y191.9790 E0.2999
G1 X38.0210 Y189.2860 E0.4640
G1 X37.2070 Y189.2860 E0.4992
G1 X40.7140 Y192.7930 E0.7130
G1 X40.7140 Y193.6080 E0.7481
G1 X36.3920 Y189.2860 E1.0116
G1 X35.5780 Y189.2860 E1.0467
G1 X40.7140 Y194.4220 E1.3598
G1 X40.7140 Y195.2370 E1.3949
G1 X34.7630 Y189.2860 E1.7577
G1 X33.9480 Y189.2860 E1.7928
G1 X40.7140 Y196.0520 E2.2053
G1 X40.7140 Y196.8660 E2.2404
G1 X33.1340 Y189.2860 E2.7025
G1 X32.3190 Y189.2860 E2.7376
G1 X40.7140 Y197.6810 E3.2494
G1 X40.7140 Y198.4950 E3.2845
G1 X31.5050 Y189.2860 E3.8459
G1 X30.6900 Y189.2860 E3.8810
G1 X40.7140 Y199.3100 E4.4921
G1 X40.7140 Y200.1250 E4.5272
G1 X29.8750 Y189.2860 E5.1879
G1 X29.0610 Y189.2860 E5.2231
G1 X40.7140 Y200.9390 E5.9334
G1 X40.7140 Y201.7540 E5.9686
G1 X28.2460 Y189.2860 E6.7286
G1 X27.4320 Y189.2860 E6.7637
G1 X40.7140 Y202.5680 E7.5734
G1 X40.7140 Y203.3830 E7.6085
G1 X26.6170 Y189.2860 E8.4679
G1 X25.8020 Y189.2860 E8.5030
G1 X40.7140 Y204.1980 E9.4120
G1 X40.7140 Y205.0120 E9.4471
G1 X24.9880 Y189.2860 E10.4058
G1 X24.1730 Y189.2860 E10.4409
G1 X40.7140 Y205.8270 E11.4493
G1 X40.7140 Y206.6410 E11.4844
G1 X23.3590 Y189.2860 E12.5424
G1 X22.5440 Y189.2860 E12.5775
G1 X40.7140 Y207.4560 E13.6851
G1 X40.7140 Y208.2700 E13.7202
G1 X21.7300 Y189.2860 E14.8775
G1 X20.9150 Y189.2860 E14.9127
G1 X40.7140 Y209.0850 E16.1196
G1 X40.7140 Y209.9000 E16.1547
G1 X20.1000 Y189.2860 E17.4113
G1 X19.2860 Y189.2860 E17.4465
G1 X40.7140 Y210.7140 E18.7527
G1 X39.9000 Y210.7140 E18.7879
G1 X19.2860 Y190.1000 E20.0445
G1 X19.2860 Y190.9150 E20.0796
G1 X39.0850 Y210.7140 E21.2865
G1 X38.2700 Y210.7140 E21.3217
G1 X19.2860 Y191.7300 E22.4790
G1 X19.2860 Y192.5440 E22.5141
G1 X37.4560 Y210.7140 E23.6217
G1 X36.6410 Y210.7140 E23.6568
G1 X19.2860 Y193.3590 E24.7148
G1 X19.2860 Y194.1730 E24.7499
G1 X35.8270 Y210.7140 E25.7583
G1 X35.0120 Y210.7140 E25.7934
G1 X19.2860 Y194.9880 E26.7521
G1 X19.2860 Y195.8020 E26.7872
G1 X34.1980 Y210.7140 E27.6962
G1 X33.3830 Y210.7140 E27.7313
G1 X19.2860 Y196.6170 E28.5907
G1 X19.2860 Y197.4320 E28.6258
G1 X32.5680 Y210.7140 E29.4355
G1 X31.7540 Y210.7140 E29.4706
G1 X19.2860 Y198.2460 E30.2307
G1 X19.2860 Y199.0610 E30.2658
G1 X30.9390 Y210.7140 E30.9762
G1 X30.1250 Y210.7140 E31.0113
G1 X19.2860 Y199.8750 E31.6720
G1 X19.2860 Y200.6900 E31.7071
G1 X29.3100 Y210.7140 E32.3182
G1 X28.4950 Y210.7140 E32.3533
G1 X19.2860 Y201.5050 E32.9147
G1 X19.2860 Y202.3190 E32.9499
G1 X27.6810 Y210.7140 E33.4616
G1 X26.8660 Y210.7140 E33.4967
G1 X19.2860 Y203.1340 E33.9588
G1 X19.2860 Y203.9480 E33.9939
G1 X26.0520 Y210.7140 E34.4064
G1 X25.2370 Y210.7140 E34.4415
G1 X19.2860 Y204.7630 E34.8043
G1 X19.2860 Y205.5770 E34.8394
G1 X24.4230 Y210.7140 E35.1525
G1 X23.6080 Y210.7140 E35.1877
G1 X19.2860 Y206.3920 E35.4511
G1 X19.2860 Y207.2070 E35.4863
G1 X22.7930 Y210.7140 E35.7001
G1 X21.9790 Y210.7140 E35.7352
G1 X19.2860 Y208.0210 E35.8994
G1 X19.2860 Y208.8360 E35.9345
G1 X21.1640 Y210.7140 E36.0490
G1 X20.3500 Y210.7140 E36.0841
G1 X19.2860 Y209.6500 E36.1489
G1 X19.2860 Y210.4650 E36.1840
G1 X19.5350 Y210.7140 E36.1992
G92 E0.0000
G1 E-6 F2400 ; custom retraction

; square 3
;process Process
;layer 1, Z = 0.200
T0
G92 E0.0000
G1 E-6 F2400 ; custom retraction
;fan1;
G1 Z0.200 F1200
G1 X99.6360 Y101.3140 F6000
G1 E0 F2400 ; custom un-retraction/prime
G92 E0.0000
G1 X101.3140 Y99.6360 E0.1023 F1800
G1 X128.6860 Y99.6360 E1.2822
G1 X130.3640 Y101.3140 E1.3844
G1 X130.3640 Y128.6860 E2.5643
G1 X128.6860 Y130.3640 E2.6666
G1 X101.3140 Y130.3640 E3.8465
G1 X99.6360 Y128.6860 E3.9487
G1 X99.6360 Y101.3140 E5.1286
G92 E0.0000
G1 E-6 F2400 ; custom retraction
;zhop1
G1 X100.2120 Y101.5520 F6000
G1 Z0.200 F1200
G1 E0 F2400 ; custom un-retraction/prime
G92 E0.0000
G1 X101.5520 Y100.2120 E0.0817 F1800
G1 X128.4480 Y100.2120 E1.2410
G1 X129.7880 Y101.5520 E1.3227
G1 X129.7880 Y128.4480 E2.4820
G1 X128.4480 Y129.7880 E2.5637
G1 X101.5520 Y129.7880 E3.7231
G1 X100.2120 Y128.4480 E3.8048
G1 X100.2120 Y101.5520 E4.9641
G92 E0.0000
G1 E-6 F2400 ; custom retraction
;zhop1
G1 X102.7880 Y102.7880 F6000
G1 X102.7880 Y103.2020
G1 X103.9400 Y103.9400
G1 Z0.200 F1200
G1 E0 F2400 ; custom un-retraction/prime
G92 E0.0000
G1 X126.0600 Y103.9400 E0.9535 F1440
G1 X126.0600 Y126.0600 E1.9069
G1 X103.9400 Y126.0600 E2.8604
G1 X103.9400 Y103.9400 E3.8139
G1 X103.3640 Y103.3640 F6000
G92 E0.0000
G1 X126.6360 Y103.3640 E1.0031 F1440
G1 X126.6360 Y126.6360 E2.0063
G1 X103.3640 Y126.6360 E3.0094
G1 X103.3640 Y103.3640 E4.0125
G1 X102.7880 Y102.7880 F6000
G92 E0.0000
G1 X127.2120 Y102.7880 E1.0528 F1080
G1 X127.2120 Y127.2120 E2.1056
G1 X102.7880 Y127.2120 E3.1584
G1 X102.7880 Y102.7880 E4.2111
G1 X125.4650 Y104.2860 F6000
G92 E0.0000
G1 X125.7140 Y104.5350 E0.0152 F1440
G1 X125.7140 Y105.3500 E0.0503
G1 X124.6500 Y104.2860 E0.1152
G1 X123.8360 Y104.2860 E0.1503
G1 X125.7140 Y106.1640 E0.2648
G1 X125.7140 Y106.9790 E0.2999
G1 X123.0210 Y104.2860 E0.4640
G1 X122.2070 Y104.2860 E0.4992
G1 X125.7140 Y107.7930 E0.7130
G1 X125.7140 Y108.6080 E0.7481
G1 X121.3920 Y104.2860 E1.0116
G1 X120.5780 Y104.2860 E1.0467
G1 X125.7140 Y109.4220 E1.3598
G1 X125.7140 Y110.2370 E1.3949
G1 X119.7630 Y104.2860 E1.7577
G1 X118.9480 Y104.2860 E1.7928
G1 X125.7140 Y111.0520 E2.2053
G1 X125.7140 Y111.8660 E2.2404
G1 X118.1340 Y104.2860 E2.7025
G1 X117.3190 Y104.2860 E2.7376
G1 X125.7140 Y112.6810 E3.2494
G1 X125.7140 Y113.4950 E3.2845
G1 X116.5050 Y104.2860 E3.8459
G1 X115.6900 Y104.2860 E3.8810
G1 X125.7140 Y114.3100 E4.4921
G1 X125.7140 Y115.1250 E4.5272
G1 X114.8750 Y104.2860 E5.1879
G1 X114.0610 Y104.2860 E5.2231
G1 X125.7140 Y115.9390 E5.9334
G1 X125.7140 Y116.7540 E5.9686
G1 X113.2460 Y104.2860 E6.7286
G1 X112.4320 Y104.2860 E6.7637
G1 X125.7140 Y117.5680 E7.5734
G1 X125.7140 Y118.3830 E7.6085
G1 X111.6170 Y104.2860 E8.4679
G1 X110.8020 Y104.2860 E8.5030
G1 X125.7140 Y119.1980 E9.4120
G1 X125.7140 Y120.0120 E9.4471
G1 X109.9880 Y104.2860 E10.4058
G1 X109.1730 Y104.2860 E10.4409
G1 X125.7140 Y120.8270 E11.4493
G1 X125.7140 Y121.6410 E11.4844
G1 X108.3590 Y104.2860 E12.5424
G1 X107.5440 Y104.2860 E12.5775
G1 X125.7140 Y122.4560 E13.6851
G1 X125.7140 Y123.2700 E13.7202
G1 X106.7300 Y104.2860 E14.8775
G1 X105.9150 Y104.2860 E14.9127
G1 X125.7140 Y124.0850 E16.1196
G1 X125.7140 Y124.9000 E16.1547
G1 X105.1000 Y104.2860 E17.4113
G1 X104.2860 Y104.2860 E17.4465
G1 X125.7140 Y125.7140 E18.7527
G1 X124.9000 Y125.7140 E18.7879
G1 X104.2860 Y105.1000 E20.0445
G1 X104.2860 Y105.9150 E20.0796
G1 X124.0850 Y125.7140 E21.2865
G1 X123.2700 Y125.7140 E21.3217
G1 X104.2860 Y106.7300 E22.4790
G1 X104.2860 Y107.5440 E22.5141
G1 X122.4560 Y125.7140 E23.6217
G1 X121.6410 Y125.7140 E23.6568
G1 X104.2860 Y108.3590 E24.7148
G1 X104.2860 Y109.1730 E24.7499
G1 X120.8270 Y125.7140 E25.7583
G1 X120.0120 Y125.7140 E25.7934
G1 X104.2860 Y109.9880 E26.7521
G1 X104.2860 Y110.8020 E26.7872
G1 X119.1980 Y125.7140 E27.6962
G1 X118.3830 Y125.7140 E27.7313
G1 X104.2860 Y111.6170 E28.5907
G1 X104.2860 Y112.4320 E28.6258
G1 X117.5680 Y125.7140 E29.4355
G1 X116.7540 Y125.7140 E29.4706
G1 X104.2860 Y113.2460 E30.2307
G1 X104.2860 Y114.0610 E30.2658
G1 X115.9390 Y125.7140 E30.9762
G1 X115.1250 Y125.7140 E31.0113
G1 X104.2860 Y114.8750 E31.6720
G1 X104.2860 Y115.6900 E31.7071
G1 X114.3100 Y125.7140 E32.3182
G1 X113.4950 Y125.7140 E32.3533
G1 X104.2860 Y116.5050 E32.9147
G1 X104.2860 Y117.3190 E32.9499
G1 X112.6810 Y125.7140 E33.4616
G1 X111.8660 Y125.7140 E33.4967
G1 X104.2860 Y118.1340 E33.9588
G1 X104.2860 Y118.9480 E33.9939
G1 X111.0520 Y125.7140 E34.4064
G1 X110.2370 Y125.7140 E34.4415
G1 X104.2860 Y119.7630 E34.8043
G1 X104.2860 Y120.5770 E34.8394
G1 X109.4230 Y125.7140 E35.1525
G1 X108.6080 Y125.7140 E35.1877
G1 X104.2860 Y121.3920 E35.4511
G1 X104.2860 Y122.2070 E35.4863
G1 X107.7930 Y125.7140 E35.7001
G1 X106.9790 Y125.7140 E35.7352
G1 X104.2860 Y123.0210 E35.8994
G1 X104.2860 Y123.8360 E35.9345
G1 X106.1640 Y125.7140 E36.0490
G1 X105.3500 Y125.7140 E36.0841
G1 X104.2860 Y124.6500 E36.1489
G1 X104.2860 Y125.4650 E36.1840
G1 X104.5350 Y125.7140 E36.1992
G92 E0.0000
G1 E-6 F2400 ; custom retraction

; square 4
;process Process
;layer 1, Z = 0.200
T0
G92 E0.0000
G1 E-6 F2400 ; custom retraction
;fan1;
G1 Z0.200 F1200
G1 X184.6360 Y16.3140 F6000
G1 E0 F2400 ; custom un-retraction/prime
G92 E0.0000
G1 X186.3140 Y14.6360 E0.1023 F1800
G1 X213.6860 Y14.6360 E1.2822
G1 X215.3640 Y16.3140 E1.3844
G1 X215.3640 Y43.6860 E2.5643
G1 X213.6860 Y45.3640 E2.6666
G1 X186.3140 Y45.3640 E3.8465
G1 X184.6360 Y43.6860 E3.9487
G1 X184.6360 Y16.3140 E5.1286
G92 E0.0000
G1 E-6 F2400 ; custom retraction
;zhop1
G1 X185.2120 Y16.5520 F6000
G1 Z0.200 F1200
G1 E0 F2400 ; custom un-retraction/prime
G92 E0.0000
G1 X186.5520 Y15.2120 E0.0817 F1800
G1 X213.4480 Y15.2120 E1.2410
G1 X214.7880 Y16.5520 E1.3227
G1 X214.7880 Y43.4480 E2.4820
G1 X213.4480 Y44.7880 E2.5637
G1 X186.5520 Y44.7880 E3.7231
G1 X185.2120 Y43.4480 E3.8048
G1 X185.2120 Y16.5520 E4.9641
G92 E0.0000
G1 E-6 F2400 ; custom retraction
;zhop1
G1 X187.7880 Y17.7880 F6000
G1 X187.7880 Y18.2020
G1 X188.9400 Y18.9400
G1 Z0.200 F1200
G1 E0 F2400 ; custom un-retraction/prime
G92 E0.0000
G1 X211.0600 Y18.9400 E0.9535 F1440
G1 X211.0600 Y41.0600 E1.9069
G1 X188.9400 Y41.0600 E2.8604
G1 X188.9400 Y18.9400 E3.8139
G1 X188.3640 Y18.3640 F6000
G92 E0.0000
G1 X211.6360 Y18.3640 E1.0031 F1440
G1 X211.6360 Y41.6360 E2.0063
G1 X188.3640 Y41.6360 E3.0094
G1 X188.3640 Y18.3640 E4.0125
G1 X187.7880 Y17.7880 F6000
G92 E0.0000
G1 X212.2120 Y17.7880 E1.0528 F1080
G1 X212.2120 Y42.2120 E2.1056
G1 X187.7880 Y42.2120 E3.1584
G1 X187.7880 Y17.7880 E4.2111
G1 X210.4650 Y19.2860 F6000
G92 E0.0000
G1 X210.7140 Y19.5350 E0.0152 F1440
G1 X210.7140 Y20.3500 E0.0503
G1 X209.6500 Y19.2860 E0.1152
G1 X208.8360 Y19.2860 E0.1503
G1 X210.7140 Y21.1640 E0.2648
G1 X210.7140 Y21.9790 E0.2999
G1 X208.0210 Y19.2860 E0.4640
G1 X207.2070 Y19.2860 E0.4992
G1 X210.7140 Y22.7930 E0.7130
G1 X210.7140 Y23.6080 E0.7481
G1 X206.3920 Y19.2860 E1.0116
G1 X205.5780 Y19.2860 E1.0467
G1 X210.7140 Y24.4220 E1.3598
G1 X210.7140 Y25.2370 E1.3949
G1 X204.7630 Y19.2860 E1.7577
G1 X203.9480 Y19.2860 E1.7928
G1 X210.7140 Y26.0520 E2.2053
G1 X210.7140 Y26.8660 E2.2404
G1 X203.1340 Y19.2860 E2.7025
G1 X202.3190 Y19.2860 E2.7376
G1 X210.7140 Y27.6810 E3.2494
G1 X210.7140 Y28.4950 E3.2845
G1 X201.5050 Y19.2860 E3.8459
G1 X200.6900 Y19.2860 E3.8810
G1 X210.7140 Y29.3100 E4.4921
G1 X210.7140 Y30.1250 E4.5272
G1 X199.8750 Y19.2860 E5.1879
G1 X199.0610 Y19.2860 E5.2231
G1 X210.7140 Y30.9390 E5.9334
G1 X210.7140 Y31.7540 E5.9686
G1 X198.2460 Y19.2860 E6.7286
G1 X197.4320 Y19.2860 E6.7637
G1 X210.7140 Y32.5680 E7.5734
G1 X210.7140 Y33.3830 E7.6085
G1 X196.6170 Y19.2860 E8.4679
G1 X195.8020 Y19.2860 E8.5030
G1 X210.7140 Y34.1980 E9.4120
G1 X210.7140 Y35.0120 E9.4471
G1 X194.9880 Y19.2860 E10.4058
G1 X194.1730 Y19.2860 E10.4409
G1 X210.7140 Y35.8270 E11.4493
G1 X210.7140 Y36.6410 E11.4844
G1 X193.3590 Y19.2860 E12.5424
G1 X192.5440 Y19.2860 E12.5775
G1 X210.7140 Y37.4560 E13.6851
G1 X210.7140 Y38.2700 E13.7202
G1 X191.7300 Y19.2860 E14.8775
G1 X190.9150 Y19.2860 E14.9127
G1 X210.7140 Y39.0850 E16.1196
G1 X210.7140 Y39.9000 E16.1547
G1 X190.1000 Y19.2860 E17.4113
G1 X189.2860 Y19.2860 E17.4465
G1 X210.7140 Y40.7140 E18.7527
G1 X209.9000 Y40.7140 E18.7879
G1 X189.2860 Y20.1000 E20.0445
G1 X189.2860 Y20.9150 E20.0796
G1 X209.0850 Y40.7140 E21.2865
G1 X208.2700 Y40.7140 E21.3217
G1 X189.2860 Y21.7300 E22.4790
G1 X189.2860 Y22.5440 E22.5141
G1 X207.4560 Y40.7140 E23.6217
G1 X206.6410 Y40.7140 E23.6568
G1 X189.2860 Y23.3590 E24.7148
G1 X189.2860 Y24.1730 E24.7499
G1 X205.8270 Y40.7140 E25.7583
G1 X205.0120 Y40.7140 E25.7934
G1 X189.2860 Y24.9880 E26.7521
G1 X189.2860 Y25.8020 E26.7872
G1 X204.1980 Y40.7140 E27.6962
G1 X203.3830 Y40.7140 E27.7313
G1 X189.2860 Y26.6170 E28.5907
G1 X189.2860 Y27.4320 E28.6258
G1 X202.5680 Y40.7140 E29.4355
G1 X201.7540 Y40.7140 E29.4706
G1 X189.2860 Y28.2460 E30.2307
G1 X189.2860 Y29.0610 E30.2658
G1 X200.9390 Y40.7140 E30.9762
G1 X200.1250 Y40.7140 E31.0113
G1 X189.2860 Y29.8750 E31.6720
G1 X189.2860 Y30.6900 E31.7071
G1 X199.3100 Y40.7140 E32.3182
G1 X198.4950 Y40.7140 E32.3533
G1 X189.2860 Y31.5050 E32.9147
G1 X189.2860 Y32.3190 E32.9499
G1 X197.6810 Y40.7140 E33.4616
G1 X196.8660 Y40.7140 E33.4967
G1 X189.2860 Y33.1340 E33.9588
G1 X189.2860 Y33.9480 E33.9939
G1 X196.0520 Y40.7140 E34.4064
G1 X195.2370 Y40.7140 E34.4415
G1 X189.2860 Y34.7630 E34.8043
G1 X189.2860 Y35.5770 E34.8394
G1 X194.4230 Y40.7140 E35.1525
G1 X193.6080 Y40.7140 E35.1877
G1 X189.2860 Y36.3920 E35.4511
G1 X189.2860 Y37.2070 E35.4863
G1 X192.7930 Y40.7140 E35.7001
G1 X191.9790 Y40.7140 E35.7352
G1 X189.2860 Y38.0210 E35.8994
G1 X189.2860 Y38.8360 E35.9345
G1 X191.1640 Y40.7140 E36.0490
G1 X190.3500 Y40.7140 E36.0841
G1 X189.2860 Y39.6500 E36.1489
G1 X189.2860 Y40.4650 E36.1840
G1 X189.5350 Y40.7140 E36.1992
G92 E0.0000
G1 E-6 F2400 ; custom retraction

; square 5
;process Process
;layer 1, Z = 0.200
T0
G92 E0.0000
G1 E-6 F2400 ; custom retraction
;fan1;
G1 Z0.200 F1200
G1 X184.6360 Y186.3140 F6000
G1 E0 F2400 ; custom un-retraction/prime
G92 E0.0000
G1 X186.3140 Y184.6360 E0.1023 F1800
G1 X213.6860 Y184.6360 E1.2822
G1 X215.3640 Y186.3140 E1.3844
G1 X215.3640 Y213.6860 E2.5643
G1 X213.6860 Y215.3640 E2.6666
G1 X186.3140 Y215.3640 E3.8465
G1 X184.6360 Y213.6860 E3.9487
G1 X184.6360 Y186.3140 E5.1286
G92 E0.0000
G1 E-6 F2400 ; custom retraction
;zhop1
G1 X185.2120 Y186.5520 F6000
G1 Z0.200 F1200
G1 E0 F2400 ; custom un-retraction/prime
G92 E0.0000
G1 X186.5520 Y185.2120 E0.0817 F1800
G1 X213.4480 Y185.2120 E1.2410
G1 X214.7880 Y186.5520 E1.3227
G1 X214.7880 Y213.4480 E2.4820
G1 X213.4480 Y214.7880 E2.5637
G1 X186.5520 Y214.7880 E3.7231
G1 X185.2120 Y213.4480 E3.8048
G1 X185.2120 Y186.5520 E4.9641
G92 E0.0000
G1 E-6 F2400 ; custom retraction
;zhop1
G1 X187.7880 Y187.7880 F6000
G1 X187.7880 Y188.2020
G1 X188.9400 Y188.9400
G1 Z0.200 F1200
G1 E0 F2400 ; custom un-retraction/prime
G92 E0.0000
G1 X211.0600 Y188.9400 E0.9535 F1440
G1 X211.0600 Y211.0600 E1.9069
G1 X188.9400 Y211.0600 E2.8604
G1 X188.9400 Y188.9400 E3.8139
G1 X188.3640 Y188.3640 F6000
G92 E0.0000
G1 X211.6360 Y188.3640 E1.0031 F1440
G1 X211.6360 Y211.6360 E2.0063
G1 X188.3640 Y211.6360 E3.0094
G1 X188.3640 Y188.3640 E4.0125
G1 X187.7880 Y187.7880 F6000
G92 E0.0000
G1 X212.2120 Y187.7880 E1.0528 F1080
G1 X212.2120 Y212.2120 E2.1056
G1 X187.7880 Y212.2120 E3.1584
G1 X187.7880 Y187.7880 E4.2111
G1 X210.4650 Y189.2860 F6000
G92 E0.0000
G1 X210.7140 Y189.5350 E0.0152 F1440
G1 X210.7140 Y190.3500 E0.0503
G1 X209.6500 Y189.2860 E0.1152
G1 X208.8360 Y189.2860 E0.1503
G1 X210.7140 Y191.1640 E0.2648
G1 X210.7140 Y191.9790 E0.2999
G1 X208.0210 Y189.2860 E0.4640
G1 X207.2070 Y189.2860 E0.4992
G1 X210.7140 Y192.7930 E0.7130
G1 X210.7140 Y193.6080 E0.7481
G1 X206.3920 Y189.2860 E1.0116
G1 X205.5780 Y189.2860 E1.0467
G1 X210.7140 Y194.4220 E1.3598
G1 X210.7140 Y195.2370 E1.3949
G1 X204.7630 Y189.2860 E1.7577
G1 X203.9480 Y189.2860 E1.7928
G1 X210.7140 Y196.0520 E2.2053
G1 X210.7140 Y196.8660 E2.2404
G1 X203.1340 Y189.2860 E2.7025
G1 X202.3190 Y189.2860 E2.7376
G1 X210.7140 Y197.6810 E3.2494
G1 X210.7140 Y198.4950 E3.2845
G1 X201.5050 Y189.2860 E3.8459
G1 X200.6900 Y189.2860 E3.8810
G1 X210.7140 Y199.3100 E4.4921
G1 X210.7140 Y200.1250 E4.5272
G1 X199.8750 Y189.2860 E5.1879
G1 X199.0610 Y189.2860 E5.2231
G1 X210.7140 Y200.9390 E5.9334
G1 X210.7140 Y201.7540 E5.9686
G1 X198.2460 Y189.2860 E6.7286
G1 X197.4320 Y189.2860 E6.7637
G1 X210.7140 Y202.5680 E7.5734
G1 X210.7140 Y203.3830 E7.6085
G1 X196.6170 Y189.2860 E8.4679
G1 X195.8020 Y189.2860 E8.5030
G1 X210.7140 Y204.1980 E9.4120
G1 X210.7140 Y205.0120 E9.4471
G1 X194.9880 Y189.2860 E10.4058
G1 X194.1730 Y189.2860 E10.4409
G1 X210.7140 Y205.8270 E11.4493
G1 X210.7140 Y206.6410 E11.4844
G1 X193.3590 Y189.2860 E12.5424
G1 X192.5440 Y189.2860 E12.5775
G1 X210.7140 Y207.4560 E13.6851
G1 X210.7140 Y208.2700 E13.7202
G1 X191.7300 Y189.2860 E14.8775
G1 X190.9150 Y189.2860 E14.9127
G1 X210.7140 Y209.0850 E16.1196
G1 X210.7140 Y209.9000 E16.1547
G1 X190.1000 Y189.2860 E17.4113
G1 X189.2860 Y189.2860 E17.4465
G1 X210.7140 Y210.7140 E18.7527
G1 X209.9000 Y210.7140 E18.7879
G1 X189.2860 Y190.1000 E20.0445
G1 X189.2860 Y190.9150 E20.0796
G1 X209.0850 Y210.7140 E21.2865
G1 X208.2700 Y210.7140 E21.3217
G1 X189.2860 Y191.7300 E22.4790
G1 X189.2860 Y192.5440 E22.5141
G1 X207.4560 Y210.7140 E23.6217
G1 X206.6410 Y210.7140 E23.6568
G1 X189.2860 Y193.3590 E24.7148
G1 X189.2860 Y194.1730 E24.7499
G1 X205.8270 Y210.7140 E25.7583
G1 X205.0120 Y210.7140 E25.7934
G1 X189.2860 Y194.9880 E26.7521
G1 X189.2860 Y195.8020 E26.7872
G1 X204.1980 Y210.7140 E27.6962
G1 X203.3830 Y210.7140 E27.7313
G1 X189.2860 Y196.6170 E28.5907
G1 X189.2860 Y197.4320 E28.6258
G1 X202.5680 Y210.7140 E29.4355
G1 X201.7540 Y210.7140 E29.4706
G1 X189.2860 Y198.2460 E30.2307
G1 X189.2860 Y199.0610 E30.2658
G1 X200.9390 Y210.7140 E30.9762
G1 X200.1250 Y210.7140 E31.0113
G1 X189.2860 Y199.8750 E31.6720
G1 X189.2860 Y200.6900 E31.7071
G1 X199.3100 Y210.7140 E32.3182
G1 X198.4950 Y210.7140 E32.3533
G1 X189.2860 Y201.5050 E32.9147
G1 X189.2860 Y202.3190 E32.9499
G1 X197.6810 Y210.7140 E33.4616
G1 X196.8660 Y210.7140 E33.4967
G1 X189.2860 Y203.1340 E33.9588
G1 X189.2860 Y203.9480 E33.9939
G1 X196.0520 Y210.7140 E34.4064
G1 X195.2370 Y210.7140 E34.4415
G1 X189.2860 Y204.7630 E34.8043
G1 X189.2860 Y205.5770 E34.8394
G1 X194.4230 Y210.7140 E35.1525
G1 X193.6080 Y210.7140 E35.1877
G1 X189.2860 Y206.3920 E35.4511
G1 X189.2860 Y207.2070 E35.4863
G1 X192.7930 Y210.7140 E35.7001
G1 X191.9790 Y210.7140 E35.7352
G1 X189.2860 Y208.0210 E35.8994
G1 X189.2860 Y208.8360 E35.9345
G1 X191.1640 Y210.7140 E36.0490
G1 X190.3500 Y210.7140 E36.0841
G1 X189.2860 Y209.6500 E36.1489
G1 X189.2860 Y210.4650 E36.1840
G1 X189.5350 Y210.7140 E36.1992
G92 E0.0000
G1 E-6 F2400 ; custom retraction

G28 X0 ; home X axis
M106 S0 ; turn off cooling fan
M104 S0 ; turn off extruder
M140 S0 ; turn off bed
M84 ; disable motors
;customend
