; G-Code originally generated by Simplify3D(R) Version 4.1.2
; This calibration test gcode modified by the Teaching Tech Calibration website: https://teachingtechyt.github.io/calibration.html
;M80 ; power supply on
G90
M82
M106 S0
M140 S60 ; custom bed temp
M190 S60 ; custom bed temp
M104 S150 T0 ; custom hot end temp minus 50 degrees
G28 ; home all axes
;G29 ; probe ABL
;M420 S1 ; restore ABL mesh
M109 S200 T0 ; custom hot end temp 
;customstart
G0 Z3; fix for delta printers that home at max
;process Process-1
;layer 1, Z = 0.200
T0
G92 E0.0000
G1 E-6 F2400 ; custom retraction
;fan1;
G1 Z0.200 F1200
G1 X86.3780 Y107.5720 F6000
G1 E0 F2400 ; custom un-retraction/prime
G92 E0.0000
G1 X87.4300 Y107.1360 E0.0491 F1800
G1 X142.5700 Y107.1360 E2.4259
G1 X143.6220 Y107.5720 E2.4750
G1 X147.4280 Y111.3780 E2.7070
G1 X147.8640 Y112.4300 E2.7561
G1 X147.8640 Y117.5700 E2.9777
G1 X147.4280 Y118.6220 E3.0268
G1 X143.6220 Y122.4280 E3.2588
G1 X142.5700 Y122.8640 E3.3079
G1 X87.4300 Y122.8640 E5.6847
G1 X86.3780 Y122.4280 E5.7338
G1 X82.5720 Y118.6220 E5.9658
G1 X82.1360 Y117.5700 E6.0149
G1 X82.1360 Y112.4300 E6.2364
G1 X82.5720 Y111.3780 E6.2855
G1 X86.3780 Y107.5720 E6.5175
G92 E0.0000
G1 E-6 F2400 ; custom retraction
;zhop1
G1 X86.7040 Y108.0600 F6000
G1 Z0.200 F1200
G1 E0 F2400 ; custom un-retraction/prime
G92 E0.0000
G1 X87.5450 Y107.7120 E0.0392 F1800
G1 X142.4550 Y107.7120 E2.4061
G1 X143.2960 Y108.0600 E2.4454
G1 X146.9400 Y111.7040 E2.6675
G1 X147.2880 Y112.5450 E2.7067
G1 X147.2880 Y117.4550 E2.9184
G1 X146.9400 Y118.2960 E2.9576
G1 X143.2960 Y121.9400 E3.1797
G1 X142.4550 Y122.2880 E3.2190
G1 X87.5450 Y122.2880 E5.5859
G1 X86.7040 Y121.9400 E5.6251
G1 X83.0600 Y118.2960 E5.8472
G1 X82.7120 Y117.4550 E5.8865
G1 X82.7120 Y112.5450 E6.0981
G1 X83.0600 Y111.7040 E6.1374
G1 X86.7040 Y108.0600 E6.3595
G92 E0.0000
G1 E-6 F2400 ; custom retraction
;zhop1
G1 X88.1190 Y110.2880 F6000
G1 X88.0120 Y110.3960
G1 X88.5960 Y111.4400
G1 Z0.200 F1200
G1 E0 F2400 ; custom un-retraction/prime
G92 E0.0000
G1 X141.4040 Y111.4400 E2.2763 F1440
G1 X143.5600 Y113.5960 E2.4077
G1 X143.5600 Y116.4040 E2.5287
G1 X141.4040 Y118.5600 E2.6602
G1 X88.5960 Y118.5600 E4.9364
G1 X86.4400 Y116.4040 E5.0679
G1 X86.4400 Y113.5960 E5.1889
G1 X88.5960 Y111.4400 E5.3203
G1 X88.3580 Y110.8640 F6000
G92 E0.0000
G1 X141.6420 Y110.8640 E2.2968 F1440
G1 X144.1360 Y113.3580 E2.4489
G1 X144.1360 Y116.6420 E2.5904
G1 X141.6420 Y119.1360 E2.7424
G1 X88.3580 Y119.1360 E5.0393
G1 X85.8640 Y116.6420 E5.1913
G1 X85.8640 Y113.3580 E5.3329
G1 X88.3580 Y110.8640 E5.4849
G1 X88.1190 Y110.2880 F6000
G92 E0.0000
G1 X141.8810 Y110.2880 E2.3174 F1080
G1 X144.7120 Y113.1190 E2.4900
G1 X144.7120 Y116.8810 E2.6521
G1 X141.8810 Y119.7120 E2.8247
G1 X88.1190 Y119.7120 E5.1421
G1 X85.2880 Y116.8810 E5.3147
G1 X85.2880 Y113.1190 E5.4768
G1 X88.1190 Y110.2880 E5.6494
G1 X88.8890 Y118.2140 F6000
G92 E0.0000
G1 X86.7860 Y116.1110 E0.1282 F1440
G1 X86.7860 Y115.2960 E0.1634
G1 X89.7040 Y118.2140 E0.3413
G1 X90.5180 Y118.2140 E0.3764
G1 X86.7860 Y114.4820 E0.6039
G1 X86.7860 Y113.7400 E0.6359
G1 X86.8220 Y113.7030 E0.6381
G1 X91.3330 Y118.2140 E0.9131
G1 X92.1480 Y118.2140 E0.9482
G1 X87.2290 Y113.2960 E1.2480
G1 X87.6370 Y112.8890 E1.2729
G1 X92.9620 Y118.2140 E1.5975
G1 X93.7770 Y118.2140 E1.6326
G1 X88.0440 Y112.4810 E1.9821
G1 X88.4510 Y112.0740 E2.0070
G1 X94.5910 Y118.2140 E2.3813
G1 X95.4060 Y118.2140 E2.4164
G1 X88.9770 Y111.7860 E2.8083
G1 X89.7920 Y111.7860 E2.8434
G1 X96.2210 Y118.2140 E3.2353
G1 X97.0350 Y118.2140 E3.2704
G1 X90.6060 Y111.7860 E3.6623
G1 X91.4210 Y111.7860 E3.6974
G1 X97.8500 Y118.2140 E4.0893
G1 X98.6640 Y118.2140 E4.1244
G1 X92.2360 Y111.7860 E4.5163
G1 X93.0500 Y111.7860 E4.5514
G1 X99.4790 Y118.2140 E4.9433
G1 X100.2930 Y118.2140 E4.9784
G1 X93.8650 Y111.7860 E5.3703
G1 X94.6790 Y111.7860 E5.4055
G1 X101.1080 Y118.2140 E5.7974
G1 X101.9230 Y118.2140 E5.8325
G1 X95.4940 Y111.7860 E6.2244
G1 X96.3080 Y111.7860 E6.2595
G1 X102.7370 Y118.2140 E6.6514
G1 X103.5520 Y118.2140 E6.6865
G1 X97.1230 Y111.7860 E7.0784
G1 X97.9380 Y111.7860 E7.1135
G1 X104.3660 Y118.2140 E7.5054
G1 X105.1810 Y118.2140 E7.5405
G1 X98.7520 Y111.7860 E7.9324
G1 X99.5670 Y111.7860 E7.9675
G1 X105.9960 Y118.2140 E8.3594
G1 X106.8100 Y118.2140 E8.3945
G1 X100.3810 Y111.7860 E8.7864
G1 X101.1960 Y111.7860 E8.8216
G1 X107.6250 Y118.2140 E9.2135
G1 X108.4390 Y118.2140 E9.2486
G1 X102.0110 Y111.7860 E9.6405
G1 X102.8250 Y111.7860 E9.6756
G1 X109.2540 Y118.2140 E10.0675
G1 X110.0690 Y118.2140 E10.1026
G1 X103.6400 Y111.7860 E10.4945
G1 X104.4540 Y111.7860 E10.5296
G1 X110.8830 Y118.2140 E10.9215
G1 X111.6980 Y118.2140 E10.9566
G1 X105.2690 Y111.7860 E11.3485
G1 X106.0840 Y111.7860 E11.3836
G1 X112.5120 Y118.2140 E11.7755
G1 X113.3270 Y118.2140 E11.8106
G1 X106.8980 Y111.7860 E12.2025
G1 X107.7130 Y111.7860 E12.2376
G1 X114.1410 Y118.2140 E12.6295
G1 X114.9560 Y118.2140 E12.6647
G1 X108.5270 Y111.7860 E13.0566
G1 X109.3420 Y111.7860 E13.0917
G1 X115.7710 Y118.2140 E13.4836
G1 X116.5850 Y118.2140 E13.5187
G1 X110.1560 Y111.7860 E13.9106
G1 X110.9710 Y111.7860 E13.9457
G1 X117.4000 Y118.2140 E14.3376
G1 X118.2140 Y118.2140 E14.3727
G1 X111.7860 Y111.7860 E14.7646
G1 X112.6000 Y111.7860 E14.7997
G1 X119.0290 Y118.2140 E15.1916
G1 X119.8440 Y118.2140 E15.2267
G1 X113.4150 Y111.7860 E15.6186
G1 X114.2290 Y111.7860 E15.6537
G1 X120.6580 Y118.2140 E16.0456
G1 X121.4730 Y118.2140 E16.0808
G1 X115.0440 Y111.7860 E16.4727
G1 X115.8590 Y111.7860 E16.5078
G1 X122.2870 Y118.2140 E16.8997
G1 X123.1020 Y118.2140 E16.9348
G1 X116.6730 Y111.7860 E17.3267
G1 X117.4880 Y111.7860 E17.3618
G1 X123.9170 Y118.2140 E17.7537
G1 X124.7310 Y118.2140 E17.7888
G1 X118.3020 Y111.7860 E18.1807
G1 X119.1170 Y111.7860 E18.2158
G1 X125.5460 Y118.2140 E18.6077
G1 X126.3600 Y118.2140 E18.6428
G1 X119.9310 Y111.7860 E19.0347
G1 X120.7460 Y111.7860 E19.0698
G1 X127.1750 Y118.2140 E19.4617
G1 X127.9890 Y118.2140 E19.4968
G1 X121.5610 Y111.7860 E19.8887
G1 X122.3750 Y111.7860 E19.9239
G1 X128.8040 Y118.2140 E20.3158
G1 X129.6190 Y118.2140 E20.3509
G1 X123.1900 Y111.7860 E20.7428
G1 X124.0040 Y111.7860 E20.7779
G1 X130.4330 Y118.2140 E21.1698
G1 X131.2480 Y118.2140 E21.2049
G1 X124.8190 Y111.7860 E21.5968
G1 X125.6340 Y111.7860 E21.6319
G1 X132.0620 Y118.2140 E22.0238
G1 X132.8770 Y118.2140 E22.0589
G1 X126.4480 Y111.7860 E22.4508
G1 X127.2630 Y111.7860 E22.4859
G1 X133.6920 Y118.2140 E22.8778
G1 X134.5060 Y118.2140 E22.9129
G1 X128.0770 Y111.7860 E23.3048
G1 X128.8920 Y111.7860 E23.3399
G1 X135.3210 Y118.2140 E23.7318
G1 X136.1350 Y118.2140 E23.7670
G1 X129.7070 Y111.7860 E24.1589
G1 X130.5210 Y111.7860 E24.1940
G1 X136.9500 Y118.2140 E24.5859
G1 X137.7650 Y118.2140 E24.6210
G1 X131.3360 Y111.7860 E25.0129
G1 X132.1500 Y111.7860 E25.0480
G1 X138.5790 Y118.2140 E25.4399
G1 X139.3940 Y118.2140 E25.4750
G1 X132.9650 Y111.7860 E25.8669
G1 X133.7790 Y111.7860 E25.9020
G1 X140.2080 Y118.2140 E26.2939
G1 X141.0230 Y118.2140 E26.3290
G1 X134.5940 Y111.7860 E26.7209
G1 X135.4090 Y111.7860 E26.7560
G1 X141.5490 Y117.9260 E27.1304
G1 X141.9560 Y117.5190 E27.1552
G1 X136.2230 Y111.7860 E27.5047
G1 X137.0380 Y111.7860 E27.5398
G1 X142.3630 Y117.1110 E27.8644
G1 X142.7710 Y116.7040 E27.8893
G1 X137.8520 Y111.7860 E28.1891
G1 X138.6670 Y111.7860 E28.2242
G1 X143.1780 Y116.2970 E28.4992
G1 X143.2140 Y116.2600 E28.5014
G1 X143.2140 Y115.5180 E28.5334
G1 X139.4820 Y111.7860 E28.7609
G1 X140.2960 Y111.7860 E28.7961
G1 X143.2140 Y114.7040 E28.9739
G1 X143.2140 Y113.8890 E29.0091
G1 X141.1110 Y111.7860 E29.1373
G92 E0.0000
G1 E-6 F2400 ; custom retraction
M104 S205 T0 ; custom hot end temp - A
M106 S255; custom fan 100% from layer 2
G1 Z0.400 F1200
G1 X141.5030 Y111.2000 F6000
G1 E0 F2400 ; custom un-retraction/prime
G92 E0.0000
G1 X143.8000 Y113.4970 E0.1167 F2880
G1 X143.8000 Y116.5030 E0.2247
G1 X141.5030 Y118.8000 E0.3414
G1 X88.4970 Y118.8000 E2.2454
G1 X86.2000 Y116.5030 E2.3621
G1 X86.2000 Y113.4970 E2.4700
G1 X88.4970 Y111.2000 E2.5867
G1 X141.5030 Y111.2000 E4.4908
G1 X141.7020 Y110.7200 F6000
G92 E0.0000
G1 X144.2800 Y113.2980 E0.1310 F2880
G1 X144.2800 Y116.7020 E0.2532
G1 X141.7020 Y119.2800 E0.3842
G1 X88.2980 Y119.2800 E2.3025
G1 X85.7200 Y116.7020 E2.4335
G1 X85.7200 Y113.2980 E2.5557
G1 X88.2980 Y110.7200 E2.6867
G1 X141.7020 Y110.7200 E4.6050
G1 X141.9010 Y110.2400 F6000
G92 E0.0000
G1 X144.7600 Y113.0990 E0.1453 F2160
G1 X144.7600 Y116.9010 E0.2818
G1 X141.9010 Y119.7600 E0.4271
G1 X88.0990 Y119.7600 E2.3596
G1 X85.2400 Y116.9010 E2.5049
G1 X85.2400 Y113.0990 E2.6414
G1 X88.0990 Y110.2400 E2.7867
G1 X141.9010 Y110.2400 E4.7193
G1 X143.5120 Y116.3560 F6000
G92 E0.0000
G1 X141.3560 Y118.5120 E0.1095 F2880
G1 X140.6770 Y118.5120 E0.1339
G1 X143.5120 Y115.6770 E0.2779
G1 X143.5120 Y114.9990 E0.3023
G1 X139.9990 Y118.5120 E0.4808
G1 X139.3200 Y118.5120 E0.5051
G1 X143.5120 Y114.3200 E0.7181
G1 X143.5120 Y113.6410 E0.7425
G1 X138.6410 Y118.5120 E0.9899
G1 X137.9620 Y118.5120 E1.0143
G1 X143.1850 Y113.2890 E1.2796
G1 X142.8450 Y112.9500 E1.2969
G1 X137.2830 Y118.5120 E1.5794
G1 X136.6040 Y118.5120 E1.6038
G1 X142.5060 Y112.6100 E1.9036
G1 X142.1670 Y112.2710 E1.9209
G1 X135.9260 Y118.5120 E2.2379
G1 X135.2470 Y118.5120 E2.2623
G1 X141.8270 Y111.9320 E2.5966
G1 X141.4880 Y111.5920 E2.6138
G1 X134.5680 Y118.5120 E2.9653
G1 X133.8890 Y118.5120 E2.9897
G1 X140.9130 Y111.4880 E3.3465
G1 X140.2340 Y111.4880 E3.3709
G1 X133.2100 Y118.5120 E3.7278
G1 X132.5320 Y118.5120 E3.7521
G1 X139.5560 Y111.4880 E4.1090
G1 X138.8770 Y111.4880 E4.1333
G1 X131.8530 Y118.5120 E4.4902
G1 X131.1740 Y118.5120 E4.5145
G1 X138.1980 Y111.4880 E4.8714
G1 X137.5190 Y111.4880 E4.8957
G1 X130.4950 Y118.5120 E5.2526
G1 X129.8160 Y118.5120 E5.2769
G1 X136.8400 Y111.4880 E5.6338
G1 X136.1610 Y111.4880 E5.6581
G1 X129.1370 Y118.5120 E6.0150
G1 X128.4590 Y118.5120 E6.0393
G1 X135.4830 Y111.4880 E6.3962
G1 X134.8040 Y111.4880 E6.4206
G1 X127.7800 Y118.5120 E6.7774
G1 X127.1010 Y118.5120 E6.8018
G1 X134.1250 Y111.4880 E7.1586
G1 X133.4460 Y111.4880 E7.1830
G1 X126.4220 Y118.5120 E7.5398
G1 X125.7430 Y118.5120 E7.5642
G1 X132.7670 Y111.4880 E7.9210
G1 X132.0880 Y111.4880 E7.9454
G1 X125.0640 Y118.5120 E8.3022
G1 X124.3860 Y118.5120 E8.3266
G1 X131.4100 Y111.4880 E8.6834
G1 X130.7310 Y111.4880 E8.7078
G1 X123.7070 Y118.5120 E9.0646
G1 X123.0280 Y118.5120 E9.0890
G1 X130.0520 Y111.4880 E9.4458
G1 X129.3730 Y111.4880 E9.4702
G1 X122.3490 Y118.5120 E9.8270
G1 X121.6700 Y118.5120 E9.8514
G1 X128.6940 Y111.4880 E10.2082
G1 X128.0160 Y111.4880 E10.2326
G1 X120.9920 Y118.5120 E10.5894
G1 X120.3130 Y118.5120 E10.6138
G1 X127.3370 Y111.4880 E10.9706
G1 X126.6580 Y111.4880 E10.9950
G1 X119.6340 Y118.5120 E11.3518
G1 X118.9550 Y118.5120 E11.3762
G1 X125.9790 Y111.4880 E11.7330
G1 X125.3000 Y111.4880 E11.7574
G1 X118.2760 Y118.5120 E12.1142
G1 X117.5970 Y118.5120 E12.1386
G1 X124.6210 Y111.4880 E12.4954
G1 X123.9430 Y111.4880 E12.5198
G1 X116.9190 Y118.5120 E12.8766
G1 X116.2400 Y118.5120 E12.9010
G1 X123.2640 Y111.4880 E13.2578
G1 X122.5850 Y111.4880 E13.2822
G1 X115.5610 Y118.5120 E13.6390
G1 X114.8820 Y118.5120 E13.6634
G1 X121.9060 Y111.4880 E14.0202
G1 X121.2270 Y111.4880 E14.0446
G1 X114.2030 Y118.5120 E14.4014
G1 X113.5250 Y118.5120 E14.4258
G1 X120.5490 Y111.4880 E14.7826
G1 X119.8700 Y111.4880 E14.8070
G1 X112.8460 Y118.5120 E15.1638
G1 X112.1670 Y118.5120 E15.1882
G1 X119.1910 Y111.4880 E15.5450
G1 X118.5120 Y111.4880 E15.5694
G1 X111.4880 Y118.5120 E15.9262
G1 X110.8090 Y118.5120 E15.9506
G1 X117.8330 Y111.4880 E16.3074
G1 X117.1540 Y111.4880 E16.3318
G1 X110.1300 Y118.5120 E16.6886
G1 X109.4520 Y118.5120 E16.7130
G1 X116.4760 Y111.4880 E17.0698
G1 X115.7970 Y111.4880 E17.0942
G1 X108.7730 Y118.5120 E17.4510
G1 X108.0940 Y118.5120 E17.4754
G1 X115.1180 Y111.4880 E17.8322
G1 X114.4390 Y111.4880 E17.8566
G1 X107.4150 Y118.5120 E18.2134
G1 X106.7360 Y118.5120 E18.2378
G1 X113.7600 Y111.4880 E18.5946
G1 X113.0810 Y111.4880 E18.6190
G1 X106.0570 Y118.5120 E18.9758
G1 X105.3790 Y118.5120 E19.0002
G1 X112.4030 Y111.4880 E19.3570
G1 X111.7240 Y111.4880 E19.3814
G1 X104.7000 Y118.5120 E19.7383
G1 X104.0210 Y118.5120 E19.7626
G1 X111.0450 Y111.4880 E20.1195
G1 X110.3660 Y111.4880 E20.1438
G1 X103.3420 Y118.5120 E20.5007
G1 X102.6630 Y118.5120 E20.5250
G1 X109.6870 Y111.4880 E20.8819
G1 X109.0090 Y111.4880 E20.9062
G1 X101.9850 Y118.5120 E21.2631
G1 X101.3060 Y118.5120 E21.2874
G1 X108.3300 Y111.4880 E21.6443
G1 X107.6510 Y111.4880 E21.6686
G1 X100.6270 Y118.5120 E22.0255
G1 X99.9480 Y118.5120 E22.0498
G1 X106.9720 Y111.4880 E22.4067
G1 X106.2930 Y111.4880 E22.4311
G1 X99.2690 Y118.5120 E22.7879
G1 X98.5900 Y118.5120 E22.8123
G1 X105.6140 Y111.4880 E23.1691
G1 X104.9360 Y111.4880 E23.1935
G1 X97.9120 Y118.5120 E23.5503
G1 X97.2330 Y118.5120 E23.5747
G1 X104.2570 Y111.4880 E23.9315
G1 X103.5780 Y111.4880 E23.9559
G1 X96.5540 Y118.5120 E24.3127
G1 X95.8750 Y118.5120 E24.3371
G1 X102.8990 Y111.4880 E24.6939
G1 X102.2200 Y111.4880 E24.7183
G1 X95.1960 Y118.5120 E25.0751
G1 X94.5170 Y118.5120 E25.0995
G1 X101.5410 Y111.4880 E25.4563
G1 X100.8630 Y111.4880 E25.4807
G1 X93.8390 Y118.5120 E25.8375
G1 X93.1600 Y118.5120 E25.8619
G1 X100.1840 Y111.4880 E26.2187
G1 X99.5050 Y111.4880 E26.2431
G1 X92.4810 Y118.5120 E26.5999
G1 X91.8020 Y118.5120 E26.6243
G1 X98.8260 Y111.4880 E26.9811
G1 X98.1470 Y111.4880 E27.0055
G1 X91.1230 Y118.5120 E27.3623
G1 X90.4450 Y118.5120 E27.3867
G1 X97.4690 Y111.4880 E27.7435
G1 X96.7900 Y111.4880 E27.7679
G1 X89.7660 Y118.5120 E28.1247
G1 X89.0870 Y118.5120 E28.1491
G1 X96.1110 Y111.4880 E28.5059
G1 X95.4320 Y111.4880 E28.5303
G1 X88.5120 Y118.4080 E28.8818
G1 X88.1730 Y118.0680 E28.8991
G1 X94.7530 Y111.4880 E29.2333
G1 X94.0740 Y111.4880 E29.2577
G1 X87.8330 Y117.7290 E29.5748
G1 X87.4940 Y117.3900 E29.5920
G1 X93.3960 Y111.4880 E29.8918
G1 X92.7170 Y111.4880 E29.9162
G1 X87.1550 Y117.0500 E30.1988
G1 X86.8150 Y116.7110 E30.2160
G1 X92.0380 Y111.4880 E30.4813
G1 X91.3590 Y111.4880 E30.5057
G1 X86.4880 Y116.3590 E30.7532
G1 X86.4880 Y115.6800 E30.7775
G1 X90.6800 Y111.4880 E30.9905
G1 X90.0010 Y111.4880 E31.0149
G1 X86.4880 Y115.0010 E31.1934
G1 X86.4880 Y114.3230 E31.2178
G1 X89.3230 Y111.4880 E31.3618
G1 X88.6440 Y111.4880 E31.3861
G1 X86.4880 Y113.6440 E31.4957
G92 E0.0000
G1 E-6 F2400 ; custom retraction
;layer 3, Z = 0.600
;fan3;
G1 Z0.600 F1200
G1 X86.2000 Y113.4970 F6000
G1 E0 F2400 ; custom un-retraction/prime
G92 E0.0000
G1 X88.4970 Y111.2000 E0.1167 F2880
G1 X141.5030 Y111.2000 E2.0207
G1 X143.8000 Y113.4970 E2.1374
G1 X143.8000 Y116.5030 E2.2454
G1 X141.5030 Y118.8000 E2.3621
G1 X88.4970 Y118.8000 E4.2661
G1 X86.2000 Y116.5030 E4.3828
G1 X86.2000 Y113.4970 E4.4908
G1 X85.7200 Y113.2980 F6000
G92 E0.0000
G1 X88.2980 Y110.7200 E0.1310 F2880
G1 X141.7020 Y110.7200 E2.0493
G1 X144.2800 Y113.2980 E2.1803
G1 X144.2800 Y116.7020 E2.3025
G1 X141.7020 Y119.2800 E2.4335
G1 X88.2980 Y119.2800 E4.3518
G1 X85.7200 Y116.7020 E4.4828
G1 X85.7200 Y113.2980 E4.6050
G1 X85.2400 Y113.0990 F6000
G92 E0.0000
G1 X88.0990 Y110.2400 E0.1453 F2160
G1 X141.9010 Y110.2400 E2.0778
G1 X144.7600 Y113.0990 E2.2231
G1 X144.7600 Y116.9010 E2.3596
G1 X141.9010 Y119.7600 E2.5049
G1 X88.0990 Y119.7600 E4.4375
G1 X85.2400 Y116.9010 E4.5828
G1 X85.2400 Y113.0990 E4.7193
G1 X88.6440 Y118.5120 F6000
G92 E0.0000
G1 X86.4880 Y116.3560 E0.1095 F2880
G1 X86.4880 Y115.6770 E0.1339
G1 X89.3230 Y118.5120 E0.2779
G1 X90.0010 Y118.5120 E0.3023
G1 X86.4880 Y114.9990 E0.4808
G1 X86.4880 Y114.3200 E0.5052
G1 X90.6800 Y118.5120 E0.7181
G1 X91.3590 Y118.5120 E0.7425
G1 X86.4880 Y113.6410 E0.9900
G1 X86.4880 Y113.6160 E0.9908
G1 X86.8150 Y113.2890 E1.0075
G1 X92.0380 Y118.5120 E1.2728
G1 X92.7170 Y118.5120 E1.2972
G1 X87.1550 Y112.9500 E1.5797
G1 X87.4940 Y112.6100 E1.5970
G1 X93.3960 Y118.5120 E1.8968
G1 X94.0740 Y118.5120 E1.9211
G1 X87.8330 Y112.2710 E2.2382
G1 X88.1730 Y111.9320 E2.2554
G1 X94.7530 Y118.5120 E2.5897
G1 X95.4320 Y118.5120 E2.6141
G1 X88.5120 Y111.5920 E2.9656
G1 X88.6160 Y111.4880 E2.9709
G1 X89.0870 Y111.4880 E2.9878
G1 X96.1110 Y118.5120 E3.3446
G1 X96.7900 Y118.5120 E3.3690
G1 X89.7660 Y111.4880 E3.7258
G1 X90.4450 Y111.4880 E3.7502
G1 X97.4690 Y118.5120 E4.1070
G1 X98.1470 Y118.5120 E4.1314
G1 X91.1230 Y111.4880 E4.4882
G1 X91.8020 Y111.4880 E4.5126
G1 X98.8260 Y118.5120 E4.8694
G1 X99.5050 Y118.5120 E4.8938
G1 X92.4810 Y111.4880 E5.2506
G1 X93.1600 Y111.4880 E5.2750
G1 X100.1840 Y118.5120 E5.6318
G1 X100.8630 Y118.5120 E5.6562
G1 X93.8390 Y111.4880 E6.0131
G1 X94.5170 Y111.4880 E6.0374
G1 X101.5410 Y118.5120 E6.3943
G1 X102.2200 Y118.5120 E6.4186
G1 X95.1960 Y111.4880 E6.7755
G1 X95.8750 Y111.4880 E6.7998
G1 X102.8990 Y118.5120 E7.1567
G1 X103.5780 Y118.5120 E7.1810
G1 X96.5540 Y111.4880 E7.5379
G1 X97.2330 Y111.4880 E7.5622
G1 X104.2570 Y118.5120 E7.9191
G1 X104.9360 Y118.5120 E7.9434
G1 X97.9120 Y111.4880 E8.3003
G1 X98.5900 Y111.4880 E8.3246
G1 X105.6140 Y118.5120 E8.6815
G1 X106.2930 Y118.5120 E8.7059
G1 X99.2690 Y111.4880 E9.0627
G1 X99.9480 Y111.4880 E9.0871
G1 X106.9720 Y118.5120 E9.4439
G1 X107.6510 Y118.5120 E9.4683
G1 X100.6270 Y111.4880 E9.8251
G1 X101.3060 Y111.4880 E9.8495
G1 X108.3300 Y118.5120 E10.2063
G1 X109.0080 Y118.5120 E10.2307
G1 X101.9840 Y111.4880 E10.5875
G1 X102.6630 Y111.4880 E10.6119
G1 X109.6870 Y118.5120 E10.9687
G1 X110.3660 Y118.5120 E10.9931
G1 X103.3420 Y111.4880 E11.3499
G1 X104.0210 Y111.4880 E11.3743
G1 X111.0450 Y118.5120 E11.7311
G1 X111.7240 Y118.5120 E11.7555
G1 X104.7000 Y111.4880 E12.1123
G1 X105.3790 Y111.4880 E12.1367
G1 X112.4030 Y118.5120 E12.4935
G1 X113.0810 Y118.5120 E12.5179
G1 X106.0570 Y111.4880 E12.8747
G1 X106.7360 Y111.4880 E12.8991
G1 X113.7600 Y118.5120 E13.2559
G1 X114.4390 Y118.5120 E13.2803
G1 X107.4150 Y111.4880 E13.6371
G1 X108.0940 Y111.4880 E13.6615
G1 X115.1180 Y118.5120 E14.0183
G1 X115.7970 Y118.5120 E14.0427
G1 X108.7730 Y111.4880 E14.3995
G1 X109.4520 Y111.4880 E14.4239
G1 X116.4760 Y118.5120 E14.7807
G1 X117.1540 Y118.5120 E14.8051
G1 X110.1300 Y111.4880 E15.1619
G1 X110.8090 Y111.4880 E15.1863
G1 X117.8330 Y118.5120 E15.5431
G1 X118.5120 Y118.5120 E15.5675
G1 X111.4880 Y111.4880 E15.9243
G1 X112.1670 Y111.4880 E15.9487
G1 X119.1910 Y118.5120 E16.3055
G1 X119.8700 Y118.5120 E16.3299
G1 X112.8460 Y111.4880 E16.6867
G1 X113.5240 Y111.4880 E16.7111
G1 X120.5480 Y118.5120 E17.0679
G1 X121.2270 Y118.5120 E17.0923
G1 X114.2030 Y111.4880 E17.4491
G1 X114.8820 Y111.4880 E17.4735
G1 X121.9060 Y118.5120 E17.8303
G1 X122.5850 Y118.5120 E17.8547
G1 X115.5610 Y111.4880 E18.2115
G1 X116.2400 Y111.4880 E18.2359
G1 X123.2640 Y118.5120 E18.5927
G1 X123.9430 Y118.5120 E18.6171
G1 X116.9190 Y111.4880 E18.9739
G1 X117.5970 Y111.4880 E18.9983
G1 X124.6210 Y118.5120 E19.3551
G1 X125.3000 Y118.5120 E19.3795
G1 X118.2760 Y111.4880 E19.7363
G1 X118.9550 Y111.4880 E19.7607
G1 X125.9790 Y118.5120 E20.1175
G1 X126.6580 Y118.5120 E20.1419
G1 X119.6340 Y111.4880 E20.4987
G1 X120.3130 Y111.4880 E20.5231
G1 X127.3370 Y118.5120 E20.8799
G1 X128.0160 Y118.5120 E20.9043
G1 X120.9920 Y111.4880 E21.2611
G1 X121.6700 Y111.4880 E21.2855
G1 X128.6940 Y118.5120 E21.6423
G1 X129.3730 Y118.5120 E21.6667
G1 X122.3490 Y111.4880 E22.0236
G1 X123.0280 Y111.4880 E22.0479
G1 X130.0520 Y118.5120 E22.4048
G1 X130.7310 Y118.5120 E22.4291
G1 X123.7070 Y111.4880 E22.7860
G1 X124.3860 Y111.4880 E22.8103
G1 X131.4100 Y118.5120 E23.1672
G1 X132.0880 Y118.5120 E23.1915
G1 X125.0640 Y111.4880 E23.5484
G1 X125.7430 Y111.4880 E23.5727
G1 X132.7670 Y118.5120 E23.9296
G1 X133.4460 Y118.5120 E23.9539
G1 X126.4220 Y111.4880 E24.3108
G1 X127.1010 Y111.4880 E24.3351
G1 X134.1250 Y118.5120 E24.6920
G1 X134.8040 Y118.5120 E24.7164
G1 X127.7800 Y111.4880 E25.0732
G1 X128.4590 Y111.4880 E25.0976
G1 X135.4830 Y118.5120 E25.4544
G1 X136.1610 Y118.5120 E25.4788
G1 X129.1370 Y111.4880 E25.8356
G1 X129.8160 Y111.4880 E25.8600
G1 X136.8400 Y118.5120 E26.2168
G1 X137.5190 Y118.5120 E26.2412
G1 X130.4950 Y111.4880 E26.5980
G1 X131.1740 Y111.4880 E26.6224
G1 X138.1980 Y118.5120 E26.9792
G1 X138.8770 Y118.5120 E27.0036
G1 X131.8530 Y111.4880 E27.3604
G1 X132.5320 Y111.4880 E27.3848
G1 X139.5560 Y118.5120 E27.7416
G1 X140.2340 Y118.5120 E27.7660
G1 X133.2100 Y111.4880 E28.1228
G1 X133.8890 Y111.4880 E28.1472
G1 X140.9130 Y118.5120 E28.5040
G1 X141.3840 Y118.5120 E28.5209
G1 X141.4880 Y118.4080 E28.5262
G1 X134.5680 Y111.4880 E28.8777
G1 X135.2470 Y111.4880 E28.9021
G1 X141.8270 Y118.0680 E29.2364
G1 X142.1670 Y117.7290 E29.2536
G1 X135.9260 Y111.4880 E29.5707
G1 X136.6040 Y111.4880 E29.5950
G1 X142.5060 Y117.3900 E29.8948
G1 X142.8450 Y117.0500 E29.9121
G1 X137.2830 Y111.4880 E30.1946
G1 X137.9620 Y111.4880 E30.2190
G1 X143.1850 Y116.7110 E30.4843
G1 X143.5120 Y116.3840 E30.5010
G1 X143.5120 Y116.3590 E30.5018
G1 X138.6410 Y111.4880 E30.7493
G1 X139.3200 Y111.4880 E30.7737
G1 X143.5120 Y115.6800 E30.9866
G1 X143.5120 Y115.0010 E31.0110
G1 X139.9990 Y111.4880 E31.1895
G1 X140.6770 Y111.4880 E31.2139
G1 X143.5120 Y114.3230 E31.3579
G1 X143.5120 Y113.6440 E31.3823
G1 X141.3560 Y111.4880 E31.4918
G92 E0.0000
G1 E-6 F2400 ; custom retraction
;layer 4, Z = 0.800
;fan4;
G1 Z0.800 F1200
G1 X141.5030 Y111.2000 F6000
G1 E0 F2400 ; custom un-retraction/prime
G92 E0.0000
G1 X143.8000 Y113.4970 E0.1167 F2880
G1 X143.8000 Y116.5030 E0.2247
G1 X141.5030 Y118.8000 E0.3414
G1 X88.4970 Y118.8000 E2.2454
G1 X86.2000 Y116.5030 E2.3621
G1 X86.2000 Y113.4970 E2.4700
G1 X88.4970 Y111.2000 E2.5867
G1 X141.5030 Y111.2000 E4.4908
G1 X141.7020 Y110.7200 F6000
G92 E0.0000
G1 X144.2800 Y113.2980 E0.1310 F2880
G1 X144.2800 Y116.7020 E0.2532
G1 X141.7020 Y119.2800 E0.3842
G1 X88.2980 Y119.2800 E2.3025
G1 X85.7200 Y116.7020 E2.4335
G1 X85.7200 Y113.2980 E2.5557
G1 X88.2980 Y110.7200 E2.6867
G1 X141.7020 Y110.7200 E4.6050
G1 X141.9010 Y110.2400 F6000
G92 E0.0000
G1 X144.7600 Y113.0990 E0.1453 F2160
G1 X144.7600 Y116.9010 E0.2818
G1 X141.9010 Y119.7600 E0.4271
G1 X88.0990 Y119.7600 E2.3596
G1 X85.2400 Y116.9010 E2.5049
G1 X85.2400 Y113.0990 E2.6414
G1 X88.0990 Y110.2400 E2.7867
G1 X141.9010 Y110.2400 E4.7193
G1 X141.5920 Y116.2400 F6000
G92 E0.0000
G1 X143.5120 Y114.3200 E0.0975 F2880
G1 X143.5120 Y113.6410 E0.1219
G1 X141.5920 Y115.5610 E0.2195
G1 X141.5920 Y114.8820 E0.2438
G1 X143.1850 Y113.2890 E0.3248
G1 X142.8450 Y112.9500 E0.3420
G1 X141.5920 Y114.2030 E0.4057
G1 X141.5920 Y113.5240 E0.4301
G1 X142.5060 Y112.6100 E0.4765
G1 X142.1670 Y112.2710 E0.4937
G1 X141.0300 Y113.4080 E0.5515
G1 X140.3510 Y113.4080 E0.5759
G1 X141.8270 Y111.9320 E0.6509
G1 X141.4880 Y111.5920 E0.6681
G1 X139.6720 Y113.4080 E0.7604
G1 X138.9930 Y113.4080 E0.7847
G1 X140.9130 Y111.4880 E0.8823
G1 X140.2340 Y111.4880 E0.9067
G1 X138.3140 Y113.4080 E1.0042
G1 X137.6360 Y113.4080 E1.0286
G1 X139.5560 Y111.4880 E1.1261
G1 X138.8770 Y111.4880 E1.1505
G1 X136.9570 Y113.4080 E1.2480
G1 X136.2780 Y113.4080 E1.2724
G1 X138.1980 Y111.4880 E1.3700
G1 X137.5190 Y111.4880 E1.3943
G1 X135.5990 Y113.4080 E1.4919
G1 X143.5120 Y116.3560 F6000
G92 E0.0000
G1 X141.3560 Y118.5120 E0.1095 F2880
G1 X140.6770 Y118.5120 E0.1339
G1 X143.5120 Y115.6770 E0.2779
G1 X143.5120 Y114.9990 E0.3023
G1 X139.9990 Y118.5120 E0.4808
G1 X139.3200 Y118.5120 E0.5051
G1 X141.2400 Y116.5920 E0.6027
G1 X140.5610 Y116.5920 E0.6271
G1 X138.6410 Y118.5120 E0.7246
G1 X137.9620 Y118.5120 E0.7490
G1 X139.8820 Y116.5920 E0.8465
G1 X139.2030 Y116.5920 E0.8709
G1 X137.2830 Y118.5120 E0.9684
G1 X136.6040 Y118.5120 E0.9928
G1 X138.5240 Y116.5920 E1.0904
G1 X137.8460 Y116.5920 E1.1147
G1 X135.9260 Y118.5120 E1.2123
G1 X135.2470 Y118.5120 E1.2367
G1 X137.1670 Y116.5920 E1.3342
G1 X136.4880 Y116.5920 E1.3586
G1 X134.5680 Y118.5120 E1.4561
G1 X133.8890 Y118.5120 E1.4805
G1 X135.8090 Y116.5920 E1.5780
G1 X135.1300 Y116.5920 E1.6024
G1 X133.2100 Y118.5120 E1.7000
G1 X132.5320 Y118.5120 E1.7243
G1 X134.4520 Y116.5920 E1.8219
G1 X134.3860 Y116.5920 E1.8242
G1 X134.3860 Y115.9780 E1.8463
G1 X131.8530 Y118.5120 E1.9750
G1 X131.1740 Y118.5120 E1.9993
G1 X134.3860 Y115.3000 E2.1625
G1 X134.3860 Y114.6210 E2.1869
G1 X130.4950 Y118.5120 E2.3846
G1 X129.8160 Y118.5120 E2.4090
G1 X134.3860 Y113.9420 E2.6411
G1 X134.3860 Y113.4080 E2.6603
G1 X134.9200 Y113.4080 E2.6795
G1 X136.8400 Y111.4880 E2.7770
G1 X136.1610 Y111.4880 E2.8014
G1 X129.1370 Y118.5120 E3.1582
G1 X128.4590 Y118.5120 E3.1826
G1 X135.4830 Y111.4880 E3.5394
G1 X134.8040 Y111.4880 E3.5638
G1 X127.7800 Y118.5120 E3.9206
G1 X127.1010 Y118.5120 E3.9450
G1 X134.1250 Y111.4880 E4.3018
G1 X133.4460 Y111.4880 E4.3262
G1 X126.4220 Y118.5120 E4.6830
G1 X125.7430 Y118.5120 E4.7074
G1 X132.7670 Y111.4880 E5.0642
G1 X132.0880 Y111.4880 E5.0886
G1 X125.0640 Y118.5120 E5.4454
G1 X124.3860 Y118.5120 E5.4698
G1 X131.4100 Y111.4880 E5.8266
G1 X130.7310 Y111.4880 E5.8510
G1 X123.7070 Y118.5120 E6.2078
G1 X123.0280 Y118.5120 E6.2322
G1 X130.0520 Y111.4880 E6.5891
G1 X129.3730 Y111.4880 E6.6134
G1 X122.3490 Y118.5120 E6.9703
G1 X121.6700 Y118.5120 E6.9946
G1 X128.6940 Y111.4880 E7.3515
G1 X128.0160 Y111.4880 E7.3758
G1 X120.9920 Y118.5120 E7.7327
G1 X120.3130 Y118.5120 E7.7570
G1 X127.3370 Y111.4880 E8.1139
G1 X126.6580 Y111.4880 E8.1382
G1 X119.6340 Y118.5120 E8.4951
G1 X118.9550 Y118.5120 E8.5194
G1 X125.9790 Y111.4880 E8.8763
G1 X125.3000 Y111.4880 E8.9006
G1 X118.2760 Y118.5120 E9.2575
G1 X117.5970 Y118.5120 E9.2819
G1 X124.6210 Y111.4880 E9.6387
G1 X123.9430 Y111.4880 E9.6631
G1 X116.9190 Y118.5120 E10.0199
G1 X116.2400 Y118.5120 E10.0443
G1 X123.2640 Y111.4880 E10.4011
G1 X122.5850 Y111.4880 E10.4255
G1 X115.5610 Y118.5120 E10.7823
G1 X114.8820 Y118.5120 E10.8067
G1 X121.9060 Y111.4880 E11.1635
G1 X121.2270 Y111.4880 E11.1879
G1 X114.2030 Y118.5120 E11.5447
G1 X113.5250 Y118.5120 E11.5691
G1 X120.5490 Y111.4880 E11.9259
G1 X119.8700 Y111.4880 E11.9503
G1 X112.8460 Y118.5120 E12.3071
G1 X112.1670 Y118.5120 E12.3315
G1 X119.1910 Y111.4880 E12.6883
G1 X118.5120 Y111.4880 E12.7127
G1 X111.4880 Y118.5120 E13.0695
G1 X110.8090 Y118.5120 E13.0939
G1 X117.8330 Y111.4880 E13.4507
G1 X117.1540 Y111.4880 E13.4751
G1 X110.1300 Y118.5120 E13.8319
G1 X109.4520 Y118.5120 E13.8563
G1 X116.4760 Y111.4880 E14.2131
G1 X115.7970 Y111.4880 E14.2375
G1 X108.7730 Y118.5120 E14.5943
G1 X108.0940 Y118.5120 E14.6187
G1 X115.1180 Y111.4880 E14.9755
G1 X114.4390 Y111.4880 E14.9999
G1 X107.4150 Y118.5120 E15.3567
G1 X106.7360 Y118.5120 E15.3811
G1 X113.7600 Y111.4880 E15.7379
G1 X113.0810 Y111.4880 E15.7623
G1 X106.0570 Y118.5120 E16.1191
G1 X105.3790 Y118.5120 E16.1435
G1 X112.4030 Y111.4880 E16.5003
G1 X111.7240 Y111.4880 E16.5247
G1 X104.7000 Y118.5120 E16.8815
G1 X104.0210 Y118.5120 E16.9059
G1 X111.0450 Y111.4880 E17.2627
G1 X110.3660 Y111.4880 E17.2871
G1 X103.3420 Y118.5120 E17.6439
G1 X102.6630 Y118.5120 E17.6683
G1 X109.6870 Y111.4880 E18.0251
G1 X109.0090 Y111.4880 E18.0495
G1 X101.9850 Y118.5120 E18.4063
G1 X101.3060 Y118.5120 E18.4307
G1 X108.3300 Y111.4880 E18.7875
G1 X107.6510 Y111.4880 E18.8119
G1 X100.6270 Y118.5120 E19.1687
G1 X99.9480 Y118.5120 E19.1931
G1 X106.9720 Y111.4880 E19.5499
G1 X106.2930 Y111.4880 E19.5743
G1 X99.2690 Y118.5120 E19.9311
G1 X98.5900 Y118.5120 E19.9555
G1 X105.6140 Y111.4880 E20.3123
G1 X104.9360 Y111.4880 E20.3367
G1 X97.9120 Y118.5120 E20.6935
G1 X97.2330 Y118.5120 E20.7179
G1 X104.2570 Y111.4880 E21.0747
G1 X103.5780 Y111.4880 E21.0991
G1 X96.5540 Y118.5120 E21.4559
G1 X95.8750 Y118.5120 E21.4803
G1 X102.8990 Y111.4880 E21.8371
G1 X102.2200 Y111.4880 E21.8615
G1 X95.1960 Y118.5120 E22.2183
G1 X94.5170 Y118.5120 E22.2427
G1 X101.5410 Y111.4880 E22.5996
G1 X100.8630 Y111.4880 E22.6239
G1 X93.8390 Y118.5120 E22.9808
G1 X93.1600 Y118.5120 E23.0051
G1 X100.1840 Y111.4880 E23.3620
G1 X99.5050 Y111.4880 E23.3863
G1 X92.4810 Y118.5120 E23.7432
G1 X91.8020 Y118.5120 E23.7675
G1 X98.8260 Y111.4880 E24.1244
G1 X98.1470 Y111.4880 E24.1487
G1 X93.6140 Y116.0220 E24.3790
G1 X93.6140 Y116.5920 E24.3995
G1 X93.0430 Y116.5920 E24.4200
G1 X91.1230 Y118.5120 E24.5176
G1 X90.4450 Y118.5120 E24.5419
G1 X92.3650 Y116.5920 E24.6395
G1 X91.6860 Y116.5920 E24.6639
G1 X89.7660 Y118.5120 E24.7614
G1 X89.0870 Y118.5120 E24.7858
G1 X91.4080 Y116.1910 E24.9037
G1 X91.4080 Y115.5120 E24.9281
G1 X88.5120 Y118.4080 E25.0752
G1 X88.1730 Y118.0680 E25.0924
G1 X91.4080 Y114.8330 E25.2568
G1 X91.4080 Y114.1540 E25.2812
G1 X87.8330 Y117.7290 E25.4628
G1 X87.4940 Y117.3900 E25.4800
G1 X91.4080 Y113.4760 E25.6788
G1 X91.4080 Y113.4080 E25.6813
G1 X91.4760 Y113.4080 E25.6837
G1 X93.3960 Y111.4880 E25.7812
G1 X92.7170 Y111.4880 E25.8056
G1 X87.1550 Y117.0500 E26.0882
G1 X86.8150 Y116.7110 E26.1054
G1 X92.0380 Y111.4880 E26.3707
G1 X91.3590 Y111.4880 E26.3951
G1 X86.4880 Y116.3590 E26.6426
G1 X86.4880 Y115.6800 E26.6669
G1 X90.6800 Y111.4880 E26.8799
G1 X90.0010 Y111.4880 E26.9043
G1 X86.4880 Y115.0010 E27.0828
G1 X86.4880 Y114.3230 E27.1072
G1 X89.3230 Y111.4880 E27.2512
G1 X88.6440 Y111.4880 E27.2755
G1 X86.4880 Y113.6440 E27.3851
G1 X92.1540 Y113.4080 F6000
G92 E0.0000
G1 X94.0740 Y111.4880 E0.0975 F2880
G1 X94.7530 Y111.4880 E0.1219
G1 X92.8330 Y113.4080 E0.2195
G1 X93.5120 Y113.4080 E0.2438
G1 X95.4320 Y111.4880 E0.3414
G1 X96.1110 Y111.4880 E0.3658
G1 X93.6140 Y113.9850 E0.4926
G1 X93.6140 Y114.6640 E0.5170
G1 X96.7900 Y111.4880 E0.6783
G1 X97.4690 Y111.4880 E0.7027
G1 X93.6140 Y115.3430 E0.8985
G1 X135.1610 Y116.0520 F6000
G92 E0.0000
G1 X137.2650 Y113.9480 E0.1336 F3600
G1 X141.0520 Y113.9480 E0.3036
G1 X141.0520 Y114.4040 E0.3241
G1 X139.4040 Y116.0520 E0.4288
G92 E0.0000
G1 E-6 F2400 ; custom retraction
;layer 5, Z = 1.000
;fan5;
;
G1 Z1.000 F1200
G1 X141.5030 Y118.8000 F6000
G1 E0 F2400 ; custom un-retraction/prime
G92 E0.0000
G1 X88.4970 Y118.8000 E1.9040 F2880
G1 X86.2000 Y116.5030 E2.0207
G1 X86.2000 Y113.4970 E2.1287
G1 X88.4970 Y111.2000 E2.2454
G1 X141.5030 Y111.2000 E4.1494
G1 X143.8000 Y113.4970 E4.2661
G1 X143.8000 Y116.5030 E4.3741
G1 X141.5030 Y118.8000 E4.4908
G1 X141.7020 Y119.2800 F6000
G92 E0.0000
G1 X88.2980 Y119.2800 E1.9183 F2880
G1 X85.7200 Y116.7020 E2.0493
G1 X85.7200 Y113.2980 E2.1715
G1 X88.2980 Y110.7200 E2.3025
G1 X141.7020 Y110.7200 E4.2208
G1 X144.2800 Y113.2980 E4.3518
G1 X144.2800 Y116.7020 E4.4740
G1 X141.7020 Y119.2800 E4.6050
G1 X141.9010 Y119.7600 F6000
G92 E0.0000
G1 X88.0990 Y119.7600 E1.9326 F2160
G1 X85.2400 Y116.9010 E2.0778
G1 X85.2400 Y113.0990 E2.2144
G1 X88.0990 Y110.2400 E2.3596
G1 X141.9010 Y110.2400 E4.2922
G1 X144.7600 Y113.0990 E4.4375
G1 X144.7600 Y116.9010 E4.5740
G1 X141.9010 Y119.7600 E4.7193
G1 X141.5920 Y114.4390 F6000
G92 E0.0000
G1 X143.5120 Y116.3590 E0.0975 F2880
G1 X143.5120 Y116.3840 E0.0984
G1 X143.1850 Y116.7110 E0.1150
G1 X141.5920 Y115.1180 E0.1960
G1 X141.5920 Y115.7970 E0.2203
G1 X142.8450 Y117.0500 E0.2840
G1 X142.5060 Y117.3900 E0.3013
G1 X141.5920 Y116.4760 E0.3477
G1 X141.5920 Y116.5920 E0.3519
G1 X141.0300 Y116.5920 E0.3721
G1 X142.1670 Y117.7290 E0.4298
G1 X141.8270 Y118.0680 E0.4471
G1 X140.3510 Y116.5920 E0.5221
G1 X139.6720 Y116.5920 E0.5465
G1 X141.4880 Y118.4080 E0.6387
G1 X141.3840 Y118.5120 E0.6440
G1 X140.9130 Y118.5120 E0.6609
G1 X138.9930 Y116.5920 E0.7584
G1 X138.3140 Y116.5920 E0.7828
G1 X140.2340 Y118.5120 E0.8803
G1 X139.5560 Y118.5120 E0.9047
G1 X137.6360 Y116.5920 E1.0023
G1 X136.9570 Y116.5920 E1.0267
G1 X138.8770 Y118.5120 E1.1242
G1 X138.1980 Y118.5120 E1.1486
G1 X136.2780 Y116.5920 E1.2461
G1 X135.5990 Y116.5920 E1.2705
G1 X137.5190 Y118.5120 E1.3680
G1 X136.8400 Y118.5120 E1.3924
G1 X134.9200 Y116.5920 E1.4899
G1 X141.3560 Y111.4880 F6000
G92 E0.0000
G1 X143.5120 Y113.6440 E0.1095 F2880
G1 X143.5120 Y114.3230 E0.1339
G1 X140.6770 Y111.4880 E0.2779
G1 X139.9990 Y111.4880 E0.3023
G1 X143.5120 Y115.0010 E0.4808
G1 X143.5120 Y115.6800 E0.5051
G1 X141.5920 Y113.7600 E0.6027
G1 X141.5920 Y113.4080 E0.6153
G1 X141.2400 Y113.4080 E0.6280
G1 X139.3200 Y111.4880 E0.7255
G1 X138.6410 Y111.4880 E0.7499
G1 X140.5610 Y113.4080 E0.8474
G1 X139.8820 Y113.4080 E0.8718
G1 X137.9620 Y111.4880 E0.9694
G1 X137.2830 Y111.4880 E0.9937
G1 X139.2030 Y113.4080 E1.0913
G1 X138.5240 Y113.4080 E1.1157
G1 X136.6040 Y111.4880 E1.2132
G1 X135.9260 Y111.4880 E1.2376
G1 X137.8460 Y113.4080 E1.3351
G1 X137.1670 Y113.4080 E1.3595
G1 X135.2470 Y111.4880 E1.4570
G1 X134.5680 Y111.4880 E1.4814
G1 X136.4880 Y113.4080 E1.5790
G1 X135.8090 Y113.4080 E1.6033
G1 X133.8890 Y111.4880 E1.7009
G1 X133.2100 Y111.4880 E1.7253
G1 X135.1300 Y113.4080 E1.8228
G1 X134.4520 Y113.4080 E1.8472
G1 X132.5320 Y111.4880 E1.9447
G1 X131.8530 Y111.4880 E1.9691
G1 X134.3860 Y114.0220 E2.0978
G1 X134.3860 Y114.7000 E2.1222
G1 X131.1740 Y111.4880 E2.2854
G1 X130.4950 Y111.4880 E2.3098
G1 X134.3860 Y115.3790 E2.5074
G1 X134.3860 Y116.0580 E2.5318
G1 X129.8160 Y111.4880 E2.7640
G1 X129.1370 Y111.4880 E2.7884
G1 X136.1610 Y118.5120 E3.1452
G1 X135.4830 Y118.5120 E3.1696
G1 X128.4590 Y111.4880 E3.5264
G1 X127.7800 Y111.4880 E3.5508
G1 X134.8040 Y118.5120 E3.9076
G1 X134.1250 Y118.5120 E3.9320
G1 X127.1010 Y111.4880 E4.2888
G1 X126.4220 Y111.4880 E4.3132
G1 X133.4460 Y118.5120 E4.6700
G1 X132.7670 Y118.5120 E4.6944
G1 X125.7430 Y111.4880 E5.0512
G1 X125.0640 Y111.4880 E5.0756
G1 X132.0880 Y118.5120 E5.4324
G1 X131.4100 Y118.5120 E5.4568
G1 X124.3860 Y111.4880 E5.8136
G1 X123.7070 Y111.4880 E5.8380
G1 X130.7310 Y118.5120 E6.1948
G1 X130.0520 Y118.5120 E6.2192
G1 X123.0280 Y111.4880 E6.5760
G1 X122.3490 Y111.4880 E6.6004
G1 X129.3730 Y118.5120 E6.9572
G1 X128.6940 Y118.5120 E6.9816
G1 X121.6700 Y111.4880 E7.3384
G1 X120.9920 Y111.4880 E7.3628
G1 X128.0160 Y118.5120 E7.7196
G1 X127.3370 Y118.5120 E7.7440
G1 X120.3130 Y111.4880 E8.1008
G1 X119.6340 Y111.4880 E8.1252
G1 X126.6580 Y118.5120 E8.4820
G1 X125.9790 Y118.5120 E8.5064
G1 X118.9550 Y111.4880 E8.8632
G1 X118.2760 Y111.4880 E8.8876
G1 X125.3000 Y118.5120 E9.2444
G1 X124.6210 Y118.5120 E9.2688
G1 X117.5970 Y111.4880 E9.6256
G1 X116.9190 Y111.4880 E9.6500
G1 X123.9430 Y118.5120 E10.0068
G1 X123.2640 Y118.5120 E10.0312
G1 X116.2400 Y111.4880 E10.3880
G1 X115.5610 Y111.4880 E10.4124
G1 X122.5850 Y118.5120 E10.7692
G1 X121.9060 Y118.5120 E10.7936
G1 X114.8820 Y111.4880 E11.1504
G1 X114.2030 Y111.4880 E11.1748
G1 X121.2270 Y118.5120 E11.5316
G1 X120.5480 Y118.5120 E11.5560
G1 X113.5240 Y111.4880 E11.9128
G1 X112.8460 Y111.4880 E11.9372
G1 X119.8700 Y118.5120 E12.2940
G1 X119.1910 Y118.5120 E12.3184
G1 X112.1670 Y111.4880 E12.6752
G1 X111.4880 Y111.4880 E12.6996
G1 X118.5120 Y118.5120 E13.0564
G1 X117.8330 Y118.5120 E13.0808
G1 X110.8090 Y111.4880 E13.4376
G1 X110.1300 Y111.4880 E13.4620
G1 X117.1540 Y118.5120 E13.8188
G1 X116.4760 Y118.5120 E13.8432
G1 X109.4520 Y111.4880 E14.2000
G1 X108.7730 Y111.4880 E14.2244
G1 X115.7970 Y118.5120 E14.5812
G1 X115.1180 Y118.5120 E14.6056
G1 X108.0940 Y111.4880 E14.9624
G1 X107.4150 Y111.4880 E14.9868
G1 X114.4390 Y118.5120 E15.3436
G1 X113.7600 Y118.5120 E15.3680
G1 X106.7360 Y111.4880 E15.7249
G1 X106.0570 Y111.4880 E15.7492
G1 X113.0810 Y118.5120 E16.1061
G1 X112.4030 Y118.5120 E16.1304
G1 X105.3790 Y111.4880 E16.4873
G1 X104.7000 Y111.4880 E16.5116
G1 X111.7240 Y118.5120 E16.8685
G1 X111.0450 Y118.5120 E16.8928
G1 X104.0210 Y111.4880 E17.2497
G1 X103.3420 Y111.4880 E17.2740
G1 X110.3660 Y118.5120 E17.6309
G1 X109.6870 Y118.5120 E17.6552
G1 X102.6630 Y111.4880 E18.0121
G1 X101.9840 Y111.4880 E18.0365
G1 X109.0080 Y118.5120 E18.3933
G1 X108.3300 Y118.5120 E18.4177
G1 X101.3060 Y111.4880 E18.7745
G1 X100.6270 Y111.4880 E18.7989
G1 X107.6510 Y118.5120 E19.1557
G1 X106.9720 Y118.5120 E19.1801
G1 X99.9480 Y111.4880 E19.5369
G1 X99.2690 Y111.4880 E19.5613
G1 X106.2930 Y118.5120 E19.9181
G1 X105.6140 Y118.5120 E19.9425
G1 X98.5900 Y111.4880 E20.2993
G1 X97.9120 Y111.4880 E20.3237
G1 X104.9360 Y118.5120 E20.6805
G1 X104.2570 Y118.5120 E20.7049
G1 X97.2330 Y111.4880 E21.0617
G1 X96.5540 Y111.4880 E21.0861
G1 X103.5780 Y118.5120 E21.4429
G1 X102.8990 Y118.5120 E21.4673
G1 X95.8750 Y111.4880 E21.8241
G1 X95.1960 Y111.4880 E21.8485
G1 X102.2200 Y118.5120 E22.2053
G1 X101.5410 Y118.5120 E22.2297
G1 X94.5170 Y111.4880 E22.5865
G1 X93.8390 Y111.4880 E22.6109
G1 X100.8630 Y118.5120 E22.9677
G1 X100.1840 Y118.5120 E22.9921
G1 X93.1600 Y111.4880 E23.3489
G1 X92.4810 Y111.4880 E23.3733
G1 X99.5050 Y118.5120 E23.7301
G1 X98.8260 Y118.5120 E23.7545
G1 X91.8020 Y111.4880 E24.1113
G1 X91.1230 Y111.4880 E24.1357
G1 X93.0430 Y113.4080 E24.2332
G1 X92.3650 Y113.4080 E24.2576
G1 X90.4450 Y111.4880 E24.3551
G1 X89.7660 Y111.4880 E24.3795
G1 X91.6860 Y113.4080 E24.4771
G1 X91.4080 Y113.4080 E24.4870
G1 X91.4080 Y113.8090 E24.5014
G1 X89.0870 Y111.4880 E24.6194
G1 X88.6160 Y111.4880 E24.6363
G1 X88.5120 Y111.5920 E24.6416
G1 X91.4080 Y114.4880 E24.7887
G1 X91.4080 Y115.1670 E24.8130
G1 X88.1730 Y111.9320 E24.9774
G1 X87.8330 Y112.2710 E24.9946
G1 X91.4080 Y115.8460 E25.1762
G1 X91.4080 Y116.5240 E25.2006
G1 X87.4940 Y112.6100 E25.3994
G1 X87.1550 Y112.9500 E25.4167
G1 X92.7170 Y118.5120 E25.6992
G1 X92.0380 Y118.5120 E25.7236
G1 X86.8150 Y113.2890 E25.9889
G1 X86.4880 Y113.6160 E26.0056
G1 X86.4880 Y113.6410 E26.0064
G1 X91.3590 Y118.5120 E26.2539
G1 X90.6800 Y118.5120 E26.2783
G1 X86.4880 Y114.3200 E26.4912
G1 X86.4880 Y114.9990 E26.5156
G1 X90.0010 Y118.5120 E26.6941
G1 X89.3230 Y118.5120 E26.7185
G1 X86.4880 Y115.6770 E26.8625
G1 X86.4880 Y116.3560 E26.8869
G1 X88.6440 Y118.5120 E26.9964
G1 X91.4760 Y116.5920 F6000
G92 E0.0000
G1 X93.3960 Y118.5120 E0.0975 F2880
G1 X94.0740 Y118.5120 E0.1219
G1 X92.1540 Y116.5920 E0.2195
G1 X92.8330 Y116.5920 E0.2438
G1 X94.7530 Y118.5120 E0.3414
G1 X95.4320 Y118.5120 E0.3658
G1 X93.5120 Y116.5920 E0.4633
G1 X93.6140 Y116.5920 E0.4669
G1 X93.6140 Y116.0150 E0.4877
G1 X96.1110 Y118.5120 E0.6145
G1 X96.7900 Y118.5120 E0.6389
G1 X93.6140 Y115.3360 E0.8003
G1 X93.6140 Y114.6570 E0.8246
G1 X97.4690 Y118.5120 E1.0205
G1 X98.1470 Y118.5120 E1.0448
G1 X93.6140 Y113.9780 E1.2751
G1 X135.1610 Y113.9480 F6000
G92 E0.0000
G1 X137.2650 Y116.0520 E0.1336 F3600
G1 X141.0520 Y116.0520 E0.3036
G1 X141.0520 Y115.5960 E0.3241
G1 X139.4040 Y113.9480 E0.4288
G92 E0.0000
G1 E-6 F2400 ; custom retraction
;layer 6, Z = 1.200
;fan6;
G1 Z1.200 F1200
G1 X141.4000 Y113.6000 F6000
G1 E0 F2400 ; custom un-retraction/prime
G92 E0.0000
G1 X141.4000 Y116.4000 E0.1006 F2880
G1 X134.5780 Y116.4000 E0.3456
G1 X134.5780 Y113.6000 E0.4462
G1 X141.4000 Y113.6000 E0.6912
G1 X141.8800 Y113.1200 F6000
G92 E0.0000
G1 X141.8800 Y116.8800 E0.1351 F2880
G1 X134.0980 Y116.8800 E0.4146
G1 X134.0980 Y113.1200 E0.5497
G1 X141.8800 Y113.1200 E0.8292
G1 X142.3600 Y112.6400 F6000
G92 E0.0000
G1 X142.3600 Y117.3600 E0.1695 F2160
G1 X133.6180 Y117.3600 E0.4836
G1 X133.6180 Y112.6400 E0.6531
G1 X142.3600 Y112.6400 E0.9671
G1 X139.4040 Y116.0520 F6000
G92 E0.0000
G1 X141.0520 Y114.4040 E0.1047 F3600
G1 X141.0520 Y113.9480 E0.1251
G1 X137.2650 Y113.9480 E0.2952
G1 X135.1610 Y116.0520 E0.4288
G92 E0.0000
G1 E-6 F2400 ; custom retraction
;zhop1
G1 X93.4220 Y116.4000 F6000
G1 Z1.200 F1200
G1 E0 F2400 ; custom un-retraction/prime
G92 E0.0000
G1 X91.6000 Y116.4000 E0.0654 F2880
G1 X91.6000 Y113.6000 E0.1660
G1 X93.4220 Y113.6000 E0.2315
G1 X93.4220 Y116.4000 E0.3320
G1 X93.9020 Y116.8800 F6000
G92 E0.0000
G1 X91.1200 Y116.8800 E0.0999 F2880
G1 X91.1200 Y113.1200 E0.2350
G1 X93.9020 Y113.1200 E0.3349
G1 X93.9020 Y116.8800 E0.4700
G1 X94.3820 Y117.3600 F6000
G92 E0.0000
G1 X90.6400 Y117.3600 E0.1344 F2160
G1 X90.6400 Y112.6400 E0.3040
G1 X94.3820 Y112.6400 E0.4384
G1 X94.3820 Y117.3600 E0.6079
G92 E0.0000
G1 E-6 F2400 ; custom retraction
;zhop1
G1 X90.6400 Y116.3310 F6000
G1 X87.2440 Y115.7440
G1 X87.2440 Y115.3960
G1 X86.7640 Y115.2640
G1 Z1.200 F1200
G1 E0 F2400 ; custom un-retraction/prime
G92 E0.0000
G1 X86.2360 Y115.2640 E0.0190 F2880
G1 X86.2360 Y114.7360 E0.0380
G1 X86.7640 Y114.7360 E0.0569
G1 X86.7640 Y115.2640 E0.0759
G1 X87.2440 Y115.7440 F6000
G92 E0.0000
G1 X85.7560 Y115.7440 E0.0535 F2160
G1 X85.7560 Y114.2560 E0.1069
G1 X87.2440 Y114.2560 E0.1604
G1 X87.2440 Y115.7440 E0.2138
G92 E0.0000
G1 E-6 F2400 ; custom retraction
;layer 7, Z = 1.400
;fan7;
G1 Z1.400 F1200
G1 X86.7320 Y115.2320 F6000
G1 E0 F2400 ; custom un-retraction/prime
G92 E0.0000
G1 X86.2680 Y115.2320 E0.0167 F2880
G1 X86.2680 Y114.7680 E0.0334
G1 X86.7320 Y114.7680 E0.0501
G1 X86.7320 Y115.2320 E0.0668
G1 X87.2120 Y115.7120 F6000
G92 E0.0000
G1 X85.7880 Y115.7120 E0.0512 F2160
G1 X85.7880 Y114.2880 E0.1024
G1 X87.2120 Y114.2880 E0.1536
G1 X87.2120 Y115.7120 E0.2047
G92 E0.0000
G1 E-6 F2400 ; custom retraction
;zhop1
G1 X91.4000 Y116.6000 F6000
G1 Z1.400 F1200
G1 E0 F2400 ; custom un-retraction/prime
G92 E0.0000
G1 X91.4000 Y113.4000 E0.1149 F2880
G1 X93.6350 Y113.4000 E0.1952
G1 X93.6350 Y116.6000 E0.3102
G1 X91.4000 Y116.6000 E0.3904
G1 X90.9200 Y117.0800 F6000
G92 E0.0000
G1 X90.9200 Y112.9200 E0.1494 F2880
G1 X94.1140 Y112.9200 E0.2642
G1 X94.1140 Y117.0800 E0.4136
G1 X90.9200 Y117.0800 E0.5284
G1 X90.4400 Y117.5600 F6000
G92 E0.0000
G1 X90.4400 Y112.4400 E0.1839 F2160
G1 X94.5940 Y112.4400 E0.3331
G1 X94.5940 Y117.5600 E0.5171
G1 X90.4400 Y117.5600 E0.6663
G92 E0.0000
G1 E-6 F2400 ; custom retraction
;zhop1
G1 X94.5940 Y117.4690 F6000
G1 X133.4050 Y117.5600
G1 X133.4050 Y116.6210
G1 X134.3650 Y116.6000
G1 Z1.400 F1200
G1 E0 F2400 ; custom un-retraction/prime
G92 E0.0000
G1 X134.3650 Y113.4000 E0.1149 F2880
G1 X141.6000 Y113.4000 E0.3748
G1 X141.6000 Y116.6000 E0.4898
G1 X134.3650 Y116.6000 E0.7496
G1 X133.8850 Y117.0800 F6000
G92 E0.0000
G1 X133.8850 Y112.9200 E0.1494 F2880
G1 X142.0800 Y112.9200 E0.4438
G1 X142.0800 Y117.0800 E0.5932
G1 X133.8850 Y117.0800 E0.8876
G1 X133.4050 Y117.5600 F6000
G92 E0.0000
G1 X133.4050 Y112.4400 E0.1839 F2160
G1 X142.5600 Y112.4400 E0.5128
G1 X142.5600 Y117.5600 E0.6967
G1 X133.4050 Y117.5600 E1.0255
G1 X134.9610 Y113.7480 F6000
G92 E0.0000
G1 X137.4650 Y116.2520 E0.1590 F3600
G1 X141.2520 Y116.2520 E0.3290
G1 X141.2520 Y115.7960 E0.3495
G1 X139.2040 Y113.7480 E0.4796
G92 E0.0000
G1 E-6 F2400 ; custom retraction
;layer 8, Z = 1.600
;fan8;
G1 Z1.600 F1200
G1 X141.8000 Y113.2000 F6000
G1 E0 F2400 ; custom un-retraction/prime
G92 E0.0000
G1 X141.8000 Y116.8000 E0.1293 F2880
G1 X134.1840 Y116.8000 E0.4029
G1 X134.1840 Y113.2000 E0.5322
G1 X141.8000 Y113.2000 E0.8058
G1 X142.2800 Y112.7200 F6000
G92 E0.0000
G1 X142.2800 Y117.2800 E0.1638 F2880
G1 X133.7040 Y117.2800 E0.4719
G1 X133.7040 Y112.7200 E0.6357
G1 X142.2800 Y112.7200 E0.9437
G1 X142.7600 Y112.2400 F6000
G92 E0.0000
G1 X142.7600 Y117.7600 E0.1983 F2160
G1 X133.2240 Y117.7600 E0.5408
G1 X133.2240 Y112.2400 E0.7391
G1 X142.7600 Y112.2400 E1.0817
G1 X139.0040 Y116.4520 F6000
G92 E0.0000
G1 X141.4520 Y114.0040 E0.1555 F3600
G1 X141.4520 Y113.5480 E0.1759
G1 X137.6650 Y113.5480 E0.3460
G1 X134.7610 Y116.4520 E0.5304
G92 E0.0000
G1 E-6 F2400 ; custom retraction
;zhop1
G1 X93.8160 Y116.8000 F6000
G1 Z1.600 F1200
G1 E0 F2400 ; custom un-retraction/prime
G92 E0.0000
G1 X91.2000 Y116.8000 E0.0940 F2880
G1 X91.2000 Y113.2000 E0.2233
G1 X93.8160 Y113.2000 E0.3173
G1 X93.8160 Y116.8000 E0.4466
G1 X94.2960 Y117.2800 F6000
G92 E0.0000
G1 X90.7200 Y117.2800 E0.1285 F2880
G1 X90.7200 Y112.7200 E0.2923
G1 X94.2960 Y112.7200 E0.4207
G1 X94.2960 Y117.2800 E0.5845
G1 X94.7760 Y117.7600 F6000
G92 E0.0000
G1 X90.2400 Y117.7600 E0.1630 F2160
G1 X90.2400 Y112.2400 E0.3612
G1 X94.7760 Y112.2400 E0.5242
G1 X94.7760 Y117.7600 E0.7225
G92 E0.0000
G1 E-6 F2400 ; custom retraction
;zhop1
G1 X87.1810 Y115.6810 F6000
G1 Z1.600 F1200
G1 E0 F2400 ; custom un-retraction/prime
G92 E0.0000
G1 X85.8190 Y115.6810 E0.0489 F2160
G1 X85.8190 Y114.3190 E0.0978
G1 X87.1810 Y114.3190 E0.1467
G1 X87.1810 Y115.6810 E0.1956
G1 X86.8930 Y115.2760 F6000
G92 E0.0000
G1 X86.7760 Y115.3930 E0.0060 F3600
G1 X86.1070 Y115.3930 E0.0300
G1 X86.1070 Y115.3820 E0.0303
G1 X86.8820 Y114.6070 E0.0697
G1 X86.2030 Y114.6070 E0.0941
G1 X86.1070 Y114.7030 E0.0990
G92 E0.0000
G1 E-6 F2400 ; custom retraction
;layer 9, Z = 1.800
;fan9;
G1 Z1.800 F1200
G1 X85.8510 Y114.3510 F6000
G1 E0 F2400 ; custom un-retraction/prime
G92 E0.0000
G1 X87.1490 Y114.3510 E0.0466 F2160
G1 X87.1490 Y115.6490 E0.0933
G1 X85.8510 Y115.6490 E0.1399
G1 X85.8510 Y114.3510 E0.1865
G1 X86.8070 Y114.6390 F6000
G92 E0.0000
G1 X86.8610 Y114.6930 E0.0027 F3600
G1 X86.8610 Y115.3610 E0.0267
G1 X86.8510 Y115.3610 E0.0271
G1 X86.1390 Y114.6490 E0.0633
G1 X86.1390 Y115.3280 E0.0877
G1 X86.1720 Y115.3610 E0.0893
G92 E0.0000
G1 E-6 F2400 ; custom retraction
;zhop1
G1 X87.1490 Y115.6410 F6000
G1 X87.1490 Y115.6490
G1 X91.2000 Y116.8000
G1 Z1.800 F1200
G1 E0 F2400 ; custom un-retraction/prime
G92 E0.0000
G1 X91.2000 Y113.2000 E0.1293 F2880
G1 X93.8340 Y113.2000 E0.2239
G1 X93.8340 Y116.8000 E0.3532
G1 X91.2000 Y116.8000 E0.4478
G1 X90.7200 Y117.2800 F6000
G92 E0.0000
G1 X90.7200 Y112.7200 E0.1638 F2880
G1 X94.3140 Y112.7200 E0.2929
G1 X94.3140 Y117.2800 E0.4567
G1 X90.7200 Y117.2800 E0.5858
G1 X90.2400 Y117.7600 F6000
G92 E0.0000
G1 X90.2400 Y112.2400 E0.1983 F2160
G1 X94.7940 Y112.2400 E0.3619
G1 X94.7940 Y117.7600 E0.5601
G1 X90.2400 Y117.7600 E0.7237
G92 E0.0000
G1 E-6 F2400 ; custom retraction
;zhop1
G1 X94.7940 Y117.6600 F6000
G1 X133.2060 Y117.7600
G1 X133.2060 Y116.8210
G1 X134.1660 Y116.8000
G1 Z1.800 F1200
G1 E0 F2400 ; custom un-retraction/prime
G92 E0.0000
G1 X134.1660 Y113.2000 E0.1293 F2880
G1 X141.8000 Y113.2000 E0.4035
G1 X141.8000 Y116.8000 E0.5328
G1 X134.1660 Y116.8000 E0.8070
G1 X133.6860 Y117.2800 F6000
G92 E0.0000
G1 X133.6860 Y112.7200 E0.1638 F2880
G1 X142.2800 Y112.7200 E0.4725
G1 X142.2800 Y117.2800 E0.6363
G1 X133.6860 Y117.2800 E0.9450
G1 X133.2060 Y117.7600 F6000
G92 E0.0000
G1 X133.2060 Y112.2400 E0.1983 F2160
G1 X142.7600 Y112.2400 E0.5415
G1 X142.7600 Y117.7600 E0.7397
G1 X133.2060 Y117.7600 E1.0829
G1 X134.7610 Y113.5480 F6000
G92 E0.0000
G1 X137.6650 Y116.4520 E0.1844 F3600
G1 X141.4520 Y116.4520 E0.3544
G1 X141.4520 Y115.9960 E0.3749
G1 X139.0040 Y113.5480 E0.5304
G92 E0.0000
G1 E-6 F2400 ; custom retraction
;layer 10, Z = 2.000
;fan10;
G1 Z2.000 F1200
G1 X141.8000 Y113.2000 F6000
G1 E0 F2400 ; custom un-retraction/prime
G92 E0.0000
G1 X141.8000 Y116.8000 E0.1293 F2880
G1 X134.1450 Y116.8000 E0.4043
G1 X134.1450 Y113.2000 E0.5336
G1 X141.8000 Y113.2000 E0.8086
G1 X142.2800 Y112.7200 F6000
G92 E0.0000
G1 X142.2800 Y117.2800 E0.1638 F2880
G1 X133.6650 Y117.2800 E0.4733
G1 X133.6650 Y112.7200 E0.6371
G1 X142.2800 Y112.7200 E0.9465
G1 X142.7600 Y112.2400 F6000
G92 E0.0000
G1 X142.7600 Y117.7600 E0.1983 F2160
G1 X133.1850 Y117.7600 E0.5422
G1 X133.1850 Y112.2400 E0.7405
G1 X142.7600 Y112.2400 E1.0844
G1 X139.0040 Y116.4520 F6000
G92 E0.0000
G1 X141.4520 Y114.0040 E0.1555 F3600
G1 X141.4520 Y113.5480 E0.1759
G1 X137.6650 Y113.5480 E0.3460
G1 X134.7610 Y116.4520 E0.5304
G92 E0.0000
G1 E-6 F2400 ; custom retraction
;zhop1
G1 X93.8550 Y116.8000 F6000
G1 Z2.000 F1200
G1 E0 F2400 ; custom un-retraction/prime
G92 E0.0000
G1 X91.2000 Y116.8000 E0.0954 F2880
G1 X91.2000 Y113.2000 E0.2247
G1 X93.8550 Y113.2000 E0.3200
G1 X93.8550 Y116.8000 E0.4494
G1 X94.3350 Y117.2800 F6000
G92 E0.0000
G1 X90.7200 Y117.2800 E0.1299 F2880
G1 X90.7200 Y112.7200 E0.2937
G1 X94.3350 Y112.7200 E0.4235
G1 X94.3350 Y117.2800 E0.5873
G1 X94.8150 Y117.7600 F6000
G92 E0.0000
G1 X90.2400 Y117.7600 E0.1643 F2160
G1 X90.2400 Y112.2400 E0.3626
G1 X94.8150 Y112.2400 E0.5270
G1 X94.8150 Y117.7600 E0.7252
G92 E0.0000
G1 E-6 F2400 ; custom retraction
;zhop1
G1 X90.2400 Y116.4870 F6000
G1 X87.1170 Y115.6170
G1 Z2.000 F1200
G1 E0 F2400 ; custom un-retraction/prime
G92 E0.0000
G1 X85.8830 Y115.6170 E0.0444 F2160
G1 X85.8830 Y114.3830 E0.0887
G1 X87.1170 Y114.3830 E0.1331
G1 X87.1170 Y115.6170 E0.1774
G1 X86.8190 Y114.6710 F6000
G92 E0.0000
G1 X86.1710 Y115.3190 E0.0329 F3600
G92 E0.0000
G1 E-6 F2400 ; custom retraction
;layer 11, Z = 2.200
;fan11;
G1 Z2.200 F1200
G1 X85.9140 Y115.5860 F6000
G1 E0 F2400 ; custom un-retraction/prime
G92 E0.0000
G1 X85.9140 Y114.4140 E0.0421 F2160
G1 X87.0860 Y114.4140 E0.0842
G1 X87.0860 Y115.5860 E0.1262
G1 X85.9140 Y115.5860 E0.1683
G1 X86.7870 Y115.2980 F6000
G92 E0.0000
G1 X86.2020 Y114.7130 E0.0297 F3600
G92 E0.0000
G1 E-6 F2400 ; custom retraction
;zhop1
G1 X87.0860 Y114.4450 F6000
G1 X87.0860 Y114.4140
G1 X90.2400 Y113.4910
G1 X91.2000 Y113.2000
G1 Z2.200 F1200
G1 E0 F2400 ; custom un-retraction/prime
G92 E0.0000
G1 X93.8800 Y113.2000 E0.0963 F2880
G1 X93.8800 Y116.8000 E0.2256
G1 X91.2000 Y116.8000 E0.3219
G1 X91.2000 Y113.2000 E0.4512
G1 X90.7200 Y112.7200 F6000
G92 E0.0000
G1 X94.3600 Y112.7200 E0.1308 F2880
G1 X94.3600 Y117.2800 E0.2946
G1 X90.7200 Y117.2800 E0.4253
G1 X90.7200 Y112.7200 E0.5891
G1 X90.2400 Y112.2400 F6000
G92 E0.0000
G1 X94.8400 Y112.2400 E0.1652 F2160
G1 X94.8400 Y117.7600 E0.3635
G1 X90.2400 Y117.7600 E0.5288
G1 X90.2400 Y112.2400 E0.7271
G92 E0.0000
G1 E-6 F2400 ; custom retraction
;zhop1
G1 X94.8400 Y112.3410 F6000
G1 X133.1600 Y112.2400
G1 X133.1600 Y113.1790
G1 X134.1200 Y113.2000
G1 Z2.200 F1200
G1 E0 F2400 ; custom un-retraction/prime
G92 E0.0000
G1 X141.8000 Y113.2000 E0.2759 F2880
G1 X141.8000 Y116.8000 E0.4052
G1 X134.1200 Y116.8000 E0.6811
G1 X134.1200 Y113.2000 E0.8104
G1 X133.6400 Y112.7200 F6000
G92 E0.0000
G1 X142.2800 Y112.7200 E0.3104 F2880
G1 X142.2800 Y117.2800 E0.4742
G1 X133.6400 Y117.2800 E0.7845
G1 X133.6400 Y112.7200 E0.9483
G1 X133.1600 Y112.2400 F6000
G92 E0.0000
G1 X142.7600 Y112.2400 E0.3449 F2160
G1 X142.7600 Y117.7600 E0.5431
G1 X133.1600 Y117.7600 E0.8880
G1 X133.1600 Y112.2400 E1.0863
G1 X134.7610 Y113.5480 F6000
G92 E0.0000
G1 X137.6650 Y116.4520 E0.1844 F3600
G1 X141.4520 Y116.4520 E0.3544
G1 X141.4520 Y115.9960 E0.3749
G1 X139.0040 Y113.5480 E0.5304
G92 E0.0000
G1 E-6 F2400 ; custom retraction
;layer 12, Z = 2.400
;fan12;
G1 Z2.400 F1200
G1 X141.8000 Y113.2000 F6000
G1 E0 F2400 ; custom un-retraction/prime
G92 E0.0000
G1 X141.8000 Y116.8000 E0.1293 F2880
G1 X134.0860 Y116.8000 E0.4064
G1 X134.0860 Y113.2000 E0.5357
G1 X141.8000 Y113.2000 E0.8128
G1 X142.2800 Y112.7200 F6000
G92 E0.0000
G1 X142.2800 Y117.2800 E0.1638 F2880
G1 X133.6060 Y117.2800 E0.4754
G1 X133.6060 Y112.7200 E0.6392
G1 X142.2800 Y112.7200 E0.9507
G1 X142.7600 Y112.2400 F6000
G92 E0.0000
G1 X142.7600 Y117.7600 E0.1983 F2160
G1 X133.1260 Y117.7600 E0.5443
G1 X133.1260 Y112.2400 E0.7426
G1 X142.7600 Y112.2400 E1.0887
G1 X139.0040 Y116.4520 F6000
G92 E0.0000
G1 X141.4520 Y114.0040 E0.1555 F3600
G1 X141.4520 Y113.5480 E0.1759
G1 X137.6650 Y113.5480 E0.3460
G1 X134.7610 Y116.4520 E0.5304
G92 E0.0000
G1 E-6 F2400 ; custom retraction
;zhop1
G1 X93.9140 Y116.8000 F6000
G1 Z2.400 F1200
G1 E0 F2400 ; custom un-retraction/prime
G92 E0.0000
G1 X91.2000 Y116.8000 E0.0975 F2880
G1 X91.2000 Y113.2000 E0.2268
G1 X93.9140 Y113.2000 E0.3243
G1 X93.9140 Y116.8000 E0.4536
G1 X94.3940 Y117.2800 F6000
G92 E0.0000
G1 X90.7200 Y117.2800 E0.1320 F2880
G1 X90.7200 Y112.7200 E0.2958
G1 X94.3940 Y112.7200 E0.4277
G1 X94.3940 Y117.2800 E0.5915
G1 X94.8740 Y117.7600 F6000
G92 E0.0000
G1 X90.2400 Y117.7600 E0.1664 F2160
G1 X90.2400 Y112.2400 E0.3647
G1 X94.8740 Y112.2400 E0.5312
G1 X94.8740 Y117.7600 E0.7294
G92 E0.0000
G1 E-6 F2400 ; custom retraction
;zhop1
G1 X87.0540 Y115.5540 F6000
G1 Z2.400 F1200
G1 E0 F2400 ; custom un-retraction/prime
G92 E0.0000
G1 X85.9460 Y115.5540 E0.0398 F2160
G1 X85.9460 Y114.4460 E0.0796
G1 X87.0540 Y114.4460 E0.1194
G1 X87.0540 Y115.5540 E0.1592
G1 X86.7560 Y114.7340 F6000
G92 E0.0000
G1 X86.2340 Y115.2560 E0.0265 F3600
G92 E0.0000
G1 E-6 F2400 ; custom retraction
;layer 13, Z = 2.600
;fan13;
G1 Z2.600 F1200
G1 X85.9780 Y115.5220 F6000
G1 E0 F2400 ; custom un-retraction/prime
G92 E0.0000
G1 X85.9780 Y114.4780 E0.0375 F2160
G1 X87.0220 Y114.4780 E0.0751
G1 X87.0220 Y115.5220 E0.1126
G1 X85.9780 Y115.5220 E0.1501
G1 X86.2660 Y114.7760 F6000
G92 E0.0000
G1 X86.7240 Y115.2340 E0.0233 F3600
G92 E0.0000
G1 E-6 F2400 ; custom retraction
;zhop1
G1 X87.0220 Y115.3390 F6000
G1 X87.0220 Y115.5220
G1 X90.2400 Y116.4640
G1 X91.2000 Y116.8000
G1 Z2.600 F1200
G1 E0 F2400 ; custom un-retraction/prime
G92 E0.0000
G1 X91.2000 Y113.2000 E0.1293 F2880
G1 X93.9500 Y113.2000 E0.2281
G1 X93.9500 Y116.8000 E0.3574
G1 X91.2000 Y116.8000 E0.4562
G1 X90.7200 Y117.2800 F6000
G92 E0.0000
G1 X90.7200 Y112.7200 E0.1638 F2880
G1 X94.4300 Y112.7200 E0.2971
G1 X94.4300 Y117.2800 E0.4609
G1 X90.7200 Y117.2800 E0.5941
G1 X90.2400 Y117.7600 F6000
G92 E0.0000
G1 X90.2400 Y112.2400 E0.1983 F2160
G1 X94.9100 Y112.2400 E0.3660
G1 X94.9100 Y117.7600 E0.5643
G1 X90.2400 Y117.7600 E0.7321
G92 E0.0000
G1 E-6 F2400 ; custom retraction
;zhop1
G1 X94.9100 Y117.6580 F6000
G1 X133.0900 Y117.7600
G1 X133.0900 Y116.8210
G1 X134.0500 Y116.8000
G1 Z2.600 F1200
G1 E0 F2400 ; custom un-retraction/prime
G92 E0.0000
G1 X134.0500 Y113.2000 E0.1293 F2880
G1 X141.8000 Y113.2000 E0.4077
G1 X141.8000 Y116.8000 E0.5370
G1 X134.0500 Y116.8000 E0.8154
G1 X133.5700 Y117.2800 F6000
G92 E0.0000
G1 X133.5700 Y112.7200 E0.1638 F2880
G1 X142.2800 Y112.7200 E0.4767
G1 X142.2800 Y117.2800 E0.6405
G1 X133.5700 Y117.2800 E0.9534
G1 X133.0900 Y117.7600 F6000
G92 E0.0000
G1 X133.0900 Y112.2400 E0.1983 F2160
G1 X142.7600 Y112.2400 E0.5456
G1 X142.7600 Y117.7600 E0.7439
G1 X133.0900 Y117.7600 E1.0913
G1 X134.7610 Y113.5480 F6000
G92 E0.0000
G1 X137.6650 Y116.4520 E0.1844 F3600
G1 X141.4520 Y116.4520 E0.3544
G1 X141.4520 Y115.9960 E0.3749
G1 X139.0040 Y113.5480 E0.5304
G92 E0.0000
G1 E-6 F2400 ; custom retraction
;layer 14, Z = 2.800
;fan14;
G1 Z2.800 F1200
G1 X141.8000 Y113.2000 F6000
G1 E0 F2400 ; custom un-retraction/prime
G92 E0.0000
G1 X141.8000 Y116.8000 E0.1293 F2880
G1 X134.0070 Y116.8000 E0.4093
G1 X134.0070 Y113.2000 E0.5386
G1 X141.8000 Y113.2000 E0.8185
G1 X142.2800 Y112.7200 F6000
G92 E0.0000
G1 X142.2800 Y117.2800 E0.1638 F2880
G1 X133.5270 Y117.2800 E0.4782
G1 X133.5270 Y112.7200 E0.6420
G1 X142.2800 Y112.7200 E0.9565
G1 X142.7600 Y112.2400 F6000
G92 E0.0000
G1 X142.7600 Y117.7600 E0.1983 F2160
G1 X133.0470 Y117.7600 E0.5472
G1 X133.0470 Y112.2400 E0.7455
G1 X142.7600 Y112.2400 E1.0944
G1 X139.0040 Y116.4520 F6000
G92 E0.0000
G1 X141.4520 Y114.0040 E0.1555 F3600
G1 X141.4520 Y113.5480 E0.1759
G1 X137.6650 Y113.5480 E0.3460
G1 X134.7610 Y116.4520 E0.5304
G92 E0.0000
G1 E-6 F2400 ; custom retraction
;zhop1
G1 X93.9930 Y116.8000 F6000
G1 Z2.800 F1200
G1 E0 F2400 ; custom un-retraction/prime
G92 E0.0000
G1 X91.2000 Y116.8000 E0.1003 F2880
G1 X91.2000 Y113.2000 E0.2297
G1 X93.9930 Y113.2000 E0.3300
G1 X93.9930 Y116.8000 E0.4593
G1 X94.4730 Y117.2800 F6000
G92 E0.0000
G1 X90.7200 Y117.2800 E0.1348 F2880
G1 X90.7200 Y112.7200 E0.2986
G1 X94.4730 Y112.7200 E0.4334
G1 X94.4730 Y117.2800 E0.5972
G1 X94.9530 Y117.7600 F6000
G92 E0.0000
G1 X90.2400 Y117.7600 E0.1693 F2160
G1 X90.2400 Y112.2400 E0.3676
G1 X94.9530 Y112.2400 E0.5369
G1 X94.9530 Y117.7600 E0.7352
G92 E0.0000
G1 E-6 F2400 ; custom retraction
;zhop1
G1 X86.9910 Y115.4910 F6000
G1 Z2.800 F1200
G1 E0 F2400 ; custom un-retraction/prime
G92 E0.0000
G1 X86.0090 Y115.4910 E0.0353 F2160
G1 X86.0090 Y114.5090 E0.0705
G1 X86.9910 Y114.5090 E0.1058
G1 X86.9910 Y115.4910 E0.1410
G1 X86.2970 Y115.1920 F6000
G92 E0.0000
G1 X86.6920 Y114.7970 E0.0201 F3600
G92 E0.0000
G1 E-6 F2400 ; custom retraction
;layer 15, Z = 3.000
;fan15;
G1 Z3.000 F1200
G1 X86.9590 Y114.5410 F6000
G1 E0 F2400 ; custom un-retraction/prime
G92 E0.0000
G1 X86.9590 Y115.4590 E0.0330 F2160
G1 X86.0410 Y115.4590 E0.0660
G1 X86.0410 Y114.5410 E0.0989
G1 X86.9590 Y114.5410 E0.1319
G1 X86.6610 Y115.1710 F6000
G92 E0.0000
G1 X86.3290 Y114.8390 E0.0168 F3600
G92 E0.0000
G1 E-6 F2400 ; custom retraction
;zhop1
G1 X86.9590 Y114.6270 F6000
G1 X86.9590 Y114.5410
G1 X90.2400 Y113.5230
G1 X91.2000 Y113.2000
G1 Z3.000 F1200
G1 E0 F2400 ; custom un-retraction/prime
G92 E0.0000
G1 X94.0430 Y113.2000 E0.1021 F2880
G1 X94.0430 Y116.8000 E0.2314
G1 X91.2000 Y116.8000 E0.3335
G1 X91.2000 Y113.2000 E0.4628
G1 X90.7200 Y112.7200 F6000
G92 E0.0000
G1 X94.5230 Y112.7200 E0.1366 F2880
G1 X94.5230 Y117.2800 E0.3004
G1 X90.7200 Y117.2800 E0.4370
G1 X90.7200 Y112.7200 E0.6008
G1 X90.2400 Y112.2400 F6000
G92 E0.0000
G1 X95.0030 Y112.2400 E0.1711 F2160
G1 X95.0030 Y117.7600 E0.3694
G1 X90.2400 Y117.7600 E0.5404
G1 X90.2400 Y112.2400 E0.7387
G92 E0.0000
G1 E-6 F2400 ; custom retraction
;zhop1
G1 X95.0030 Y112.3450 F6000
G1 X132.9970 Y112.2400
G1 X132.9970 Y113.1790
G1 X133.9570 Y113.2000
G1 Z3.000 F1200
G1 E0 F2400 ; custom un-retraction/prime
G92 E0.0000
G1 X141.8000 Y113.2000 E0.2817 F2880
G1 X141.8000 Y116.8000 E0.4110
G1 X133.9570 Y116.8000 E0.6927
G1 X133.9570 Y113.2000 E0.8221
G1 X133.4770 Y112.7200 F6000
G92 E0.0000
G1 X142.2800 Y112.7200 E0.3162 F2880
G1 X142.2800 Y117.2800 E0.4800
G1 X133.4770 Y117.2800 E0.7962
G1 X133.4770 Y112.7200 E0.9600
G1 X132.9970 Y112.2400 F6000
G92 E0.0000
G1 X142.7600 Y112.2400 E0.3507 F2160
G1 X142.7600 Y117.7600 E0.5490
G1 X132.9970 Y117.7600 E0.8996
G1 X132.9970 Y112.2400 E1.0979
G1 X134.7610 Y113.5480 F6000
G92 E0.0000
G1 X137.6650 Y116.4520 E0.1844 F3600
G1 X141.4520 Y116.4520 E0.3544
G1 X141.4520 Y115.9960 E0.3749
G1 X139.0040 Y113.5480 E0.5304
G92 E0.0000
G1 E-6 F2400 ; custom retraction
;layer 16, Z = 3.200
;fan16;
G1 Z3.200 F1200
G1 X141.8000 Y113.2000 F6000
G1 E0 F2400 ; custom un-retraction/prime
G92 E0.0000
G1 X141.8000 Y116.8000 E0.1293 F2880
G1 X133.9040 Y116.8000 E0.4129
G1 X133.9040 Y113.2000 E0.5423
G1 X141.8000 Y113.2000 E0.8259
G1 X142.2800 Y112.7200 F6000
G92 E0.0000
G1 X142.2800 Y117.2800 E0.1638 F2880
G1 X133.4240 Y117.2800 E0.4819
G1 X133.4240 Y112.7200 E0.6457
G1 X142.2800 Y112.7200 E0.9638
G1 X142.7600 Y112.2400 F6000
G92 E0.0000
G1 X142.7600 Y117.7600 E0.1983 F2160
G1 X132.9440 Y117.7600 E0.5509
G1 X132.9440 Y112.2400 E0.7492
G1 X142.7600 Y112.2400 E1.1017
G1 X139.0040 Y116.4520 F6000
G92 E0.0000
G1 X141.4520 Y114.0040 E0.1555 F3600
G1 X141.4520 Y113.5480 E0.1759
G1 X137.6650 Y113.5480 E0.3460
G1 X134.7610 Y116.4520 E0.5304
G92 E0.0000
G1 E-6 F2400 ; custom retraction
;zhop1
G1 X94.0960 Y116.8000 F6000
G1 Z3.200 F1200
G1 E0 F2400 ; custom un-retraction/prime
G92 E0.0000
G1 X91.2000 Y116.8000 E0.1040 F2880
G1 X91.2000 Y113.2000 E0.2333
G1 X94.0960 Y113.2000 E0.3373
G1 X94.0960 Y116.8000 E0.4667
G1 X94.5760 Y117.2800 F6000
G92 E0.0000
G1 X90.7200 Y117.2800 E0.1385 F2880
G1 X90.7200 Y112.7200 E0.3023
G1 X94.5760 Y112.7200 E0.4408
G1 X94.5760 Y117.2800 E0.6046
G1 X95.0560 Y117.7600 F6000
G92 E0.0000
G1 X90.2400 Y117.7600 E0.1730 F2160
G1 X90.2400 Y112.2400 E0.3713
G1 X95.0560 Y112.2400 E0.5442
G1 X95.0560 Y117.7600 E0.7425
G92 E0.0000
G1 E-6 F2400 ; custom retraction
;zhop1
G1 X90.2400 Y116.3780 F6000
G1 X86.9270 Y115.4270
G1 Z3.200 F1200
G1 E0 F2400 ; custom un-retraction/prime
G92 E0.0000
G1 X86.0730 Y115.4270 E0.0307 F2160
G1 X86.0730 Y114.5730 E0.0614
G1 X86.9270 Y114.5730 E0.0921
G1 X86.9270 Y115.4270 E0.1228
G1 X86.3610 Y115.1290 F6000
G92 E0.0000
G1 X86.6290 Y114.8610 E0.0136 F3600
G92 E0.0000
G1 E-6 F2400 ; custom retraction
;layer 17, Z = 3.400
;fan17;
G1 Z3.400 F1200
G1 X86.8960 Y114.6040 F6000
G1 E0 F2400 ; custom un-retraction/prime
G92 E0.0000
G1 X86.8960 Y115.3960 E0.0284 F2160
G1 X86.1040 Y115.3960 E0.0569
G1 X86.1040 Y114.6040 E0.0853
G1 X86.8960 Y114.6040 E0.1137
G1 X86.5970 Y115.1080 F6000
G92 E0.0000
G1 X86.3920 Y114.9030 E0.0104 F3600
G92 E0.0000
G1 E-6 F2400 ; custom retraction
;zhop1
G1 X86.8960 Y114.7250 F6000
G1 X86.8960 Y114.6040
G1 X90.2400 Y113.5400
G1 X91.2000 Y113.2000
G1 Z3.400 F1200
G1 E0 F2400 ; custom un-retraction/prime
G92 E0.0000
G1 X94.1570 Y113.2000 E0.1062 F2880
G1 X94.1570 Y116.8000 E0.2355
G1 X91.2000 Y116.8000 E0.3418
G1 X91.2000 Y113.2000 E0.4711
G1 X90.7200 Y112.7200 F6000
G92 E0.0000
G1 X94.6370 Y112.7200 E0.1407 F2880
G1 X94.6370 Y117.2800 E0.3045
G1 X90.7200 Y117.2800 E0.4452
G1 X90.7200 Y112.7200 E0.6090
G1 X90.2400 Y112.2400 F6000
G92 E0.0000
G1 X95.1170 Y112.2400 E0.1752 F2160
G1 X95.1170 Y117.7600 E0.3735
G1 X90.2400 Y117.7600 E0.5487
G1 X90.2400 Y112.2400 E0.7470
G92 E0.0000
G1 E-6 F2400 ; custom retraction
;zhop1
G1 X95.1170 Y112.3470 F6000
G1 X132.8830 Y112.2400
G1 X132.8830 Y113.1790
G1 X133.8430 Y113.2000
G1 Z3.400 F1200
G1 E0 F2400 ; custom un-retraction/prime
G92 E0.0000
G1 X141.8000 Y113.2000 E0.2858 F2880
G1 X141.8000 Y116.8000 E0.4151
G1 X133.8430 Y116.8000 E0.7010
G1 X133.8430 Y113.2000 E0.8303
G1 X133.3630 Y112.7200 F6000
G92 E0.0000
G1 X142.2800 Y112.7200 E0.3203 F2880
G1 X142.2800 Y117.2800 E0.4841
G1 X133.3630 Y117.2800 E0.8044
G1 X133.3630 Y112.7200 E0.9682
G1 X132.8830 Y112.2400 F6000
G92 E0.0000
G1 X142.7600 Y112.2400 E0.3548 F2160
G1 X142.7600 Y117.7600 E0.5531
G1 X132.8830 Y117.7600 E0.9079
G1 X132.8830 Y112.2400 E1.1062
G1 X134.7610 Y113.5480 F6000
G92 E0.0000
G1 X137.6650 Y116.4520 E0.1844 F3600
G1 X141.4520 Y116.4520 E0.3544
G1 X141.4520 Y115.9960 E0.3749
G1 X139.0040 Y113.5480 E0.5304
G92 E0.0000
G1 E-6 F2400 ; custom retraction
;layer 18, Z = 3.600
;fan18;
G1 Z3.600 F1200
G1 X141.8000 Y113.2000 F6000
G1 E0 F2400 ; custom un-retraction/prime
G92 E0.0000
G1 X141.8000 Y116.8000 E0.1293 F2880
G1 X133.7760 Y116.8000 E0.4175
G1 X133.7760 Y113.2000 E0.5469
G1 X141.8000 Y113.2000 E0.8351
G1 X142.2800 Y112.7200 F6000
G92 E0.0000
G1 X142.2800 Y117.2800 E0.1638 F2880
G1 X133.2960 Y117.2800 E0.4865
G1 X133.2960 Y112.7200 E0.6503
G1 X142.2800 Y112.7200 E0.9730
G1 X142.7600 Y112.2400 F6000
G92 E0.0000
G1 X142.7600 Y117.7600 E0.1983 F2160
G1 X132.8160 Y117.7600 E0.5555
G1 X132.8160 Y112.2400 E0.7538
G1 X142.7600 Y112.2400 E1.1109
G1 X139.0040 Y116.4520 F6000
G92 E0.0000
G1 X141.4520 Y114.0040 E0.1555 F3600
G1 X141.4520 Y113.5480 E0.1759
G1 X137.6650 Y113.5480 E0.3460
G1 X134.7610 Y116.4520 E0.5304
G92 E0.0000
G1 E-6 F2400 ; custom retraction
;zhop1
G1 X94.2240 Y116.8000 F6000
G1 Z3.600 F1200
G1 E0 F2400 ; custom un-retraction/prime
G92 E0.0000
G1 X91.2000 Y116.8000 E0.1086 F2880
G1 X91.2000 Y113.2000 E0.2379
G1 X94.2240 Y113.2000 E0.3465
G1 X94.2240 Y116.8000 E0.4759
G1 X94.7040 Y117.2800 F6000
G92 E0.0000
G1 X90.7200 Y117.2800 E0.1431 F2880
G1 X90.7200 Y112.7200 E0.3069
G1 X94.7040 Y112.7200 E0.4500
G1 X94.7040 Y117.2800 E0.6138
G1 X95.1840 Y117.7600 F6000
G92 E0.0000
G1 X90.2400 Y117.7600 E0.1776 F2160
G1 X90.2400 Y112.2400 E0.3759
G1 X95.1840 Y112.2400 E0.5534
G1 X95.1840 Y117.7600 E0.7517
G92 E0.0000
G1 E-6 F2400 ; custom retraction
;zhop1
G1 X86.8640 Y115.3640 F6000
G1 Z3.600 F1200
G1 E0 F2400 ; custom un-retraction/prime
G92 E0.0000
G1 X86.1360 Y115.3640 E0.0262 F2160
G1 X86.1360 Y114.6360 E0.0523
G1 X86.8640 Y114.6360 E0.0785
G1 X86.8640 Y115.3640 E0.1046
G1 X86.4240 Y115.0660 F6000
G92 E0.0000
G1 X86.5660 Y114.9240 E0.0072 F3600
G92 E0.0000
G1 E-6 F2400 ; custom retraction
;layer 19, Z = 3.800
;fan19;
G1 Z3.800 F1200
G1 X86.8320 Y114.6680 F6000
G1 E0 F2400 ; custom un-retraction/prime
G92 E0.0000
G1 X86.8320 Y115.3320 E0.0239 F2160
G1 X86.1680 Y115.3320 E0.0478
G1 X86.1680 Y114.6680 E0.0716
G1 X86.8320 Y114.6680 E0.0955
G1 X86.4560 Y114.9660 F6000
G92 E0.0000
G1 X86.5340 Y115.0440 E0.0040 F3600
G92 E0.0000
G1 E-6 F2400 ; custom retraction
;zhop1
G1 X86.8320 Y115.1570 F6000
G1 X86.8320 Y115.3320
G1 X90.2400 Y116.4390
G1 X91.2000 Y116.8000
G1 Z3.800 F1200
G1 E0 F2400 ; custom un-retraction/prime
G92 E0.0000
G1 X91.2000 Y113.2000 E0.1293 F2880
G1 X94.2950 Y113.2000 E0.2405
G1 X94.2950 Y116.8000 E0.3698
G1 X91.2000 Y116.8000 E0.4810
G1 X90.7200 Y117.2800 F6000
G92 E0.0000
G1 X90.7200 Y112.7200 E0.1638 F2880
G1 X94.7750 Y112.7200 E0.3095
G1 X94.7750 Y117.2800 E0.4733
G1 X90.7200 Y117.2800 E0.6189
G1 X90.2400 Y117.7600 F6000
G92 E0.0000
G1 X90.2400 Y112.2400 E0.1983 F2160
G1 X95.2550 Y112.2400 E0.3784
G1 X95.2550 Y117.7600 E0.5767
G1 X90.2400 Y117.7600 E0.7568
G92 E0.0000
G1 E-6 F2400 ; custom retraction
;zhop1
G1 X95.2550 Y117.6490 F6000
G1 X132.7450 Y117.7600
G1 X132.7450 Y116.8210
G1 X133.7050 Y116.8000
G1 Z3.800 F1200
G1 E0 F2400 ; custom un-retraction/prime
G92 E0.0000
G1 X133.7050 Y113.2000 E0.1293 F2880
G1 X141.8000 Y113.2000 E0.4201
G1 X141.8000 Y116.8000 E0.5494
G1 X133.7050 Y116.8000 E0.8402
G1 X133.2250 Y117.2800 F6000
G92 E0.0000
G1 X133.2250 Y112.7200 E0.1638 F2880
G1 X142.2800 Y112.7200 E0.4891
G1 X142.2800 Y117.2800 E0.6529
G1 X133.2250 Y117.2800 E0.9781
G1 X132.7450 Y117.7600 F6000
G92 E0.0000
G1 X132.7450 Y112.2400 E0.1983 F2160
G1 X142.7600 Y112.2400 E0.5580
G1 X142.7600 Y117.7600 E0.7563
G1 X132.7450 Y117.7600 E1.1160
G1 X134.7610 Y113.5480 F6000
G92 E0.0000
G1 X137.6650 Y116.4520 E0.1844 F3600
G1 X141.4520 Y116.4520 E0.3544
G1 X141.4520 Y115.9960 E0.3749
G1 X139.0040 Y113.5480 E0.5304
G92 E0.0000
G1 E-6 F2400 ; custom retraction
;layer 20, Z = 4.000
;fan20;
G1 Z4.000 F1200
G1 X141.8000 Y113.2000 F6000
G1 E0 F2400 ; custom un-retraction/prime
G92 E0.0000
G1 X141.8000 Y116.8000 E0.1293 F2880
G1 X133.6240 Y116.8000 E0.4230
G1 X133.6240 Y113.2000 E0.5523
G1 X141.8000 Y113.2000 E0.8460
G1 X142.2800 Y112.7200 F6000
G92 E0.0000
G1 X142.2800 Y117.2800 E0.1638 F2880
G1 X133.1440 Y117.2800 E0.4920
G1 X133.1440 Y112.7200 E0.6558
G1 X142.2800 Y112.7200 E0.9839
G1 X142.7600 Y112.2400 F6000
G92 E0.0000
G1 X142.7600 Y117.7600 E0.1983 F2160
G1 X132.6640 Y117.7600 E0.5609
G1 X132.6640 Y112.2400 E0.7592
G1 X142.7600 Y112.2400 E1.1218
G1 X139.0040 Y116.4520 F6000
G92 E0.0000
G1 X141.4520 Y114.0040 E0.1555 F3600
G1 X141.4520 Y113.5480 E0.1759
G1 X137.6650 Y113.5480 E0.3460
G1 X134.7610 Y116.4520 E0.5304
G92 E0.0000
G1 E-6 F2400 ; custom retraction
;zhop1
G1 X94.3760 Y116.8000 F6000
G1 Z4.000 F1200
G1 E0 F2400 ; custom un-retraction/prime
G92 E0.0000
G1 X91.2000 Y116.8000 E0.1141 F2880
G1 X91.2000 Y113.2000 E0.2434
G1 X94.3760 Y113.2000 E0.3575
G1 X94.3760 Y116.8000 E0.4868
G1 X94.8560 Y117.2800 F6000
G92 E0.0000
G1 X90.7200 Y117.2800 E0.1486 F2880
G1 X90.7200 Y112.7200 E0.3124
G1 X94.8560 Y112.7200 E0.4609
G1 X94.8560 Y117.2800 E0.6247
G1 X95.3360 Y117.7600 F6000
G92 E0.0000
G1 X90.2400 Y117.7600 E0.1830 F2160
G1 X90.2400 Y112.2400 E0.3813
G1 X95.3360 Y112.2400 E0.5644
G1 X95.3360 Y117.7600 E0.7626
G92 E0.0000
G1 E-6 F2400 ; custom retraction
;zhop1
G1 X90.2400 Y116.2920 F6000
G1 X86.8010 Y115.3010
G1 Z4.000 F1200
G1 E0 F2400 ; custom un-retraction/prime
G92 E0.0000
G1 X86.1990 Y115.3010 E0.0216 F2160
G1 X86.1990 Y114.6990 E0.0432
G1 X86.8010 Y114.6990 E0.0648
G1 X86.8010 Y115.3010 E0.0864
G1 X86.4870 Y115.0020 F6000
G92 E0.0000
G1 X86.5020 Y114.9870 E0.0008 F3600
G92 E0.0000
G1 E-6 F2400 ; custom retraction
;layer 21, Z = 4.200
;fan21;
G1 Z4.200 F1200
G1 X86.7690 Y114.7310 F6000
G1 E0 F2400 ; custom un-retraction/prime
G92 E0.0000
G1 X86.7690 Y115.2690 E0.0193 F2160
G1 X86.2310 Y115.2690 E0.0387
G1 X86.2310 Y114.7310 E0.0580
G1 X86.7690 Y114.7310 E0.0773
G92 E0.0000
G1 E-6 F2400 ; custom retraction
;zhop1
G1 X91.2000 Y113.2000 F6000
G1 Z4.200 F1200
G1 E0 F2400 ; custom un-retraction/prime
G92 E0.0000
G1 X94.4610 Y113.2000 E0.1171 F2880
G1 X94.4610 Y116.8000 E0.2465
G1 X91.2000 Y116.8000 E0.3636
G1 X91.2000 Y113.2000 E0.4929
G1 X90.7200 Y112.7200 F6000
G92 E0.0000
G1 X94.9410 Y112.7200 E0.1516 F2880
G1 X94.9410 Y117.2800 E0.3154
G1 X90.7200 Y117.2800 E0.4671
G1 X90.7200 Y112.7200 E0.6309
G1 X90.2400 Y112.2400 F6000
G92 E0.0000
G1 X95.4210 Y112.2400 E0.1861 F2160
G1 X95.4210 Y117.7600 E0.3844
G1 X90.2400 Y117.7600 E0.5705
G1 X90.2400 Y112.2400 E0.7688
G92 E0.0000
G1 E-6 F2400 ; custom retraction
;zhop1
G1 X95.4210 Y112.3550 F6000
G1 X132.5790 Y112.2400
G1 X132.5790 Y113.1790
G1 X133.5390 Y113.2000
G1 Z4.200 F1200
G1 E0 F2400 ; custom un-retraction/prime
G92 E0.0000
G1 X141.8000 Y113.2000 E0.2967 F2880
G1 X141.8000 Y116.8000 E0.4261
G1 X133.5390 Y116.8000 E0.7228
G1 X133.5390 Y113.2000 E0.8521
G1 X133.0590 Y112.7200 F6000
G92 E0.0000
G1 X142.2800 Y112.7200 E0.3312 F2880
G1 X142.2800 Y117.2800 E0.4950
G1 X133.0590 Y117.2800 E0.8263
G1 X133.0590 Y112.7200 E0.9901
G1 X132.5790 Y112.2400 F6000
G92 E0.0000
G1 X142.7600 Y112.2400 E0.3657 F2160
G1 X142.7600 Y117.7600 E0.5640
G1 X132.5790 Y117.7600 E0.9297
G1 X132.5790 Y112.2400 E1.1280
G1 X134.7610 Y113.5480 F6000
G92 E0.0000
G1 X137.6650 Y116.4520 E0.1844 F3600
G1 X141.4520 Y116.4520 E0.3544
G1 X141.4520 Y115.9960 E0.3749
G1 X139.0040 Y113.5480 E0.5304
G92 E0.0000
G1 E-6 F2400 ; custom retraction
;layer 22, Z = 4.400
;fan22;
G1 Z4.400 F1200
G1 X141.8000 Y113.2000 F6000
G1 E0 F2400 ; custom un-retraction/prime
G92 E0.0000
G1 X141.8000 Y116.8000 E0.1293 F2880
G1 X133.4480 Y116.8000 E0.4293
G1 X133.4480 Y113.2000 E0.5587
G1 X141.8000 Y113.2000 E0.8587
G1 X142.2800 Y112.7200 F6000
G92 E0.0000
G1 X142.2800 Y117.2800 E0.1638 F2880
G1 X132.9680 Y117.2800 E0.4983
G1 X132.9680 Y112.7200 E0.6621
G1 X142.2800 Y112.7200 E0.9966
G1 X142.7600 Y112.2400 F6000
G92 E0.0000
G1 X142.7600 Y117.7600 E0.1983 F2160
G1 X132.4880 Y117.7600 E0.5673
G1 X132.4880 Y112.2400 E0.7656
G1 X142.7600 Y112.2400 E1.1345
G1 X139.0040 Y116.4520 F6000
G92 E0.0000
G1 X141.4520 Y114.0040 E0.1555 F3600
G1 X141.4520 Y113.5480 E0.1759
G1 X137.6650 Y113.5480 E0.3460
G1 X134.7610 Y116.4520 E0.5304
G92 E0.0000
G1 E-6 F2400 ; custom retraction
;zhop1
G1 X94.5520 Y116.8000 F6000
G1 Z4.400 F1200
G1 E0 F2400 ; custom un-retraction/prime
G92 E0.0000
G1 X91.2000 Y116.8000 E0.1204 F2880
G1 X91.2000 Y113.2000 E0.2497
G1 X94.5520 Y113.2000 E0.3701
G1 X94.5520 Y116.8000 E0.4995
G1 X95.0320 Y117.2800 F6000
G92 E0.0000
G1 X90.7200 Y117.2800 E0.1549 F2880
G1 X90.7200 Y112.7200 E0.3187
G1 X95.0320 Y112.7200 E0.4736
G1 X95.0320 Y117.2800 E0.6374
G1 X95.5120 Y117.7600 F6000
G92 E0.0000
G1 X90.2400 Y117.7600 E0.1894 F2160
G1 X90.2400 Y112.2400 E0.3877
G1 X95.5120 Y112.2400 E0.5771
G1 X95.5120 Y117.7600 E0.7753
G92 E0.0000
G1 E-6 F2400 ; custom retraction
;zhop1
G1 X90.2400 Y116.2440 F6000
G1 X86.7370 Y115.2370
G1 Z4.400 F1200
G1 E0 F2400 ; custom un-retraction/prime
G92 E0.0000
G1 X86.2630 Y115.2370 E0.0171 F2160
G1 X86.2630 Y114.7630 E0.0341
G1 X86.7370 Y114.7630 E0.0512
G1 X86.7370 Y115.2370 E0.0682
G92 E0.0000
G1 E-6 F2400 ; custom retraction
;layer 23, Z = 4.600
;fan23;
G1 Z4.600 F1200
G1 X86.7060 Y115.2060 F6000
G1 E0 F2400 ; custom un-retraction/prime
G92 E0.0000
G1 X86.2940 Y115.2060 E0.0148 F2160
G1 X86.2940 Y114.7940 E0.0295
G1 X86.7060 Y114.7940 E0.0443
G1 X86.7060 Y115.2060 E0.0591
G92 E0.0000
G1 E-6 F2400 ; custom retraction
;zhop1
G1 X91.2000 Y116.8000 F6000
G1 Z4.600 F1200
G1 E0 F2400 ; custom un-retraction/prime
G92 E0.0000
G1 X91.2000 Y113.2000 E0.1293 F2880
G1 X94.6540 Y113.2000 E0.2534
G1 X94.6540 Y116.8000 E0.3827
G1 X91.2000 Y116.8000 E0.5067
G1 X90.7200 Y117.2800 F6000
G92 E0.0000
G1 X90.7200 Y112.7200 E0.1638 F2880
G1 X95.1340 Y112.7200 E0.3223
G1 X95.1340 Y117.2800 E0.4861
G1 X90.7200 Y117.2800 E0.6447
G1 X90.2400 Y117.7600 F6000
G92 E0.0000
G1 X90.2400 Y112.2400 E0.1983 F2160
G1 X95.6140 Y112.2400 E0.3913
G1 X95.6140 Y117.7600 E0.5896
G1 X90.2400 Y117.7600 E0.7826
G92 E0.0000
G1 E-6 F2400 ; custom retraction
;zhop1
G1 X95.6140 Y117.6400 F6000
G1 X132.3860 Y117.7600
G1 X132.3860 Y116.8210
G1 X133.3460 Y116.8000
G1 Z4.600 F1200
G1 E0 F2400 ; custom un-retraction/prime
G92 E0.0000
G1 X133.3460 Y113.2000 E0.1293 F2880
G1 X141.8000 Y113.2000 E0.4330
G1 X141.8000 Y116.8000 E0.5623
G1 X133.3460 Y116.8000 E0.8660
G1 X132.8660 Y117.2800 F6000
G92 E0.0000
G1 X132.8660 Y112.7200 E0.1638 F2880
G1 X142.2800 Y112.7200 E0.5019
G1 X142.2800 Y117.2800 E0.6657
G1 X132.8660 Y117.2800 E1.0039
G1 X132.3860 Y117.7600 F6000
G92 E0.0000
G1 X132.3860 Y112.2400 E0.1983 F2160
G1 X142.7600 Y112.2400 E0.5709
G1 X142.7600 Y117.7600 E0.7692
G1 X132.3860 Y117.7600 E1.1418
G1 X134.7610 Y113.5480 F6000
G92 E0.0000
G1 X137.6650 Y116.4520 E0.1844 F3600
G1 X141.4520 Y116.4520 E0.3544
G1 X141.4520 Y115.9960 E0.3749
G1 X139.0040 Y113.5480 E0.5304
G92 E0.0000
G1 E-6 F2400 ; custom retraction
;layer 24, Z = 4.800
;fan24;
G1 Z4.800 F1200
G1 X141.8000 Y113.2000 F6000
G1 E0 F2400 ; custom un-retraction/prime
G92 E0.0000
G1 X141.8000 Y116.8000 E0.1293 F2880
G1 X133.2390 Y116.8000 E0.4368
G1 X133.2390 Y113.2000 E0.5662
G1 X141.8000 Y113.2000 E0.8737
G1 X142.2800 Y112.7200 F6000
G92 E0.0000
G1 X142.2800 Y117.2800 E0.1638 F2880
G1 X132.7590 Y117.2800 E0.5058
G1 X132.7590 Y112.7200 E0.6696
G1 X142.2800 Y112.7200 E1.0116
G1 X142.7600 Y112.2400 F6000
G92 E0.0000
G1 X142.7600 Y117.7600 E0.1983 F2160
G1 X132.2790 Y117.7600 E0.5748
G1 X132.2790 Y112.2400 E0.7731
G1 X142.7600 Y112.2400 E1.1495
G1 X139.0040 Y116.4520 F6000
G92 E0.0000
G1 X141.4520 Y114.0040 E0.1555 F3600
G1 X141.4520 Y113.5480 E0.1759
G1 X137.6650 Y113.5480 E0.3460
G1 X134.7610 Y116.4520 E0.5304
G92 E0.0000
G1 E-6 F2400 ; custom retraction
;zhop1
G1 X94.7610 Y116.8000 F6000
G1 Z4.800 F1200
G1 E0 F2400 ; custom un-retraction/prime
G92 E0.0000
G1 X91.2000 Y116.8000 E0.1279 F2880
G1 X91.2000 Y113.2000 E0.2572
G1 X94.7610 Y113.2000 E0.3851
G1 X94.7610 Y116.8000 E0.5145
G1 X95.2410 Y117.2800 F6000
G92 E0.0000
G1 X90.7200 Y117.2800 E0.1624 F2880
G1 X90.7200 Y112.7200 E0.3262
G1 X95.2410 Y112.7200 E0.4886
G1 X95.2410 Y117.2800 E0.6524
G1 X95.7210 Y117.7600 F6000
G92 E0.0000
G1 X90.2400 Y117.7600 E0.1969 F2160
G1 X90.2400 Y112.2400 E0.3952
G1 X95.7210 Y112.2400 E0.5921
G1 X95.7210 Y117.7600 E0.7903
G92 E0.0000
G1 E-6 F2400 ; custom retraction
;zhop1
G1 X90.2400 Y116.1930 F6000
G1 X86.6740 Y115.1740
G1 Z4.800 F1200
G1 E0 F2400 ; custom un-retraction/prime
G92 E0.0000
G1 X86.3260 Y115.1740 E0.0125 F2160
G1 X86.3260 Y114.8260 E0.0250
G1 X86.6740 Y114.8260 E0.0375
G1 X86.6740 Y115.1740 E0.0500
G92 E0.0000
G1 E-6 F2400 ; custom retraction
;layer 25, Z = 5.000
;fan25;
G1 Z5.000 F1200
G1 X86.6420 Y115.1420 F6000
G1 E0 F2400 ; custom un-retraction/prime
G92 E0.0000
G1 X86.3580 Y115.1420 E0.0102 F2160
G1 X86.3580 Y114.8580 E0.0204
G1 X86.6420 Y114.8580 E0.0307
G1 X86.6420 Y115.1420 E0.0409
G92 E0.0000
G1 E-6 F2400 ; custom retraction
;zhop1
G1 X91.2000 Y116.8000 F6000
G1 Z5.000 F1200
G1 E0 F2400 ; custom un-retraction/prime
G92 E0.0000
G1 X91.2000 Y113.2000 E0.1293 F2880
G1 X94.8750 Y113.2000 E0.2613
G1 X94.8750 Y116.8000 E0.3906
G1 X91.2000 Y116.8000 E0.5226
G1 X90.7200 Y117.2800 F6000
G92 E0.0000
G1 X90.7200 Y112.7200 E0.1638 F2880
G1 X95.3550 Y112.7200 E0.3303
G1 X95.3550 Y117.2800 E0.4941
G1 X90.7200 Y117.2800 E0.6606
G1 X90.2400 Y117.7600 F6000
G92 E0.0000
G1 X90.2400 Y112.2400 E0.1983 F2160
G1 X95.8350 Y112.2400 E0.3993
G1 X95.8350 Y117.7600 E0.5975
G1 X90.2400 Y117.7600 E0.7985
G92 E0.0000
G1 E-6 F2400 ; custom retraction
;zhop1
G1 X95.8350 Y117.6350 F6000
G1 X132.1650 Y117.7600
G1 X132.1650 Y116.8210
G1 X133.1250 Y116.8000
G1 Z5.000 F1200
G1 E0 F2400 ; custom un-retraction/prime
G92 E0.0000
G1 X133.1250 Y113.2000 E0.1293 F2880
G1 X141.8000 Y113.2000 E0.4409
G1 X141.8000 Y116.8000 E0.5702
G1 X133.1250 Y116.8000 E0.8818
G1 X132.6450 Y117.2800 F6000
G92 E0.0000
G1 X132.6450 Y112.7200 E0.1638 F2880
G1 X142.2800 Y112.7200 E0.5099
G1 X142.2800 Y117.2800 E0.6737
G1 X132.6450 Y117.2800 E1.0198
G1 X132.1650 Y117.7600 F6000
G92 E0.0000
G1 X132.1650 Y112.2400 E0.1983 F2160
G1 X142.7600 Y112.2400 E0.5789
G1 X142.7600 Y117.7600 E0.7771
G1 X132.1650 Y117.7600 E1.1577
G1 X134.7610 Y113.5480 F6000
G92 E0.0000
G1 X137.6650 Y116.4520 E0.1844 F3600
G1 X141.4520 Y116.4520 E0.3544
G1 X141.4520 Y115.9960 E0.3749
G1 X139.0040 Y113.5480 E0.5304
G92 E0.0000
G1 E-6 F2400 ; custom retraction
;layer 26, Z = 5.200
;fan26;
G1 Z5.200 F1200
G1 X141.8000 Y113.2000 F6000
G1 E0 F2400 ; custom un-retraction/prime
G92 E0.0000
G1 X141.8000 Y116.8000 E0.1293 F2880
G1 X133.0010 Y116.8000 E0.4454
G1 X133.0010 Y113.2000 E0.5747
G1 X141.8000 Y113.2000 E0.8908
G1 X142.2800 Y112.7200 F6000
G92 E0.0000
G1 X142.2800 Y117.2800 E0.1638 F2880
G1 X132.5210 Y117.2800 E0.5144
G1 X132.5210 Y112.7200 E0.6782
G1 X142.2800 Y112.7200 E1.0287
G1 X142.7600 Y112.2400 F6000
G92 E0.0000
G1 X142.7600 Y117.7600 E0.1983 F2160
G1 X132.0410 Y117.7600 E0.5833
G1 X132.0410 Y112.2400 E0.7816
G1 X142.7600 Y112.2400 E1.1667
G1 X141.4520 Y114.0040 F6000
G92 E0.0000
G1 X139.0040 Y116.4520 E0.1555 F3600
G1 X134.7610 Y116.4520 E0.3460
G1 X137.6650 Y113.5480 E0.5304
G1 X133.4230 Y113.5480 E0.7209
G1 X133.3490 Y113.6220 E0.7256
G92 E0.0000
G1 E-6 F2400 ; custom retraction
;zhop1
G1 X94.9990 Y113.2000 F6000
G1 Z5.200 F1200
G1 E0 F2400 ; custom un-retraction/prime
G92 E0.0000
G1 X94.9990 Y116.8000 E0.1293 F2880
G1 X91.2000 Y116.8000 E0.2658
G1 X91.2000 Y113.2000 E0.3951
G1 X94.9990 Y113.2000 E0.5316
G1 X95.4790 Y112.7200 F6000
G92 E0.0000
G1 X95.4790 Y117.2800 E0.1638 F2880
G1 X90.7200 Y117.2800 E0.3348
G1 X90.7200 Y112.7200 E0.4986
G1 X95.4790 Y112.7200 E0.6695
G1 X95.9590 Y112.2400 F6000
G92 E0.0000
G1 X95.9590 Y117.7600 E0.1983 F2160
G1 X90.2400 Y117.7600 E0.4037
G1 X90.2400 Y112.2400 E0.6020
G1 X95.9590 Y112.2400 E0.8075
G92 E0.0000
G1 E-6 F2400 ; custom retraction
;zhop1
G1 X86.6110 Y114.8890 F6000
G1 Z5.200 F1200
G1 E0 F2400 ; custom un-retraction/prime
G92 E0.0000
G1 X86.6110 Y115.1110 E0.0079 F2160
G1 X86.3890 Y115.1110 E0.0159
G1 X86.3890 Y114.8890 E0.0238
G1 X86.6110 Y114.8890 E0.0318
G92 E0.0000
G1 E-6 F2400 ; custom retraction
;layer 27, Z = 5.400
;fan27;
G1 Z5.400 F1200
G1 X86.5790 Y114.9210 F6000
G1 E0 F2400 ; custom un-retraction/prime
G92 E0.0000
G1 X86.5790 Y115.0790 E0.0057 F2160
G1 X86.4210 Y115.0790 E0.0113
G1 X86.4210 Y114.9210 E0.0170
G1 X86.5790 Y114.9210 E0.0227
G92 E0.0000
G1 E-6 F2400 ; custom retraction
;zhop1
G1 X91.2000 Y113.2000 F6000
G1 Z5.400 F1200
G1 E0 F2400 ; custom un-retraction/prime
G92 E0.0000
G1 X95.1320 Y113.2000 E0.1412 F2880
G1 X95.1320 Y116.8000 E0.2706
G1 X91.2000 Y116.8000 E0.4118
G1 X91.2000 Y113.2000 E0.5411
G1 X90.7200 Y112.7200 F6000
G92 E0.0000
G1 X95.6120 Y112.7200 E0.1757 F2880
G1 X95.6120 Y117.2800 E0.3395
G1 X90.7200 Y117.2800 E0.5153
G1 X90.7200 Y112.7200 E0.6791
G1 X90.2400 Y112.2400 F6000
G92 E0.0000
G1 X96.0920 Y112.2400 E0.2102 F2160
G1 X96.0920 Y117.7600 E0.4085
G1 X90.2400 Y117.7600 E0.6187
G1 X90.2400 Y112.2400 E0.8170
G92 E0.0000
G1 E-6 F2400 ; custom retraction
;zhop1
G1 X96.0920 Y112.3720 F6000
G1 X131.9080 Y112.2400
G1 X131.9080 Y113.1780
G1 X132.8680 Y113.2000
G1 Z5.400 F1200
G1 E0 F2400 ; custom un-retraction/prime
G92 E0.0000
G1 X141.8000 Y113.2000 E0.3209 F2880
G1 X141.8000 Y116.8000 E0.4502
G1 X132.8680 Y116.8000 E0.7710
G1 X132.8680 Y113.2000 E0.9003
G1 X132.3880 Y112.7200 F6000
G92 E0.0000
G1 X142.2800 Y112.7200 E0.3553 F2880
G1 X142.2800 Y117.2800 E0.5191
G1 X132.3880 Y117.2800 E0.8745
G1 X132.3880 Y112.7200 E1.0383
G1 X131.9080 Y112.2400 F6000
G92 E0.0000
G1 X142.7600 Y112.2400 E0.3898 F2160
G1 X142.7600 Y117.7600 E0.5881
G1 X131.9080 Y117.7600 E0.9779
G1 X131.9080 Y112.2400 E1.1762
G1 X133.4230 Y116.4520 F6000
G92 E0.0000
G1 X133.2160 Y116.2450 E0.0131 F3600
G1 X133.2160 Y113.5480 E0.1342
G1 X134.7610 Y113.5480 E0.2036
G1 X137.6650 Y116.4520 E0.3880
G1 X141.4520 Y116.4520 E0.5581
G1 X141.4520 Y115.9960 E0.5785
G1 X139.0040 Y113.5480 E0.7340
G92 E0.0000
G1 E-6 F2400 ; custom retraction
;layer 28, Z = 5.600
;fan28;
G1 Z5.600 F1200
G1 X141.8000 Y113.2000 F6000
G1 E0 F2400 ; custom un-retraction/prime
G92 E0.0000
G1 X141.8000 Y116.8000 E0.1293 F2880
G1 X132.7270 Y116.8000 E0.4552
G1 X132.7270 Y113.2000 E0.5846
G1 X141.8000 Y113.2000 E0.9105
G1 X142.2800 Y112.7200 F6000
G92 E0.0000
G1 X142.2800 Y117.2800 E0.1638 F2880
G1 X132.2470 Y117.2800 E0.5242
G1 X132.2470 Y112.7200 E0.6880
G1 X142.2800 Y112.7200 E1.0484
G1 X142.7600 Y112.2400 F6000
G92 E0.0000
G1 X142.7600 Y117.7600 E0.1983 F2160
G1 X131.7670 Y117.7600 E0.5932
G1 X131.7670 Y112.2400 E0.7915
G1 X142.7600 Y112.2400 E1.1864
G1 X141.4520 Y114.0040 F6000
G92 E0.0000
G1 X139.0040 Y116.4520 E0.1555 F3600
G1 X134.7610 Y116.4520 E0.3460
G1 X137.6650 Y113.5480 E0.5304
G1 X133.4230 Y113.5480 E0.7209
G1 X133.0750 Y113.8960 E0.7430
G92 E0.0000
G1 E-6 F2400 ; custom retraction
;zhop1
G1 X95.2730 Y113.2000 F6000
G1 Z5.600 F1200
G1 E0 F2400 ; custom un-retraction/prime
G92 E0.0000
G1 X95.2730 Y116.8000 E0.1293 F2880
G1 X91.2000 Y116.8000 E0.2756
G1 X91.2000 Y113.2000 E0.4049
G1 X95.2730 Y113.2000 E0.5513
G1 X95.7530 Y112.7200 F6000
G92 E0.0000
G1 X95.7530 Y117.2800 E0.1638 F2880
G1 X90.7200 Y117.2800 E0.3446
G1 X90.7200 Y112.7200 E0.5084
G1 X95.7530 Y112.7200 E0.6892
G1 X96.2330 Y112.2400 F6000
G92 E0.0000
G1 X96.2330 Y117.7600 E0.1983 F2160
G1 X90.2400 Y117.7600 E0.4136
G1 X90.2400 Y112.2400 E0.6119
G1 X96.2330 Y112.2400 E0.8271
G92 E0.0000
G1 E-6 F2400 ; custom retraction
;zhop1
G1 X86.5470 Y114.9530 F6000
G1 Z5.600 F1200
G1 E0 F2400 ; custom un-retraction/prime
G92 E0.0000
G1 X86.5470 Y115.0470 E0.0034 F2160
G1 X86.4530 Y115.0470 E0.0068
G1 X86.4530 Y114.9530 E0.0102
G1 X86.5470 Y114.9530 E0.0136
G92 E0.0000
G1 E-6 F2400 ; custom retraction
;layer 29, Z = 5.800
;fan29;
G1 Z5.800 F1200
G1 X86.5160 Y114.9840 F6000
G1 E0 F2400 ; custom un-retraction/prime
G92 E0.0000
G1 X86.5160 Y115.0160 E0.0011 F2160
G1 X86.4840 Y115.0160 E0.0022
G1 X86.4840 Y114.9840 E0.0034
G1 X86.5160 Y114.9840 E0.0045
G92 E0.0000
G1 E-6 F2400 ; custom retraction
;zhop1
G1 X90.9130 Y114.6950 F6000
G1 Z5.800 F1200
G1 E0 F2400 ; custom un-retraction/prime
G92 E0.0000
G1 X91.2000 Y114.5300 E0.0119 F2880
G1 X91.2000 Y113.2000 E0.0597
G1 X95.4230 Y113.2000 E0.2114
G1 X95.4230 Y116.8000 E0.3407
G1 X91.2000 Y116.8000 E0.4924
G1 X91.2000 Y115.4700 E0.5402
G1 X90.9130 Y115.3050 E0.5521
G1 X90.9130 Y114.6950 E0.5740
G1 X90.7200 Y114.2520 F6000
G92 E0.0000
G1 X90.7200 Y112.7200 E0.0550 F2880
G1 X95.9030 Y112.7200 E0.2412
G1 X95.9030 Y117.2800 E0.4050
G1 X90.7200 Y117.2800 E0.5912
G1 X90.7200 Y115.7480 E0.6463
G1 X90.4330 Y115.5830 E0.6582
G1 X90.4330 Y114.4170 E0.7000
G1 X90.7200 Y114.2520 E0.7119
G1 X90.2400 Y113.9740 F6000
G92 E0.0000
G1 X90.2400 Y112.2400 E0.0623 F2160
G1 X96.3830 Y112.2400 E0.2830
G1 X96.3830 Y117.7600 E0.4813
G1 X90.2400 Y117.7600 E0.7019
G1 X90.2400 Y116.0260 E0.7642
G1 X89.9530 Y115.8610 E0.7761
G1 X89.9530 Y114.1390 E0.8380
G1 X90.2400 Y113.9740 E0.8499
G92 E0.0000
G1 E-6 F2400 ; custom retraction
;zhop1
G1 X132.5770 Y113.2000 F6000
G1 Z5.800 F1200
G1 E0 F2400 ; custom un-retraction/prime
G92 E0.0000
G1 X141.8000 Y113.2000 E0.3313 F2880
G1 X141.8000 Y116.8000 E0.4606
G1 X132.5770 Y116.8000 E0.7919
G1 X132.5770 Y113.2000 E0.9213
G1 X132.0970 Y112.7200 F6000
G92 E0.0000
G1 X142.2800 Y112.7200 E0.3658 F2880
G1 X142.2800 Y117.2800 E0.5296
G1 X132.0970 Y117.2800 E0.8954
G1 X132.0970 Y112.7200 E1.0592
G1 X131.6170 Y112.2400 F6000
G92 E0.0000
G1 X142.7600 Y112.2400 E0.4003 F2160
G1 X142.7600 Y117.7600 E0.5986
G1 X131.6170 Y117.7600 E0.9989
G1 X131.6170 Y112.2400 E1.1971
G1 X133.4230 Y116.4520 F6000
G92 E0.0000
G1 X132.9250 Y115.9540 E0.0316 F3600
G1 X132.9250 Y113.5480 E0.1397
G1 X134.7610 Y113.5480 E0.2221
G1 X137.6650 Y116.4520 E0.4065
G1 X141.4520 Y116.4520 E0.5766
G1 X141.4520 Y115.9960 E0.5970
G1 X139.0040 Y113.5480 E0.7525
G92 E0.0000
G1 E-6 F2400 ; custom retraction
;layer 30, Z = 6.000
;fan30;
G1 Z6.000 F1200
G1 X141.8000 Y113.2000 F6000
G1 E0 F2400 ; custom un-retraction/prime
G92 E0.0000
G1 X141.8000 Y116.8000 E0.1293 F2880
G1 X132.4130 Y116.8000 E0.4665
G1 X132.4130 Y113.2000 E0.5958
G1 X141.8000 Y113.2000 E0.9330
G1 X142.2800 Y112.7200 F6000
G92 E0.0000
G1 X142.2800 Y117.2800 E0.1638 F2880
G1 X131.9330 Y117.2800 E0.5355
G1 X131.9330 Y112.7200 E0.6993
G1 X142.2800 Y112.7200 E1.0710
G1 X142.7600 Y112.2400 F6000
G92 E0.0000
G1 X142.7600 Y117.7600 E0.1983 F2160
G1 X131.4530 Y117.7600 E0.6044
G1 X131.4530 Y112.2400 E0.8027
G1 X142.7600 Y112.2400 E1.2089
G1 X141.4520 Y114.0040 F6000
G92 E0.0000
G1 X139.0040 Y116.4520 E0.1555 F3600
G1 X134.7610 Y116.4520 E0.3460
G1 X137.6650 Y113.5480 E0.5304
G1 X133.4230 Y113.5480 E0.7209
G1 X132.7610 Y114.2100 E0.7629
G92 E0.0000
G1 E-6 F2400 ; custom retraction
;zhop1
G1 X95.5870 Y113.2000 F6000
G1 Z6.000 F1200
G1 E0 F2400 ; custom un-retraction/prime
G92 E0.0000
G1 X95.5870 Y116.8000 E0.1293 F2880
G1 X91.2000 Y116.8000 E0.2869
G1 X91.2000 Y115.6330 E0.3288
G1 X90.6270 Y115.3050 E0.3525
G1 X90.6270 Y114.6950 E0.3744
G1 X91.2000 Y114.3670 E0.3982
G1 X91.2000 Y113.2000 E0.4401
G1 X95.5870 Y113.2000 E0.5976
G1 X96.0670 Y112.7200 F6000
G92 E0.0000
G1 X96.0670 Y117.2800 E0.1638 F2880
G1 X90.7200 Y117.2800 E0.3559
G1 X90.7200 Y115.9110 E0.4050
G1 X90.1470 Y115.5830 E0.4288
G1 X90.1470 Y114.4170 E0.4706
G1 X90.7200 Y114.0890 E0.4943
G1 X90.7200 Y112.7200 E0.5435
G1 X96.0670 Y112.7200 E0.7356
G1 X96.5470 Y112.2400 F6000
G92 E0.0000
G1 X96.5470 Y117.7600 E0.1983 F2160
G1 X90.2400 Y117.7600 E0.4248
G1 X90.2400 Y116.1890 E0.4813
G1 X89.6670 Y115.8610 E0.5050
G1 X89.6670 Y114.1390 E0.5668
G1 X90.2400 Y113.8100 E0.5905
G1 X90.2400 Y112.2400 E0.6470
G1 X96.5470 Y112.2400 E0.8735
G92 E0.0000
G1 E-6 F2400 ; custom retraction
;layer 31, Z = 6.200
;fan31;
G1 Z6.200 F1200
G1 X95.7620 Y113.2000 F6000
G1 E0 F2400 ; custom un-retraction/prime
G92 E0.0000
G1 X95.7620 Y116.8000 E0.1293 F2880
G1 X91.2000 Y116.8000 E0.2932
G1 X91.2000 Y115.7970 E0.3292
G1 X90.3420 Y115.3050 E0.3648
G1 X90.3420 Y114.6950 E0.3867
G1 X91.2000 Y114.2030 E0.4222
G1 X91.2000 Y113.2000 E0.4582
G1 X95.7620 Y113.2000 E0.6221
G1 X96.2420 Y112.7200 F6000
G92 E0.0000
G1 X96.2420 Y117.2800 E0.1638 F2880
G1 X90.7200 Y117.2800 E0.3622
G1 X90.7200 Y116.0750 E0.4054
G1 X89.8620 Y115.5830 E0.4410
G1 X89.8620 Y114.4170 E0.4829
G1 X90.7200 Y113.9250 E0.5184
G1 X90.7200 Y112.7200 E0.5617
G1 X96.2420 Y112.7200 E0.7600
G1 X96.7220 Y112.2400 F6000
G92 E0.0000
G1 X96.7220 Y117.7600 E0.1983 F2160
G1 X90.2400 Y117.7600 E0.4311
G1 X90.2400 Y116.3530 E0.4817
G1 X89.3820 Y115.8610 E0.5172
G1 X89.3820 Y114.1390 E0.5791
G1 X90.2400 Y113.6470 E0.6146
G1 X90.2400 Y112.2400 E0.6651
G1 X96.7220 Y112.2400 E0.8980
G1 X95.4650 Y113.7940 F6000
G92 E0.0000
G1 X95.4740 Y113.8020 E0.0004 F2880
G1 X95.4740 Y114.4810 E0.0248
G1 X95.4650 Y114.4720 E0.0253
G1 X95.4650 Y115.1510 E0.0497
G1 X95.4740 Y115.1600 E0.0501
G1 X95.4740 Y115.8390 E0.0745
G1 X95.4650 Y115.8300 E0.0749
G1 X95.4690 Y116.5120 E0.0995
G1 X90.9310 Y114.6890 F6000
G92 E0.0000
G1 X91.0080 Y114.7670 E0.0039 F2880
G1 X91.0080 Y115.3550 E0.0251
G1 X90.7960 Y115.2330 E0.0339
G1 X90.6300 Y115.0670 E0.0423
G92 E0.0000
G1 E-6 F2400 ; custom retraction
;zhop1
G1 X96.7220 Y115.3210 F6000
G1 X96.7220 Y117.7600
G1 X131.2780 Y117.7600
G1 X131.2780 Y116.7600
G1 X132.2380 Y116.8000
G1 Z6.200 F1200
G1 E0 F2400 ; custom un-retraction/prime
G92 E0.0000
G1 X132.2380 Y113.2000 E0.1293 F2880
G1 X141.8000 Y113.2000 E0.4728
G1 X141.8000 Y116.8000 E0.6021
G1 X132.2380 Y116.8000 E0.9456
G1 X131.7580 Y117.2800 F6000
G92 E0.0000
G1 X131.7580 Y112.7200 E0.1638 F2880
G1 X142.2800 Y112.7200 E0.5418
G1 X142.2800 Y117.2800 E0.7056
G1 X131.7580 Y117.2800 E1.0835
G1 X131.2780 Y117.7600 F6000
G92 E0.0000
G1 X131.2780 Y112.2400 E0.1983 F2160
G1 X142.7600 Y112.2400 E0.6107
G1 X142.7600 Y117.7600 E0.8090
G1 X131.2780 Y117.7600 E1.2215
G1 X132.5350 Y116.2430 F6000
G92 E0.0000
G1 X132.5260 Y116.2340 E0.0004 F2880
G1 X132.5260 Y115.5550 E0.0248
G1 X132.5350 Y115.5640 E0.0253
G1 X132.5350 Y114.8850 E0.0497
G1 X132.5260 Y114.8770 E0.0501
G1 X132.5260 Y114.1980 E0.0745
G1 X132.5350 Y114.2060 E0.0749
G1 X132.5350 Y113.5280 E0.0993
G1 X132.5260 Y113.5190 E0.0998
G1 X133.4230 Y116.4520 F6000
G92 E0.0000
G1 X133.0750 Y116.1040 E0.0221 F3600
G1 X133.0750 Y113.5480 E0.1369
G1 X134.7610 Y113.5480 E0.2126
G1 X137.6650 Y116.4520 E0.3970
G1 X141.4520 Y116.4520 E0.5670
G1 X141.4520 Y115.9960 E0.5875
G1 X139.0040 Y113.5480 E0.7430
G92 E0.0000
G1 E-6 F2400 ; custom retraction
;layer 32, Z = 6.400
;fan32;
G1 Z6.400 F1200
G1 X141.8000 Y113.2000 F6000
G1 E0 F2400 ; custom un-retraction/prime
G92 E0.0000
G1 X141.8000 Y116.8000 E0.1293 F2880
G1 X132.0510 Y116.8000 E0.4795
G1 X132.0510 Y113.2000 E0.6088
G1 X141.8000 Y113.2000 E0.9590
G1 X142.2800 Y112.7200 F6000
G92 E0.0000
G1 X142.2800 Y117.2800 E0.1638 F2880
G1 X131.5710 Y117.2800 E0.5485
G1 X131.5710 Y112.7200 E0.7123
G1 X142.2800 Y112.7200 E1.0970
G1 X142.7600 Y112.2400 F6000
G92 E0.0000
G1 X142.7600 Y117.7600 E0.1983 F2160
G1 X131.0910 Y117.7600 E0.6175
G1 X131.0910 Y112.2400 E0.8157
G1 X142.7600 Y112.2400 E1.2349
G1 X132.3390 Y113.9530 F6000
G92 E0.0000
G1 X132.3850 Y113.9070 E0.0023 F2880
G1 X132.3850 Y114.5860 E0.0267
G1 X132.3390 Y114.6320 E0.0290
G1 X132.3390 Y115.3110 E0.0534
G1 X132.3850 Y115.2650 E0.0557
G1 X132.3850 Y115.9440 E0.0801
G1 X132.3390 Y115.9890 E0.0825
G1 X132.9250 Y114.0460 F6000
G92 E0.0000
G1 X133.4230 Y113.5480 E0.0316 F3600
G1 X137.6650 Y113.5480 E0.2221
G1 X134.7610 Y116.4520 E0.4065
G1 X139.0040 Y116.4520 E0.5970
G1 X141.4520 Y114.0040 E0.7525
G92 E0.0000
G1 E-6 F2400 ; custom retraction
;zhop1
G1 X95.9490 Y113.2000 F6000
G1 Z6.400 F1200
G1 E0 F2400 ; custom un-retraction/prime
G92 E0.0000
G1 X95.9490 Y116.8000 E0.1293 F2880
G1 X91.2000 Y116.8000 E0.2999
G1 X91.2000 Y115.9610 E0.3300
G1 X90.0560 Y115.3050 E0.3774
G1 X90.0560 Y114.6950 E0.3993
G1 X91.2000 Y114.0390 E0.4467
G1 X91.2000 Y113.2000 E0.4768
G1 X95.9490 Y113.2000 E0.6474
G1 X96.4290 Y112.7200 F6000
G92 E0.0000
G1 X96.4290 Y117.2800 E0.1638 F2880
G1 X90.7200 Y117.2800 E0.3689
G1 X90.7200 Y116.2390 E0.4063
G1 X89.5760 Y115.5830 E0.4536
G1 X89.5760 Y114.4170 E0.4955
G1 X90.7200 Y113.7610 E0.5429
G1 X90.7200 Y112.7200 E0.5803
G1 X96.4290 Y112.7200 E0.7854
G1 X96.9090 Y112.2400 F6000
G92 E0.0000
G1 X96.9090 Y117.7600 E0.1983 F2160
G1 X90.2400 Y117.7600 E0.4378
G1 X90.2400 Y116.5170 E0.4825
G1 X89.0960 Y115.8610 E0.5299
G1 X89.0960 Y114.1390 E0.5917
G1 X90.2400 Y113.4830 E0.6391
G1 X90.2400 Y112.2400 E0.6837
G1 X96.9090 Y112.2400 E0.9233
G1 X95.6150 Y114.0200 F6000
G92 E0.0000
G1 X95.6610 Y113.9740 E0.0023 F2880
G1 X95.6610 Y114.6530 E0.0267
G1 X95.6150 Y114.6990 E0.0290
G1 X95.6150 Y115.3780 E0.0534
G1 X95.6610 Y115.3320 E0.0557
G1 X95.6610 Y116.0110 E0.0801
G1 X95.6150 Y116.0560 E0.0825
G1 X90.7210 Y114.8420 F6000
G92 E0.0000
G1 X90.3950 Y115.1670 E0.0166 F2880
G92 E0.0000
G1 E-6 F2400 ; custom retraction
;layer 33, Z = 6.600
;fan33;
G1 Z6.600 F1200
G1 X89.7700 Y115.3050 F6000
G1 E0 F2400 ; custom un-retraction/prime
G92 E0.0000
G1 X89.7700 Y114.6950 E0.0219 F2880
G1 X91.2000 Y113.8750 E0.0811
G1 X91.2000 Y113.2000 E0.1054
G1 X96.1500 Y113.2000 E0.2832
G1 X96.1500 Y116.8000 E0.4125
G1 X91.2000 Y116.8000 E0.5903
G1 X91.2000 Y116.1250 E0.6146
G1 X89.7700 Y115.3050 E0.6738
G1 X89.2900 Y115.5830 F6000
G92 E0.0000
G1 X89.2900 Y114.4170 E0.0419 F2880
G1 X90.7200 Y113.5970 E0.1011
G1 X90.7200 Y112.7200 E0.1326
G1 X96.6300 Y112.7200 E0.3449
G1 X96.6300 Y117.2800 E0.5087
G1 X90.7200 Y117.2800 E0.7210
G1 X90.7200 Y116.4030 E0.7525
G1 X89.2900 Y115.5830 E0.8117
G1 X88.8100 Y115.8610 F6000
G92 E0.0000
G1 X88.8100 Y114.1390 E0.0619 F2160
G1 X90.2400 Y113.3190 E0.1211
G1 X90.2400 Y112.2400 E0.1598
G1 X97.1100 Y112.2400 E0.4066
G1 X97.1100 Y117.7600 E0.6049
G1 X90.2400 Y117.7600 E0.8517
G1 X90.2400 Y116.6810 E0.8904
G1 X88.8100 Y115.8610 E0.9496
G1 X90.2910 Y114.7290 F6000
G92 E0.0000
G1 X90.4350 Y114.8730 E0.0073 F2880
G1 X95.8390 Y113.4880 F6000
G92 E0.0000
G1 X95.8620 Y113.5120 E0.0012 F2880
G1 X95.8620 Y114.1900 E0.0256
G1 X95.7790 Y114.1070 E0.0298
G1 X95.7790 Y114.7860 E0.0542
G1 X95.8620 Y114.8690 E0.0584
G1 X95.8620 Y115.5480 E0.0828
G1 X95.7790 Y115.4650 E0.0870
G1 X95.7790 Y116.1440 E0.1114
G1 X95.8620 Y116.2270 E0.1156
G92 E0.0000
G1 E-6 F2400 ; custom retraction
;zhop1
G1 X131.8500 Y116.8000 F6000
G1 Z6.600 F1200
G1 E0 F2400 ; custom un-retraction/prime
G92 E0.0000
G1 X131.8500 Y113.2000 E0.1293 F2880
G1 X141.8000 Y113.2000 E0.4867
G1 X141.8000 Y116.8000 E0.6161
G1 X131.8500 Y116.8000 E0.9735
G1 X131.3700 Y117.2800 F6000
G92 E0.0000
G1 X131.3700 Y112.7200 E0.1638 F2880
G1 X142.2800 Y112.7200 E0.5557
G1 X142.2800 Y117.2800 E0.7195
G1 X131.3700 Y117.2800 E1.1114
G1 X130.8900 Y117.7600 F6000
G92 E0.0000
G1 X130.8900 Y112.2400 E0.1983 F2160
G1 X142.7600 Y112.2400 E0.6247
G1 X142.7600 Y117.7600 E0.8230
G1 X130.8900 Y117.7600 E1.2493
G1 X132.1380 Y115.8460 F6000
G92 E0.0000
G1 X132.2210 Y115.9290 E0.0042 F2880
G1 X132.2210 Y115.2500 E0.0286
G1 X132.1380 Y115.1670 E0.0328
G1 X132.1380 Y114.4880 E0.0572
G1 X132.2210 Y114.5710 E0.0614
G1 X132.2210 Y113.8930 E0.0858
G1 X132.1380 Y113.8100 E0.0900
G1 X133.4230 Y116.4520 F6000
G92 E0.0000
G1 X132.7610 Y115.7900 E0.0420 F3600
G1 X132.7610 Y113.5480 E0.1427
G1 X134.7610 Y113.5480 E0.2325
G1 X137.6650 Y116.4520 E0.4169
G1 X141.4520 Y116.4520 E0.5870
G1 X141.4520 Y115.9960 E0.6074
G1 X139.0040 Y113.5480 E0.7629
G92 E0.0000
G1 E-6 F2400 ; custom retraction
;layer 34, Z = 6.800
;fan34;
G1 Z6.800 F1200
G1 X141.8000 Y113.2000 F6000
G1 E0 F2400 ; custom un-retraction/prime
G92 E0.0000
G1 X141.8000 Y116.8000 E0.1293 F2880
G1 X131.6330 Y116.8000 E0.4945
G1 X131.6330 Y113.2000 E0.6238
G1 X141.8000 Y113.2000 E0.9890
G1 X142.2800 Y112.7200 F6000
G92 E0.0000
G1 X142.2800 Y117.2800 E0.1638 F2880
G1 X131.1530 Y117.2800 E0.5635
G1 X131.1530 Y112.7200 E0.7273
G1 X142.2800 Y112.7200 E1.1270
G1 X142.7600 Y112.2400 F6000
G92 E0.0000
G1 X142.7600 Y117.7600 E0.1983 F2160
G1 X130.6730 Y117.7600 E0.6325
G1 X130.6730 Y112.2400 E0.8307
G1 X142.7600 Y112.2400 E1.2649
G1 X131.9210 Y113.6920 F6000
G92 E0.0000
G1 X132.0460 Y113.5670 E0.0063 F2880
G1 X132.0460 Y114.2460 E0.0307
G1 X131.9210 Y114.3710 E0.0371
G1 X131.9210 Y115.0490 E0.0614
G1 X132.0460 Y114.9250 E0.0678
G1 X132.0460 Y115.6030 E0.0922
G1 X131.9210 Y115.7280 E0.0985
G1 X131.9210 Y116.4070 E0.1229
G1 X132.0460 Y116.2820 E0.1292
G1 X132.5860 Y114.3850 F6000
G92 E0.0000
G1 X133.4230 Y113.5480 E0.0531 F3600
G1 X137.6650 Y113.5480 E0.2436
G1 X134.7610 Y116.4520 E0.4280
G1 X139.0040 Y116.4520 E0.6185
G1 X141.4520 Y114.0040 E0.7740
G92 E0.0000
G1 E-6 F2400 ; custom retraction
;zhop1
G1 X96.3670 Y113.2000 F6000
G1 Z6.800 F1200
G1 E0 F2400 ; custom un-retraction/prime
G92 E0.0000
G1 X96.3670 Y116.8000 E0.1293 F2880
G1 X91.2000 Y116.8000 E0.3149
G1 X91.2000 Y116.2890 E0.3333
G1 X89.4850 Y115.3050 E0.4043
G1 X89.4850 Y114.6950 E0.4262
G1 X91.2000 Y113.7110 E0.4972
G1 X91.2000 Y113.2000 E0.5156
G1 X96.3670 Y113.2000 E0.7012
G1 X96.8470 Y112.7200 F6000
G92 E0.0000
G1 X96.8470 Y117.2800 E0.1638 F2880
G1 X90.7200 Y117.2800 E0.3839
G1 X90.7200 Y116.5670 E0.4095
G1 X89.0050 Y115.5830 E0.4805
G1 X89.0050 Y114.4170 E0.5224
G1 X90.7200 Y113.4330 E0.5934
G1 X90.7200 Y112.7200 E0.6191
G1 X96.8470 Y112.7200 E0.8391
G1 X97.3270 Y112.2400 F6000
G92 E0.0000
G1 X97.3270 Y117.7600 E0.1983 F2160
G1 X90.2400 Y117.7600 E0.4529
G1 X90.2400 Y116.8450 E0.4857
G1 X88.5250 Y115.8610 E0.5568
G1 X88.5250 Y114.1390 E0.6186
G1 X90.2400 Y113.1550 E0.6896
G1 X90.2400 Y112.2400 E0.7225
G1 X97.3270 Y112.2400 E0.9771
G1 X95.9540 Y113.6810 F6000
G92 E0.0000
G1 X96.0790 Y113.5560 E0.0063 F2880
G1 X96.0790 Y114.2350 E0.0307
G1 X95.9540 Y114.3600 E0.0371
G1 X95.9540 Y115.0390 E0.0614
G1 X96.0790 Y114.9140 E0.0678
G1 X96.0790 Y115.5930 E0.0922
G1 X95.9540 Y115.7180 E0.0985
G1 X95.9540 Y116.3970 E0.1229
G1 X96.0790 Y116.2720 E0.1292
G1 X90.1500 Y114.7340 F6000
G92 E0.0000
G1 X89.7730 Y115.1110 E0.0191 F2880
G92 E0.0000
G1 E-6 F2400 ; custom retraction
;layer 35, Z = 7.000
;fan35;
G1 Z7.000 F1200
G1 X89.1990 Y115.3050 F6000
G1 E0 F2400 ; custom un-retraction/prime
G92 E0.0000
G1 X89.1990 Y114.6950 E0.0219 F2880
G1 X91.2000 Y113.5470 E0.1048
G1 X91.2000 Y113.2000 E0.1172
G1 X96.6020 Y113.2000 E0.3113
G1 X96.6020 Y116.8000 E0.4406
G1 X91.2000 Y116.8000 E0.6346
G1 X91.2000 Y116.4530 E0.6471
G1 X89.1990 Y115.3050 E0.7300
G1 X88.7190 Y115.5830 F6000
G92 E0.0000
G1 X88.7190 Y114.4170 E0.0419 F2880
G1 X90.7200 Y113.2690 E0.1247
G1 X90.7200 Y112.7200 E0.1445
G1 X97.0820 Y112.7200 E0.3730
G1 X97.0820 Y117.2800 E0.5368
G1 X90.7200 Y117.2800 E0.7653
G1 X90.7200 Y116.7310 E0.7850
G1 X88.7190 Y115.5830 E0.8679
G1 X88.2390 Y115.8610 F6000
G92 E0.0000
G1 X88.2390 Y114.1390 E0.0619 F2160
G1 X90.2400 Y112.9910 E0.1447
G1 X90.2400 Y112.2400 E0.1717
G1 X97.5620 Y112.2400 E0.4347
G1 X97.5620 Y117.7600 E0.6330
G1 X90.2400 Y117.7600 E0.8960
G1 X90.2400 Y117.0090 E0.9230
G1 X88.2390 Y115.8610 E1.0058
G1 X89.6510 Y114.7680 F6000
G92 E0.0000
G1 X89.8640 Y114.9800 E0.0108 F2880
G1 X96.1410 Y113.7910 F6000
G92 E0.0000
G1 X96.3140 Y113.9630 E0.0088 F2880
G1 X96.3140 Y114.6420 E0.0331
G1 X96.1410 Y114.4690 E0.0419
G1 X96.1410 Y115.1480 E0.0663
G1 X96.3140 Y115.3210 E0.0751
G1 X96.3140 Y116.0000 E0.0994
G1 X96.1410 Y115.8270 E0.1082
G1 X96.1410 Y116.5060 E0.1326
G1 X96.1470 Y116.5120 E0.1329
G92 E0.0000
G1 E-6 F2400 ; custom retraction
;zhop1
G1 X131.3980 Y116.8000 F6000
G1 Z7.000 F1200
G1 E0 F2400 ; custom un-retraction/prime
G92 E0.0000
G1 X131.3980 Y113.2000 E0.1293 F2880
G1 X141.8000 Y113.2000 E0.5030
G1 X141.8000 Y116.8000 E0.6323
G1 X131.3980 Y116.8000 E1.0059
G1 X130.9180 Y117.2800 F6000
G92 E0.0000
G1 X130.9180 Y112.7200 E0.1638 F2880
G1 X142.2800 Y112.7200 E0.5719
G1 X142.2800 Y117.2800 E0.7357
G1 X130.9180 Y117.2800 E1.1438
G1 X130.4380 Y117.7600 F6000
G92 E0.0000
G1 X130.4380 Y112.2400 E0.1983 F2160
G1 X142.7600 Y112.2400 E0.6409
G1 X142.7600 Y117.7600 E0.8392
G1 X130.4380 Y117.7600 E1.2818
G1 X131.8590 Y116.2460 F6000
G92 E0.0000
G1 X131.6860 Y116.0730 E0.0088 F2880
G1 X131.6860 Y115.3950 E0.0331
G1 X131.8590 Y115.5670 E0.0419
G1 X131.8590 Y114.8880 E0.0663
G1 X131.6860 Y114.7160 E0.0750
G1 X131.6860 Y114.0370 E0.0994
G1 X131.8590 Y114.2090 E0.1082
G1 X131.8590 Y113.5310 E0.1326
G1 X131.8160 Y113.4880 E0.1347
G1 X133.4230 Y116.4520 F6000
G92 E0.0000
G1 X132.3990 Y115.4280 E0.0650 F3600
G1 X132.3990 Y113.5480 E0.1494
G1 X134.7610 Y113.5480 E0.2555
G1 X137.6650 Y116.4520 E0.4399
G1 X141.4520 Y116.4520 E0.6099
G1 X141.4520 Y115.9960 E0.6304
G1 X139.0040 Y113.5480 E0.7859
G92 E0.0000
G1 E-6 F2400 ; custom retraction
;layer 36, Z = 7.200
;fan36;
G1 Z7.200 F1200
G1 X141.8000 Y113.2000 F6000
G1 E0 F2400 ; custom un-retraction/prime
G92 E0.0000
G1 X141.8000 Y116.8000 E0.1293 F2880
G1 X131.1420 Y116.8000 E0.5122
G1 X131.1420 Y113.2000 E0.6415
G1 X141.8000 Y113.2000 E1.0243
G1 X142.2800 Y112.7200 F6000
G92 E0.0000
G1 X142.2800 Y117.2800 E0.1638 F2880
G1 X130.6620 Y117.2800 E0.5811
G1 X130.6620 Y112.7200 E0.7449
G1 X142.2800 Y112.7200 E1.1622
G1 X142.7600 Y112.2400 F6000
G92 E0.0000
G1 X142.7600 Y117.7600 E0.1983 F2160
G1 X130.1820 Y117.7600 E0.6501
G1 X130.1820 Y112.2400 E0.8484
G1 X142.7600 Y112.2400 E1.3002
G1 X131.4300 Y113.5040 F6000
G92 E0.0000
G1 X131.4460 Y113.4880 E0.0008 F2880
G1 X131.6580 Y113.4880 E0.0084
G1 X131.6580 Y113.9550 E0.0252
G1 X131.4300 Y114.1830 E0.0367
G1 X131.4300 Y114.8610 E0.0611
G1 X131.6580 Y114.6340 E0.0727
G1 X131.6580 Y115.3130 E0.0971
G1 X131.4300 Y115.5400 E0.1086
G1 X131.4300 Y116.2190 E0.1330
G1 X131.6580 Y115.9920 E0.1446
G1 X132.1980 Y114.7730 F6000
G92 E0.0000
G1 X133.4230 Y113.5480 E0.0778 F3600
G1 X137.6650 Y113.5480 E0.2683
G1 X134.7610 Y116.4520 E0.4527
G1 X139.0040 Y116.4520 E0.6432
G1 X141.4520 Y114.0040 E0.7986
G92 E0.0000
G1 E-6 F2400 ; custom retraction
;zhop1
G1 X96.8580 Y113.2000 F6000
G1 Z7.200 F1200
G1 E0 F2400 ; custom un-retraction/prime
G92 E0.0000
G1 X96.8580 Y116.8000 E0.1293 F2880
G1 X91.2000 Y116.8000 E0.3325
G1 X91.2000 Y116.6160 E0.3391
G1 X88.9130 Y115.3050 E0.4338
G1 X88.9130 Y114.6950 E0.4557
G1 X91.2000 Y113.3840 E0.5504
G1 X91.2000 Y113.2000 E0.5570
G1 X96.8580 Y113.2000 E0.7602
G1 X97.3380 Y112.7200 F6000
G92 E0.0000
G1 X97.3380 Y117.2800 E0.1638 F2880
G1 X90.7200 Y117.2800 E0.4015
G1 X90.7200 Y116.8940 E0.4154
G1 X88.4330 Y115.5830 E0.5100
G1 X88.4330 Y114.4170 E0.5519
G1 X90.7200 Y113.1060 E0.6466
G1 X90.7200 Y112.7200 E0.6605
G1 X97.3380 Y112.7200 E0.8982
G1 X97.8180 Y112.2400 F6000
G92 E0.0000
G1 X97.8180 Y117.7600 E0.1983 F2160
G1 X90.2400 Y117.7600 E0.4705
G1 X90.2400 Y117.1720 E0.4916
G1 X87.9530 Y115.8610 E0.5863
G1 X87.9530 Y114.1390 E0.6481
G1 X90.2400 Y112.8280 E0.7428
G1 X90.2400 Y112.2400 E0.7639
G1 X97.8180 Y112.2400 E1.0361
G1 X96.3420 Y113.9720 F6000
G92 E0.0000
G1 X96.5700 Y113.7440 E0.0116 F2880
G1 X96.5700 Y114.4230 E0.0359
G1 X96.3420 Y114.6510 E0.0475
G1 X96.3420 Y115.3300 E0.0719
G1 X96.5700 Y115.1020 E0.0834
G1 X96.5700 Y115.7810 E0.1078
G1 X96.3420 Y116.0080 E0.1194
G1 X96.3420 Y116.5120 E0.1375
G1 X96.5170 Y116.5120 E0.1438
G1 X96.5700 Y116.4600 E0.1464
G1 X89.5470 Y115.3360 F6000
G92 E0.0000
G1 X89.5780 Y115.3050 E0.0016 F2880
G1 X89.5780 Y114.6460 E0.0253
G1 X89.5330 Y114.6720 E0.0271
G1 X89.2010 Y115.0030 E0.0440
G1 X90.1180 Y114.4260 F6000
G92 E0.0000
G1 X90.1670 Y114.3770 E0.0031 F3600
G1 X91.5480 Y113.5850 E0.0746
G1 X91.5480 Y113.5480 E0.0762
G1 X95.2390 Y113.5480 E0.2420
G1 X92.3350 Y116.4520 E0.4264
G92 E0.0000
G1 E-6 F2400 ; custom retraction
;layer 37, Z = 7.400
;fan37;
G1 Z7.400 F1200
G1 X91.2340 Y116.8000 F6000
G1 E0 F2400 ; custom un-retraction/prime
G92 E0.0000
G1 X88.6280 Y115.3050 E0.1079 F2880
G1 X88.6280 Y114.6950 E0.1298
G1 X91.2340 Y113.2000 E0.2378
G1 X97.1390 Y113.2000 E0.4499
G1 X97.1390 Y116.8000 E0.5792
G1 X91.2340 Y116.8000 E0.7913
G1 X90.7200 Y117.0580 F6000
G92 E0.0000
G1 X88.1480 Y115.5830 E0.1065 F2880
G1 X88.1480 Y114.4170 E0.1484
G1 X90.7200 Y112.9420 E0.2549
G1 X90.7200 Y112.7200 E0.2629
G1 X97.6190 Y112.7200 E0.5107
