;FLAVOR:Marlin
;TIME:2878
;Filament used: 2.75452m
;Layer height: 0.2
;MINX:84.231
;MINY:101.248
;MINZ:0.3
;MAXX:136.6
;MAXY:118.752
;MAXZ:58.9
;POSTPROCESSED
;Generated with Cura_SteamEngine 4.13.1
M140 S60
M105
M190 S60
M104 S230
M105
M109 S230
M82 ;absolute extrusion mode
; Aquila X2 Custom Start G-code
G92 E0 ; Reset Extruder
G28 ; Home all axes
G1 Z2.0 F3000 ; Move Z Axis up little to prevent scratching of Heat Bed
G1 X0.1 Y20 Z0.3 F5000.0 ; Move to start position
G1 X0.1 Y200.0 Z0.3 F1500.0 E15 ; Draw the first line
G1 X0.4 Y200.0 Z0.3 F5000.0 ; Move to side a little
G1 X0.4 Y20 Z0.3 F1500.0 E30 ; Draw the second line
G92 E0 ; Reset Extruder
G1 Z2.0 F3000 ; Move Z Axis up little to prevent scratching of Heat Bed
G1 X5 Y20 Z0.3 F5000.0 ; Move over to prevent blob squish
G92 E0
G92 E0
G1 F2400 E-5
;LAYER_COUNT:294
;LAYER:0
M107
G0 F3600 X85.583 Y102.199 Z0.3
;TYPE:SKIRT
G1 F2400 E0
G1 F1800 X86.029 Y101.875 E0.0275
G1 X86.517 Y101.62 E0.05497
G1 X87.05 Y101.429 E0.08322
G1 X87.586 Y101.299 E0.11074
G1 X88.209 Y101.248 E0.14192
G1 X132.689 Y101.248 E2.36104
G1 X133.239 Y101.288 E2.38855
G1 X133.777 Y101.407 E2.41604
G1 X134.292 Y101.603 E2.44353
G1 X134.773 Y101.871 E2.471
G1 X135.211 Y102.205 E2.49848
G1 X135.758 Y102.807 E2.53906
G1 X135.869 Y102.959 E2.54845
G1 X136.161 Y103.426 E2.57593
G1 X136.382 Y103.931 E2.60343
G1 X136.528 Y104.462 E2.63091
G1 X136.6 Y105.2 E2.6679
G1 X136.6 Y114.8 E3.14685
G1 X136.56 Y115.35 E3.17436
G1 X136.441 Y115.888 E3.20185
G1 X136.245 Y116.403 E3.22934
G1 X135.869 Y117.041 E3.26629
G1 X135.758 Y117.193 E3.27568
G1 X135.401 Y117.613 E3.30318
G1 X134.988 Y117.978 E3.33068
G1 X134.526 Y118.278 E3.35816
G1 X134.026 Y118.509 E3.38564
G1 X133.498 Y118.665 E3.4131
G1 X132.689 Y118.752 E3.4537
G1 X88.205 Y118.751 E5.67301
G1 X87.655 Y118.711 E5.70053
G1 X87.022 Y118.562 E5.73297
G1 X86.848 Y118.505 E5.7421
G1 X86.338 Y118.296 E5.7696
G1 X85.864 Y118.016 E5.79707
G1 X85.435 Y117.669 E5.8246
G1 X85.061 Y117.265 E5.85206
G1 X84.75 Y116.81 E5.87956
G1 X84.507 Y116.316 E5.90702
G1 X84.338 Y115.791 E5.93454
G1 X84.247 Y115.248 E5.96201
G1 X84.231 Y114.894 E5.97969
G1 X84.231 Y105.105 E6.46806
G1 X84.271 Y104.555 E6.49558
G1 X84.39 Y104.017 E6.52306
G1 X84.586 Y103.502 E6.55056
G1 X84.854 Y103.021 E6.57803
G1 X85.188 Y102.583 E6.60551
G1 X85.583 Y102.199 E6.63299
G0 F3600 X85.973 Y102.399
G1 F1800 X86.411 Y102.116 E6.65901
G1 X86.994 Y101.867 E6.69064
G1 X87.172 Y101.81 E6.69996
G1 X87.679 Y101.69 E6.72595
G1 X88.209 Y101.648 E6.75248
G1 X132.689 Y101.648 E8.97159
G1 X133.209 Y101.688 E8.99761
G1 X133.716 Y101.807 E9.0236
G1 X134.199 Y102.002 E9.04958
G1 X134.647 Y102.268 E9.07558
G1 X135.049 Y102.6 E9.10159
G1 X135.435 Y103.043 E9.1309
G1 X135.546 Y103.195 E9.14029
G1 X135.82 Y103.638 E9.16628
G1 X136.023 Y104.118 E9.19228
G1 X136.151 Y104.623 E9.21827
G1 X136.2 Y105.2 E9.24716
G1 X136.2 Y114.8 E9.72611
G1 X136.16 Y115.32 E9.75213
G1 X136.041 Y115.827 E9.77811
G1 X135.846 Y116.31 E9.8041
G1 X135.546 Y116.805 E9.83297
G1 X135.435 Y116.957 E9.84236
G1 X135.096 Y117.353 E9.86837
G1 X134.701 Y117.693 E9.89437
G1 X134.258 Y117.968 E9.92038
G1 X133.779 Y118.173 E9.94638
G1 X133.274 Y118.301 E9.97237
G1 X132.689 Y118.352 E10.00167
G1 X88.205 Y118.351 E12.22098
G1 X87.685 Y118.311 E12.247
G1 X87.147 Y118.182 E12.2746
G1 X86.973 Y118.125 E12.28374
G1 X86.491 Y117.925 E12.30977
G1 X86.046 Y117.654 E12.33577
G1 X85.647 Y117.319 E12.36176
G1 X85.305 Y116.926 E12.38775
G1 X85.026 Y116.485 E12.41379
G1 X84.818 Y116.007 E12.43979
G1 X84.686 Y115.503 E12.46579
G1 X84.631 Y114.894 E12.49629
G1 X84.631 Y105.105 E12.98467
G1 X84.671 Y104.585 E13.01069
G1 X84.79 Y104.078 E13.03667
G1 X84.985 Y103.595 E13.06266
G1 X85.251 Y103.147 E13.08865
G1 X85.583 Y102.745 E13.11466
G1 X85.973 Y102.399 E13.14067
G0 F3600 X85.977 Y102.918
G1 F1800 X86.36 Y102.613 E13.1651
G1 X86.788 Y102.375 E13.18953
G1 X87.294 Y102.191 E13.21639
G1 X87.771 Y102.08 E13.24083
G1 X88.209 Y102.048 E13.26274
G1 X132.689 Y102.048 E15.48185
G1 X133.177 Y102.088 E15.50628
G1 X133.652 Y102.207 E15.53071
G1 X134.101 Y102.401 E15.55511
G1 X134.513 Y102.666 E15.57955
G1 X134.876 Y102.994 E15.60396
G1 X135.223 Y103.431 E15.6318
G1 X135.478 Y103.848 E15.65619
G1 X135.662 Y104.302 E15.68062
G1 X135.77 Y104.779 E15.70502
G1 X135.8 Y105.2 E15.72608
G1 X135.8 Y114.8 E16.20503
G1 X135.76 Y115.288 E16.22946
G1 X135.641 Y115.763 E16.25389
G1 X135.447 Y116.212 E16.27829
G1 X135.112 Y116.721 E16.30869
G1 X134.792 Y117.092 E16.33313
G1 X134.416 Y117.405 E16.35754
G1 X133.994 Y117.653 E16.38196
G1 X133.537 Y117.83 E16.40641
G1 X133.058 Y117.929 E16.43081
G1 X132.689 Y117.952 E16.44926
G1 X88.205 Y117.951 E18.66857
G1 X87.717 Y117.911 E18.693
G1 X87.097 Y117.745 E18.72502
G1 X86.646 Y117.555 E18.74944
G1 X86.232 Y117.294 E18.77386
G1 X85.865 Y116.97 E18.79828
G1 X85.556 Y116.59 E18.82271
G1 X85.314 Y116.165 E18.84711
G1 X85.143 Y115.706 E18.87155
G1 X85.049 Y115.226 E18.89595
G1 X85.031 Y114.894 E18.91254
G1 X85.031 Y105.105 E19.40092
G1 X85.071 Y104.617 E19.42534
G1 X85.19 Y104.142 E19.44977
G1 X85.384 Y103.693 E19.47418
G1 X85.649 Y103.281 E19.49862
G1 X85.977 Y102.918 E19.52302
G0 F3600 X86.369 Y103.105
G1 F1800 X86.744 Y102.846 E19.54576
G1 X87.238 Y102.629 E19.57268
G1 X87.861 Y102.471 E19.60475
G1 X88.209 Y102.448 E19.62215
G1 X132.689 Y102.448 E21.84126
G1 X133.143 Y102.488 E21.864
G1 X133.583 Y102.606 E21.88673
G1 X133.995 Y102.8 E21.90945
G1 X134.368 Y103.063 E21.93222
G1 X134.789 Y103.515 E21.96303
G1 X135.135 Y104.057 E21.99511
G1 X135.299 Y104.482 E22.01784
G1 X135.4 Y105.2 E22.05402
G1 X135.4 Y114.8 E22.53296
G1 X135.36 Y115.254 E22.5557
G1 X135.242 Y115.694 E22.57843
G1 X134.9 Y116.333 E22.61459
G1 X134.489 Y116.828 E22.64668
G1 X134.134 Y117.114 E22.66943
G1 X133.734 Y117.333 E22.69218
G1 X133.302 Y117.479 E22.71493
G1 X132.689 Y117.552 E22.74573
G1 X88.205 Y117.551 E24.96504
G1 X87.751 Y117.511 E24.98778
G1 X87.222 Y117.365 E25.01516
G1 X86.803 Y117.186 E25.03789
G1 X86.422 Y116.936 E25.06063
G1 X86.09 Y116.624 E25.08336
G1 X85.818 Y116.258 E25.10611
G1 X85.613 Y115.851 E25.12884
G1 X85.484 Y115.414 E25.15157
G1 X85.431 Y114.894 E25.17765
G1 X85.431 Y105.105 E25.66603
G1 X85.471 Y104.651 E25.68876
G1 X85.589 Y104.211 E25.71149
G1 X85.783 Y103.799 E25.73421
G1 X86.046 Y103.426 E25.75698
G1 X86.369 Y103.105 E25.7797
G0 F3600 X86.758 Y103.311
G1 F1800 X87.36 Y103.01 E25.81328
G1 X87.948 Y102.864 E25.84351
G1 X88.209 Y102.848 E25.85655
G1 X132.689 Y102.848 E28.07567
G1 X133.106 Y102.888 E28.09657
G1 X133.508 Y103.006 E28.11747
G1 X133.88 Y103.199 E28.13838
G1 X134.209 Y103.458 E28.15927
G1 X134.577 Y103.903 E28.18808
G1 X134.79 Y104.263 E28.20894
G1 X134.932 Y104.657 E28.22984
G1 X135 Y105.2 E28.25714
G1 X135 Y114.8 E28.73609
G1 X134.96 Y115.217 E28.75699
G1 X134.842 Y115.619 E28.77789
G1 X134.577 Y116.097 E28.80516
G1 X134.187 Y116.563 E28.83547
G1 X133.855 Y116.818 E28.85636
G1 X133.48 Y117.005 E28.87726
G1 X133.076 Y117.118 E28.89819
G1 X132.689 Y117.152 E28.91757
G1 X88.205 Y117.151 E31.13689
G1 X87.788 Y117.111 E31.15779
G1 X87.346 Y116.985 E31.18072
G1 X86.962 Y116.817 E31.20163
G1 X86.617 Y116.579 E31.22254
G1 X86.323 Y116.281 E31.24343
G1 X86.091 Y115.932 E31.26433
G1 X85.93 Y115.545 E31.28525
G1 X85.831 Y114.894 E31.3181
G1 X85.831 Y105.105 E31.80647
G1 X85.871 Y104.688 E31.82737
G1 X85.989 Y104.286 E31.84828
G1 X86.182 Y103.914 E31.86918
G1 X86.441 Y103.585 E31.89007
G1 X86.758 Y103.311 E31.91098
G0 F3600 X86.834 Y103.76
G1 F1800 X87.143 Y103.54 E31.9299
G1 X87.66 Y103.334 E31.95767
G1 X88.209 Y103.248 E31.98539
G1 X132.689 Y103.248 E34.20451
G1 X133.066 Y103.288 E34.22342
G1 X133.426 Y103.406 E34.24232
G1 X133.753 Y103.596 E34.26119
G1 X134.143 Y103.986 E34.28871
G1 X134.444 Y104.466 E34.31697
G1 X134.561 Y104.827 E34.33591
G1 X134.6 Y105.2 E34.35462
G1 X134.6 Y114.8 E34.83356
G1 X134.56 Y115.177 E34.85248
G1 X134.442 Y115.537 E34.87138
G1 X134.143 Y116.014 E34.89946
G1 X133.888 Y116.294 E34.91836
G1 X133.581 Y116.516 E34.93726
G1 X133.233 Y116.668 E34.9562
G1 X132.689 Y116.752 E34.98367
G1 X88.205 Y116.751 E37.20298
G1 X87.645 Y116.662 E37.23127
G1 X87.125 Y116.449 E37.25931
G1 X86.819 Y116.225 E37.27823
G1 X86.568 Y115.942 E37.2971
G1 X86.381 Y115.612 E37.31602
G1 X86.267 Y115.251 E37.33491
G1 X86.231 Y114.894 E37.35281
G1 X86.231 Y105.105 E37.84118
G1 X86.271 Y104.728 E37.8601
G1 X86.389 Y104.368 E37.879
G1 X86.579 Y104.041 E37.89787
G1 X86.834 Y103.76 E37.9168
G0 F3600 X87.224 Y103.961
G1 F1800 X87.782 Y103.715 E37.94722
G1 X88.209 Y103.648 E37.96879
G1 X132.689 Y103.648 E40.1879
G1 X133.021 Y103.688 E40.20459
G1 X133.333 Y103.805 E40.22121
G1 X133.61 Y103.993 E40.23791
G1 X133.931 Y104.374 E40.26277
G1 X134.094 Y104.666 E40.27945
G1 X134.184 Y104.988 E40.29613
G1 X134.2 Y105.2 E40.30674
G1 X134.2 Y114.8 E40.78568
G1 X134.16 Y115.132 E40.80237
G1 X134.043 Y115.444 E40.81899
G1 X133.82 Y115.778 E40.83903
G1 X133.592 Y116.022 E40.85569
G1 X133.313 Y116.205 E40.87233
G1 X132.998 Y116.317 E40.88901
G1 X132.689 Y116.352 E40.90453
G1 X88.205 Y116.351 E43.12384
G1 X87.595 Y116.224 E43.15493
G1 X87.292 Y116.083 E43.1716
G1 X87.032 Y115.874 E43.18825
G1 X86.828 Y115.61 E43.20489
G1 X86.692 Y115.304 E43.2216
G1 X86.631 Y114.894 E43.24228
G1 X86.631 Y105.105 E43.73065
G1 X86.671 Y104.773 E43.74734
G1 X86.788 Y104.461 E43.76396
G1 X86.976 Y104.184 E43.78066
G1 X87.224 Y103.961 E43.7973
G0 F3600 X87.37 Y104.354
G1 F1800 X87.726 Y104.153 E43.8177
G1 X88.209 Y104.048 E43.84236
G1 X132.689 Y104.048 E46.06147
G1 X132.968 Y104.088 E46.07554
G1 X133.225 Y104.204 E46.0896
G1 X133.608 Y104.61 E46.11745
G1 X133.74 Y104.859 E46.13151
G1 X133.8 Y105.2 E46.14878
G1 X133.8 Y114.8 E46.62773
G1 X133.76 Y115.079 E46.64179
G1 X133.497 Y115.542 E46.66836
G1 X133.3 Y115.744 E46.68243
G1 X133.054 Y115.883 E46.69653
G1 X132.689 Y115.952 E46.71506
G1 X88.205 Y115.951 E48.93438
G1 X87.72 Y115.844 E48.95916
G1 X87.467 Y115.72 E48.97321
G1 X87.259 Y115.529 E48.9873
G1 X87.112 Y115.288 E49.00139
G1 X87.031 Y114.894 E49.02145
G1 X87.031 Y105.105 E49.50983
G1 X87.071 Y104.826 E49.52389
G1 X87.187 Y104.569 E49.53796
G1 X87.37 Y104.354 E49.55204
G0 F3600 X87.584 Y104.704
G1 F1800 X87.848 Y104.534 E49.56771
G1 X88.209 Y104.448 E49.58622
G1 X132.689 Y104.448 E51.80534
G1 X132.904 Y104.488 E51.81625
G1 X133.174 Y104.694 E51.83319
G1 X133.379 Y105.043 E51.85339
G1 X133.4 Y105.2 E51.86129
G1 X133.4 Y114.8 E52.34024
G1 X133.36 Y115.015 E52.35115
G1 X133.174 Y115.306 E52.36838
G1 X133.015 Y115.456 E52.37928
G1 X132.689 Y115.552 E52.39624
G1 X88.205 Y115.551 E54.61555
G1 X87.844 Y115.464 E54.63408
G1 X87.653 Y115.36 E54.64493
G1 X87.511 Y115.194 E54.65583
G1 X87.431 Y114.894 E54.67132
G1 X87.431 Y105.105 E55.15969
G1 X87.471 Y104.89 E55.1706
G1 X87.584 Y104.704 E55.18146
G0 F3600 X87.87 Y104.986
G1 F1800 X88.148 Y104.858 E55.19673
G1 X88.209 Y104.848 E55.19981
G1 X132.689 Y104.848 E57.41893
G1 X132.851 Y104.93 E57.42799
G1 X133 Y105.2 E57.44337
G1 X133 Y114.8 E57.92232
G1 X132.851 Y115.07 E57.9377
G1 X132.689 Y115.152 E57.94676
G1 X88.205 Y115.151 E60.16608
G1 X87.969 Y115.084 E60.17832
G1 X87.868 Y115.01 E60.18457
G1 X87.831 Y114.894 E60.19064
G1 X87.831 Y105.105 E60.67901
G1 X87.87 Y104.986 E60.68526
G1 F2400 E55.68526
;MESH:PLA+TempTower
G0 F3600 X88.645 Y105.662
G0 X132.13 Y114.282
G1 F2400 E60.68526
G0 F3600 X132.587 Y114.752
;TYPE:WALL-OUTER
G1 F1800 X88.236 Y114.751 E62.89794
G1 X88.231 Y114.749 E62.89821
G1 X88.231 Y105.251 E63.37207
G1 X88.24 Y105.248 E63.37254
G1 X132.587 Y105.248 E65.58502
G1 X132.6 Y105.266 E65.58613
G1 X132.6 Y114.734 E66.05849
G1 X132.587 Y114.752 E66.0596
G0 F3600 X132.387 Y114.752
G0 X132.2 Y114.352
;TYPE:WALL-INNER
G1 F1800 X88.631 Y114.351 E68.23326
G1 X88.631 Y105.648 E68.66746
G1 X132.2 Y105.648 E70.84113
G1 X132.2 Y114.352 E71.27537
G0 F3600 X131.81 Y113.962
;TYPE:SKIN
G1 F1800 X89.021 Y113.961 E73.41012
G1 X89.021 Y106.038 E73.8054
G1 X131.81 Y106.038 E75.94015
G1 X131.81 Y113.962 E76.33548
G0 F3600 X131.629 Y106.739
G1 F1800 X131.108 Y106.218 E76.37224
G0 F3600 X130.542 Y106.218
G1 F1800 X131.629 Y107.304 E76.4489
G0 F3600 X131.629 Y107.87
G1 F1800 X129.976 Y106.218 E76.56549
G0 F3600 X129.411 Y106.218
G1 F1800 X131.629 Y108.436 E76.72199
G0 F3600 X131.629 Y109.001
G1 F1800 X128.845 Y106.218 E76.91838
G0 F3600 X128.279 Y106.218
G1 F1800 X131.629 Y109.567 E77.1547
G0 F3600 X131.629 Y110.133
G1 F1800 X127.714 Y106.218 E77.43093
G0 F3600 X127.148 Y106.218
G1 F1800 X131.629 Y110.698 E77.74705
G0 F3600 X131.629 Y111.264
G1 F1800 X126.582 Y106.218 E78.10311
G0 F3600 X126.017 Y106.218
G1 F1800 X131.629 Y111.83 E78.49907
G0 F3600 X131.629 Y112.396
G1 F1800 X125.451 Y106.218 E78.93496
G0 F3600 X124.885 Y106.218
G1 F1800 X131.629 Y112.961 E79.41075
G0 F3600 X131.629 Y113.527
G1 F1800 X124.319 Y106.218 E79.92647
G0 F3600 X123.754 Y106.218
G1 F1800 X131.317 Y113.781 E80.46008
G0 F3600 X130.751 Y113.781
G1 F1800 X123.188 Y106.218 E80.99369
G0 F3600 X122.622 Y106.218
G1 F1800 X130.186 Y113.781 E81.52734
G0 F3600 X129.62 Y113.781
G1 F1800 X122.057 Y106.218 E82.06095
G0 F3600 X121.491 Y106.218
G1 F1800 X129.054 Y113.781 E82.59456
G0 F3600 X128.489 Y113.781
G1 F1800 X120.925 Y106.218 E83.1282
G0 F3600 X120.36 Y106.218
G1 F1800 X127.923 Y113.781 E83.66182
G0 F3600 X127.357 Y113.781
G1 F1800 X119.794 Y106.218 E84.19543
G0 F3600 X119.228 Y106.218
G1 F1800 X126.792 Y113.781 E84.72907
G0 F3600 X126.226 Y113.781
G1 F1800 X118.663 Y106.218 E85.26268
G0 F3600 X118.097 Y106.218
G1 F1800 X125.66 Y113.781 E85.79629
G0 F3600 X125.094 Y113.781
G1 F1800 X117.531 Y106.218 E86.3299
G0 F3600 X116.966 Y106.218
G1 F1800 X124.529 Y113.781 E86.86351
G0 F3600 X123.963 Y113.781
G1 F1800 X116.4 Y106.218 E87.39712
G0 F3600 X115.834 Y106.218
G1 F1800 X123.397 Y113.781 E87.93073
G0 F3600 X122.832 Y113.781
G1 F1800 X115.269 Y106.218 E88.46435
G0 F3600 X114.703 Y106.218
G1 F1800 X122.266 Y113.781 E88.99796
G0 F3600 X121.7 Y113.781
G1 F1800 X114.137 Y106.218 E89.53157
G0 F3600 X113.571 Y106.218
G1 F1800 X121.135 Y113.781 E90.06521
G0 F3600 X120.569 Y113.781
G1 F1800 X113.006 Y106.218 E90.59882
G0 F3600 X112.44 Y106.218
G1 F1800 X120.003 Y113.781 E91.13243
G0 F3600 X119.438 Y113.781
G1 F1800 X111.874 Y106.218 E91.66608
G0 F3600 X111.309 Y106.218
G1 F1800 X118.872 Y113.781 E92.19969
G0 F3600 X118.306 Y113.781
G1 F1800 X110.743 Y106.218 E92.7333
G0 F3600 X110.177 Y106.218
G1 F1800 X117.741 Y113.781 E93.26695
G0 F3600 X117.174 Y113.78
G1 F1800 X109.612 Y106.218 E93.80049
G0 F3600 X109.046 Y106.218
G1 F1800 X116.608 Y113.78 E94.33403
G0 F3600 X116.043 Y113.78
G1 F1800 X108.48 Y106.218 E94.8676
G0 F3600 X107.915 Y106.218
G1 F1800 X115.477 Y113.78 E95.40114
G0 F3600 X114.911 Y113.78
G1 F1800 X107.349 Y106.218 E95.93468
G0 F3600 X106.783 Y106.218
G1 F1800 X114.346 Y113.78 E96.46826
G0 F3600 X113.78 Y113.78
G1 F1800 X106.218 Y106.218 E97.0018
G0 F3600 X105.652 Y106.218
G1 F1800 X113.214 Y113.78 E97.53534
G0 F3600 X112.649 Y113.78
G1 F1800 X105.086 Y106.218 E98.06891
G0 F3600 X104.52 Y106.218
G1 F1800 X112.083 Y113.78 E98.60249
G0 F3600 X111.517 Y113.78
G1 F1800 X103.955 Y106.218 E99.13603
G0 F3600 X103.389 Y106.218
G1 F1800 X110.952 Y113.78 E99.6696
G0 F3600 X110.386 Y113.78
G1 F1800 X102.823 Y106.218 E100.20318
G0 F3600 X102.258 Y106.218
G1 F1800 X109.82 Y113.78 E100.73672
G0 F3600 X109.255 Y113.78
G1 F1800 X101.692 Y106.218 E101.27029
G0 F3600 X101.126 Y106.218
G1 F1800 X108.689 Y113.78 E101.80387
G0 F3600 X108.123 Y113.78
G1 F1800 X100.561 Y106.218 E102.33741
G0 F3600 X99.995 Y106.218
G1 F1800 X107.558 Y113.78 E102.87098
G0 F3600 X106.992 Y113.78
G1 F1800 X99.429 Y106.218 E103.40456
G0 F3600 X98.864 Y106.218
G1 F1800 X106.426 Y113.78 E103.9381
G0 F3600 X105.86 Y113.78
G1 F1800 X98.298 Y106.218 E104.47164
G0 F3600 X97.732 Y106.218
G1 F1800 X105.295 Y113.78 E105.00521
G0 F3600 X104.729 Y113.78
G1 F1800 X97.167 Y106.218 E105.53875
G0 F3600 X96.601 Y106.218
G1 F1800 X104.163 Y113.78 E106.07229
G0 F3600 X103.598 Y113.78
G1 F1800 X96.035 Y106.218 E106.60587
G0 F3600 X95.47 Y106.218
G1 F1800 X103.031 Y113.779 E107.13934
G0 F3600 X102.466 Y113.779
G1 F1800 X94.904 Y106.218 E107.67284
