;FLAVOR:Marlin
;TIME:1311
;Filament used: 1.51536m
;Layer height: 0.2
;MINX:98.95
;MINY:97.703
;MINZ:0.3
;MAXX:121.05
;MAXY:122.297
;MAXZ:26.1
;Generated with Cura_SteamEngine 4.13.1
M140 S60
M105
M190 S60
M104 S210
M105
M109 S210
M82 ;absolute extrusion mode
; Aquila X2 Custom Start G-code
G92 E0 ; Reset Extruder
G28 ; Home all axes
G1 Z2.0 F3000 ; Move Z Axis up little to prevent scratching of Heat Bed
G1 X0.1 Y20 Z0.3 F5000.0 ; Move to start position
G1 X0.1 Y200.0 Z0.3 F1500.0 E15 ; Draw the first line
G1 X0.4 Y200.0 Z0.3 F5000.0 ; Move to side a little
G1 X0.4 Y20 Z0.3 F1500.0 E30 ; Draw the second line
G92 E0 ; Reset Extruder
G1 Z2.0 F3000 ; Move Z Axis up little to prevent scratching of Heat Bed
G1 X5 Y20 Z0.3 F5000.0 ; Move over to prevent blob squish
G92 E0
G92 E0
G1 F2400 E-3
;LAYER_COUNT:130
;LAYER:0
M107
G0 F3600 X106.298 Y104.913 Z0.3
;TYPE:SUPPORT
G1 F2400 E0
G1 F1800 X106.812 Y104.459 E0.03421
G1 X107.413 Y104.029 E0.07108
G1 X108.013 Y103.681 E0.10569
G1 X108.65 Y103.395 E0.14052
G1 X109.325 Y103.166 E0.17608
G1 X110.023 Y103.008 E0.21179
G1 X110.712 Y102.922 E0.24643
G1 X111.439 Y102.903 E0.28271
G1 X112.125 Y102.956 E0.31704
G1 X112.819 Y103.079 E0.3522
G1 X113.527 Y103.277 E0.38888
G1 X114.164 Y103.527 E0.42302
G1 X114.807 Y103.856 E0.45905
G1 X115.387 Y104.229 E0.49346
G1 X115.948 Y104.679 E0.52934
G1 X116.45 Y105.168 E0.5643
G1 X116.912 Y105.719 E0.60018
G1 X117.302 Y106.291 E0.63471
G1 X117.653 Y106.933 E0.67122
G1 X117.921 Y107.571 E0.70574
G1 X118.131 Y108.25 E0.7412
G1 X118.269 Y108.934 E0.77601
G1 X118.34 Y109.65 E0.81191
G1 X118.34 Y110.35 E0.84683
G1 X118.269 Y111.066 E0.88273
G1 X118.131 Y111.75 E0.91754
G1 X117.921 Y112.429 E0.953
G1 X117.653 Y113.067 E0.98753
G1 X117.302 Y113.709 E1.02403
G1 X116.909 Y114.286 E1.05886
G1 X116.452 Y114.831 E1.09434
G1 X115.952 Y115.317 E1.12913
G1 X115.395 Y115.766 E1.16482
G1 X114.8 Y116.148 E1.2001
G1 X114.164 Y116.473 E1.23573
G1 X113.527 Y116.723 E1.26987
G1 X112.819 Y116.921 E1.30655
G1 X112.125 Y117.044 E1.34171
G1 X111.439 Y117.097 E1.37604
G1 X110.712 Y117.078 E1.41232
G1 X110.023 Y116.992 E1.44696
G1 X109.325 Y116.834 E1.48267
G1 X108.65 Y116.605 E1.51823
G1 X108.018 Y116.321 E1.5528
G1 X107.408 Y115.967 E1.58798
G1 X106.812 Y115.541 E1.62453
G1 X106.298 Y115.087 E1.65875
G1 X105.808 Y114.559 E1.69469
G1 X105.385 Y114.001 E1.72962
G1 X105.015 Y113.393 E1.76513
G1 X104.714 Y112.767 E1.79978
G1 X104.466 Y112.089 E1.8358
G1 X104.293 Y111.405 E1.871
G1 X104.187 Y110.706 E1.90627
G1 X104.152 Y110 E1.94154
G1 X104.187 Y109.294 E1.9768
G1 X104.293 Y108.595 E2.01207
G1 X104.466 Y107.911 E2.04727
G1 X104.714 Y107.233 E2.08329
G1 X105.011 Y106.614 E2.11754
G1 X105.39 Y105.993 E2.15384
G1 X105.808 Y105.441 E2.18838
G1 X106.298 Y104.913 E2.22432
G0 F3600 X108.643 Y107.731
G1 F1800 X108.318 Y108.181 E2.25201
G1 X108.084 Y108.638 E2.27763
G1 X107.924 Y109.077 E2.30094
G1 X107.766 Y109.93 E2.34422
G1 X107.882 Y110.723 E2.38421
G1 X107.999 Y111.149 E2.40625
G1 X108.197 Y111.61 E2.43128
G1 X108.486 Y112.071 E2.45842
G1 X108.867 Y112.496 E2.4869
G1 X109.236 Y112.794 E2.51056
G1 X109.656 Y113.056 E2.53526
G1 X110.148 Y113.275 E2.56213
G1 X111.187 Y113.526 E2.61545
G1 X112.148 Y113.333 E2.66435
G1 X112.682 Y113.137 E2.69273
G1 X113.081 Y112.928 E2.71521
G1 X113.58 Y112.551 E2.74641
G1 X113.861 Y112.249 E2.76699
G1 X114.207 Y111.805 E2.79507
G1 X114.44 Y111.307 E2.8225
G1 X114.604 Y110.814 E2.84842
G1 X114.734 Y110.057 E2.88674
G1 X114.633 Y109.336 E2.92306
G1 X114.507 Y108.846 E2.9483
G1 X114.271 Y108.34 E2.97616
G1 X113.981 Y107.895 E3.00266
G1 X113.634 Y107.507 E3.02863
G1 X113.306 Y107.224 E3.05024
G1 X112.777 Y106.903 E3.08111
G1 X112.321 Y106.722 E3.10559
G1 X111.36 Y106.463 E3.15524
G1 X110.316 Y106.681 E3.20845
G1 X109.882 Y106.826 E3.23128
G1 X109.343 Y107.124 E3.26201
G1 X108.643 Y107.731 E3.30823
G0 F3600 X112.12 Y102.955
G1 F1800 X112.815 Y103.079 E3.34345
G1 X113.533 Y103.279 E3.38064
G1 X114.163 Y103.526 E3.4144
G1 X114.809 Y103.856 E3.45059
G1 X115.386 Y104.227 E3.48481
G1 X115.947 Y104.677 E3.52069
G1 X116.45 Y105.168 E3.55576
G1 X116.913 Y105.72 E3.59171
G1 X117.304 Y106.294 E3.62636
G1 X117.654 Y106.934 E3.66275
G1 X117.92 Y107.567 E3.697
G1 X118.131 Y108.249 E3.73262
G1 X118.269 Y108.934 E3.76748
G1 X118.34 Y109.65 E3.80338
G1 X118.34 Y110.35 E3.8383
G1 X118.269 Y111.066 E3.8742
G1 X118.131 Y111.751 E3.90906
G1 X117.92 Y112.433 E3.94468
G1 X117.654 Y113.066 E3.97893
G1 X117.304 Y113.706 E4.01532
G1 X116.91 Y114.285 E4.05026
G1 X116.448 Y114.836 E4.08614
G1 X115.959 Y115.311 E4.12015
G1 X115.389 Y115.77 E4.15666
G1 X114.802 Y116.148 E4.19149
G1 X114.163 Y116.474 E4.22728
G1 X113.533 Y116.721 E4.26104
G1 X112.815 Y116.921 E4.29823
G1 X112.12 Y117.045 E4.33345
G1 X111.444 Y117.097 E4.36727
G1 X110.707 Y117.078 E4.40406
G1 X110.027 Y116.993 E4.43824
G1 X109.322 Y116.834 E4.4743
G1 X108.651 Y116.605 E4.50967
G1 X108.02 Y116.322 E4.54418
G1 X107.41 Y115.968 E4.57936
G1 X106.81 Y115.54 E4.61613
G1 X106.301 Y115.09 E4.65003
G1 X105.805 Y114.556 E4.68639
G1 X105.386 Y114.004 E4.72096
G1 X105.014 Y113.39 E4.75678
G1 X104.716 Y112.77 E4.7911
G1 X104.466 Y112.087 E4.82738
G1 X104.294 Y111.407 E4.86238
G1 X104.187 Y110.706 E4.89775
G1 X104.152 Y110 E4.93302
G1 X104.187 Y109.294 E4.96829
G1 X104.294 Y108.593 E5.00366
G1 X104.466 Y107.913 E5.03866
G1 X104.716 Y107.23 E5.07494
G1 X105.01 Y106.616 E5.10891
G1 X105.391 Y105.99 E5.14547
G1 X105.805 Y105.444 E5.17965
G1 X106.301 Y104.91 E5.21601
G1 X106.81 Y104.46 E5.24991
G1 X107.415 Y104.028 E5.287
G1 X108.015 Y103.68 E5.3216
G1 X108.651 Y103.395 E5.35637
G1 X109.322 Y103.166 E5.39175
G1 X110.027 Y103.007 E5.4278
G1 X110.707 Y102.922 E5.46199
G1 X111.444 Y102.903 E5.49877
G1 X112.12 Y102.955 E5.5326
G0 F3600 X111.363 Y105.533
G1 F1800 X110.483 Y105.598 E5.57662
G1 X109.615 Y105.843 E5.62162
G1 X108.843 Y106.238 E5.66488
G1 X108.13 Y106.802 E5.71024
G1 X107.575 Y107.46 E5.75318
G1 X107.14 Y108.252 E5.79826
G1 X106.874 Y109.107 E5.84294
G1 X106.784 Y110 E5.88771
G1 X106.875 Y110.893 E5.9325
G1 X107.138 Y111.744 E5.97693
G1 X107.563 Y112.526 E6.02134
G1 X108.135 Y113.204 E6.06559
G1 X108.832 Y113.755 E6.10992
G1 X109.618 Y114.158 E6.15399
G1 X110.483 Y114.401 E6.19881
G1 X111.365 Y114.466 E6.24294
G1 X112.219 Y114.358 E6.28588
G1 X112.718 Y114.218 E6.31174
G1 X113.497 Y113.863 E6.35445
G1 X114.226 Y113.332 E6.39944
G1 X114.813 Y112.695 E6.44266
G1 X115.287 Y111.918 E6.48807
G1 X115.588 Y111.077 E6.53263
G1 X115.712 Y110.228 E6.57544
G1 X115.667 Y109.32 E6.62079
G1 X115.441 Y108.451 E6.66559
G1 X115.067 Y107.68 E6.70834
G1 X114.526 Y106.963 E6.75315
G1 X113.855 Y106.368 E6.7979
G1 X113.087 Y105.928 E6.84205
G1 X112.225 Y105.644 E6.88733
G1 X111.363 Y105.533 E6.93069
G1 F2400 E3.93069
;MESH:BasicStop-Body.stl
G0 F3600 X118.576 Y109.634
G0 X119.44 Y109.59
G0 X119.461 Y110.476
G0 X119.755 Y111.282
;TYPE:WALL-INNER
G1 F2400 E6.93069
G1 F1800 X119.8 Y110.83 E6.95336
G1 X119.8 Y111.282 E6.9546
G1 X119.8 Y112.122 E6.99651
G1 X119.8 Y112.735 E7.02709
G1 X119.8 Y116.995 E7.23962
G1 X119.239 Y117.633 E7.28201
G1 X118.722 Y118.141 E7.31817
G1 X118.436 Y118.394 E7.33722
G1 X117.866 Y118.851 E7.37367
G1 X117.581 Y119.057 E7.39121
G1 X116.953 Y119.464 E7.42855
G1 X116.638 Y119.646 E7.4467
G1 X115.971 Y119.99 E7.48414
G1 X115.632 Y120.145 E7.50274
G1 X114.967 Y120.406 E7.53838
G1 X114.618 Y120.524 E7.55676
G1 X113.914 Y120.724 E7.59327
G1 X113.544 Y120.809 E7.61221
G1 X112.824 Y120.937 E7.64869
G1 X112.45 Y120.985 E7.66751
G1 X111.733 Y121.039 E7.70338
G1 X111.356 Y121.049 E7.72219
G1 X110.62 Y121.032 E7.75892
G1 X110.257 Y121.005 E7.77708
G1 X109.525 Y120.915 E7.81388
G1 X109.15 Y120.848 E7.83288
G1 X108.451 Y120.69 E7.86864
G1 X108.088 Y120.587 E7.88746
G1 X107.402 Y120.358 E7.92354
G1 X107.039 Y120.216 E7.94299
G1 X106.381 Y119.92 E7.97899
G1 X106.054 Y119.752 E7.99733
G1 X105.416 Y119.385 E8.03405
G1 X105.108 Y119.186 E8.05234
G1 X104.512 Y118.758 E8.08895
G1 X104.212 Y118.519 E8.10808
G1 X103.678 Y118.048 E8.14361
G1 X103.397 Y117.775 E8.16315
G1 X102.907 Y117.247 E8.19909
G1 X102.677 Y116.973 E8.21694
G1 X102.222 Y116.371 E8.25459
G1 X102.023 Y116.079 E8.27222
G1 X101.638 Y115.449 E8.30905
G1 X101.458 Y115.121 E8.32772
G1 X101.136 Y114.452 E8.36476
G1 X101 Y114.129 E8.38224
G1 X100.743 Y113.422 E8.41977
G1 X100.639 Y113.085 E8.43737
G1 X100.455 Y112.359 E8.47474
G1 X100.386 Y112.019 E8.49204
G1 X100.274 Y111.271 E8.52978
G1 X100.238 Y110.912 E8.54778
G1 X100.202 Y110.2 E8.58335
G1 X100.202 Y109.81 E8.6028
G1 X100.239 Y109.088 E8.63887
G1 X100.276 Y108.709 E8.65787
G1 X100.384 Y107.996 E8.69385
G1 X100.455 Y107.643 E8.71181
G1 X100.643 Y106.905 E8.7498
G1 X100.743 Y106.579 E8.76682
G1 X100.997 Y105.881 E8.80387
G1 X101.145 Y105.529 E8.82292
G1 X101.456 Y104.887 E8.85851
G1 X101.642 Y104.545 E8.87794
G1 X102.025 Y103.922 E8.91442
G1 X102.228 Y103.621 E8.93254
G1 X102.676 Y103.031 E8.96949
G1 X102.915 Y102.745 E8.98809
G1 X103.4 Y102.225 E9.02357
G1 X103.678 Y101.953 E9.04297
G1 X104.228 Y101.47 E9.07949
G1 X104.508 Y101.245 E9.09741
G1 X105.113 Y100.812 E9.13453
G1 X105.421 Y100.612 E9.15285
G1 X106.059 Y100.246 E9.18954
G1 X106.371 Y100.085 E9.20706
G1 X107.059 Y99.776 E9.24469
G1 X107.387 Y99.647 E9.26227
G1 X108.104 Y99.409 E9.29996
G1 X108.823 Y99.225 E9.33699
G1 X109.522 Y99.086 E9.37254
G1 X110.256 Y98.995 E9.40944
G1 X110.62 Y98.968 E9.42765
G1 X111.356 Y98.952 E9.46438
G1 X111.732 Y98.961 E9.48315
G1 X112.459 Y99.017 E9.51952
G1 X112.819 Y99.063 E9.53763
G1 X113.553 Y99.194 E9.57483
G1 X113.906 Y99.274 E9.59289
G1 X114.616 Y99.477 E9.62973
G1 X114.958 Y99.591 E9.64771
G1 X115.656 Y99.867 E9.68516
G1 X115.972 Y100.01 E9.70246
G1 X116.628 Y100.349 E9.7393
G1 X116.955 Y100.537 E9.75812
G1 X117.564 Y100.933 E9.79436
G1 X117.856 Y101.142 E9.81228
G1 X118.442 Y101.613 E9.84979
G1 X118.724 Y101.861 E9.86852
G1 X119.232 Y102.362 E9.90412
G1 X119.8 Y103.008 E9.94703
G1 X119.8 Y107.265 E10.15942
G1 X119.8 Y107.878 E10.19
G1 X119.8 Y108.718 E10.23191
G1 X119.8 Y109.17 E10.25446
G1 X119.755 Y108.718 E10.2558
G1 X119.585 Y107.878 E10.27014
G1 X119.332 Y107.058 E10.3064
G1 X118.999 Y106.268 E10.34917
G1 X118.589 Y105.516 E10.3919
G1 X118.105 Y104.807 E10.43473
G1 X117.555 Y104.151 E10.47744
G1 X116.94 Y103.552 E10.52027
G1 X116.27 Y103.016 E10.56308
G1 X115.55 Y102.552 E10.60581
G1 X114.787 Y102.161 E10.64859
G1 X113.99 Y101.847 E10.69132
G1 X113.163 Y101.616 E10.73416
G1 X112.32 Y101.467 E10.77687
G1 X111.464 Y101.402 E10.8197
G1 X110.607 Y101.424 E10.86247
G1 X109.757 Y101.531 E10.90521
G1 X108.921 Y101.72 E10.94797
G1 X108.108 Y101.994 E10.99078
G1 X107.326 Y102.347 E11.03358
G1 X106.585 Y102.776 E11.0763
G1 X105.887 Y103.276 E11.11913
G1 X105.244 Y103.843 E11.1619
G1 X104.662 Y104.472 E11.20466
G1 X104.143 Y105.155 E11.24745
G1 X103.696 Y105.887 E11.29024
G1 X103.325 Y106.66 E11.33302
G1 X103.031 Y107.465 E11.37578
G1 X102.82 Y108.296 E11.41855
G1 X102.693 Y109.143 E11.46128
G1 X102.649 Y110 E11.50409
G1 X102.693 Y110.857 E11.54691
G1 X102.82 Y111.704 E11.58963
G1 X103.031 Y112.535 E11.63241
G1 X103.325 Y113.34 E11.67517
G1 X103.696 Y114.113 E11.71794
G1 X104.144 Y114.846 E11.7608
G1 X104.662 Y115.528 E11.80353
G1 X105.244 Y116.157 E11.84628
G1 X105.887 Y116.724 E11.88905
G1 X106.585 Y117.224 E11.93189
G1 X107.326 Y117.653 E11.9746
G1 X108.108 Y118.006 E12.01741
G1 X108.921 Y118.28 E12.06021
G1 X109.757 Y118.469 E12.10297
G1 X110.607 Y118.576 E12.14571
G1 X111.464 Y118.598 E12.18848
G1 X112.32 Y118.533 E12.23131
G1 X113.163 Y118.384 E12.27402
G1 X113.99 Y118.153 E12.31686
G1 X114.787 Y117.839 E12.3596
G1 X115.55 Y117.448 E12.40237
G1 X116.271 Y116.984 E12.44515
G1 X116.94 Y116.448 E12.48792
G1 X117.555 Y115.849 E12.53075
G1 X118.105 Y115.193 E12.57345
G1 X118.589 Y114.484 E12.61628
G1 X118.999 Y113.732 E12.65901
G1 X119.332 Y112.942 E12.70179
G1 X119.585 Y112.122 E12.73805
G1 X119.755 Y111.282 E12.75238
G0 F3600 X118.852 Y113.668
G0 X118.454 Y114.397
G0 X117.979 Y115.093
G0 X117.436 Y115.74
G0 X116.83 Y116.33
G0 X116.174 Y116.856
G0 X115.473 Y117.306
G0 X114.722 Y117.691
G0 X113.937 Y118.001
G0 X113.129 Y118.227
G0 X110.599 Y118.474
G0 X110.637 Y118.177
;TYPE:WALL-OUTER
G1 F1800 X111.454 Y118.198 E12.79316
G1 X112.27 Y118.136 E12.83399
G1 X113.074 Y117.994 E12.87472
G1 X113.862 Y117.773 E12.91555
G1 X114.622 Y117.474 E12.95629
G1 X115.35 Y117.101 E12.9971
G1 X116.037 Y116.659 E13.03786
G1 X116.675 Y116.148 E13.07864
G1 X117.261 Y115.577 E13.11946
G1 X117.786 Y114.951 E13.16022
G1 X118.247 Y114.275 E13.20104
G1 X118.638 Y113.558 E13.24179
G1 X118.956 Y112.805 E13.28257
G1 X119.197 Y112.023 E13.32339
G1 X119.359 Y111.222 E13.36416
G1 X119.44 Y110.409 E13.40492
G1 X119.44 Y109.591 E13.44573
G1 X119.359 Y108.778 E13.4865
G1 X119.197 Y107.977 E13.52727
G1 X118.956 Y107.195 E13.56809
G1 X118.638 Y106.442 E13.60887
G1 X118.247 Y105.725 E13.64962
G1 X117.786 Y105.049 E13.69044
G1 X117.261 Y104.423 E13.7312
G1 X116.675 Y103.852 E13.77202
G1 X116.036 Y103.341 E13.81284
G1 X115.35 Y102.899 E13.85355
G1 X114.622 Y102.526 E13.89436
G1 X113.862 Y102.227 E13.93511
G1 X113.074 Y102.006 E13.97594
G1 X112.27 Y101.864 E14.01667
G1 X111.454 Y101.802 E14.0575
G1 X110.637 Y101.823 E14.09827
G1 X109.826 Y101.925 E14.13905
G1 X109.029 Y102.106 E14.17983
G1 X108.254 Y102.367 E14.22063
G1 X107.509 Y102.703 E14.2614
G1 X106.802 Y103.112 E14.30215
G1 X106.137 Y103.589 E14.34298
G1 X105.524 Y104.13 E14.38377
G1 X104.969 Y104.729 E14.42451
G1 X104.474 Y105.381 E14.46535
G1 X104.048 Y106.078 E14.5061
G1 X103.694 Y106.815 E14.54689
G1 X103.414 Y107.583 E14.58768
G1 X103.213 Y108.375 E14.62844
G1 X103.091 Y109.183 E14.66921
G1 X103.05 Y110 E14.71002
G1 X103.091 Y110.817 E14.75083
G1 X103.213 Y111.625 E14.7916
G1 X103.414 Y112.417 E14.83237
G1 X103.694 Y113.185 E14.87315
G1 X104.048 Y113.922 E14.91394
G1 X104.475 Y114.62 E14.95476
G1 X104.969 Y115.271 E14.99553
G1 X105.524 Y115.87 E15.03627
G1 X106.137 Y116.411 E15.07706
G1 X106.802 Y116.888 E15.11789
G1 X107.509 Y117.297 E15.15864
G1 X108.254 Y117.633 E15.19942
G1 X109.029 Y117.894 E15.24021
G1 X109.826 Y118.075 E15.28099
G1 X110.637 Y118.177 E15.32177
G0 F3600 X110.837 Y118.182
G0 X110.83 Y118.482
G0 X111.743 Y121.14
G0 X111.753 Y121.439
G1 F1800 X111.357 Y121.449 E15.34153
G1 X110.6 Y121.432 E15.37931
G1 X110.22 Y121.403 E15.39832
G1 X109.463 Y121.31 E15.43637
G1 X109.08 Y121.242 E15.45578
G1 X108.346 Y121.076 E15.49332
G1 X107.979 Y120.972 E15.51235
G1 X107.256 Y120.731 E15.55038
G1 X106.893 Y120.589 E15.56982
G1 X106.217 Y120.285 E15.6068
G1 X105.86 Y120.102 E15.62682
G1 X105.208 Y119.727 E15.66434
G1 X104.884 Y119.518 E15.68358
G1 X104.269 Y119.076 E15.72136
G1 X103.963 Y118.832 E15.74089
G1 X103.399 Y118.335 E15.77839
G1 X103.118 Y118.062 E15.79794
G1 X102.614 Y117.519 E15.8349
G1 X102.362 Y117.219 E15.85444
G1 X101.903 Y116.612 E15.89241
G1 X101.682 Y116.288 E15.91198
G1 X101.29 Y115.647 E15.94946
G1 X101.107 Y115.313 E15.96846
G1 X100.776 Y114.626 E16.00651
G1 X100.624 Y114.266 E16.02601
G1 X100.367 Y113.559 E16.06354
G1 X100.252 Y113.186 E16.08301
G1 X100.067 Y112.457 E16.12053
G1 X99.991 Y112.083 E16.13957
G1 X99.878 Y111.33 E16.17756
G1 X99.84 Y110.952 E16.19651
G1 X99.802 Y110.2 E16.23408
G1 X99.802 Y109.81 E16.25354
G1 X99.841 Y109.049 E16.29155
G1 X99.878 Y108.67 E16.31055
G1 X99.992 Y107.917 E16.34855
G1 X100.067 Y107.544 E16.36753
G1 X100.255 Y106.806 E16.40552
G1 X100.367 Y106.442 E16.42452
G1 X100.628 Y105.726 E16.46254
G1 X100.776 Y105.374 E16.48159
G1 X101.104 Y104.696 E16.51917
G1 X101.295 Y104.344 E16.53915
G1 X101.684 Y103.712 E16.57617
G1 X101.909 Y103.379 E16.59622
G1 X102.357 Y102.789 E16.63318
G1 X102.615 Y102.48 E16.65327
G1 X103.12 Y101.939 E16.69019
G1 X103.407 Y101.658 E16.71023
G1 X103.964 Y101.169 E16.74721
G1 X104.268 Y100.925 E16.76665
G1 X104.88 Y100.487 E16.8042
G1 X105.217 Y100.268 E16.82425
G1 X105.86 Y99.899 E16.86124
G1 X106.207 Y99.72 E16.88072
G1 X106.901 Y99.409 E16.91866
G1 X107.256 Y99.269 E16.9377
G1 X107.978 Y99.029 E16.97566
G1 X108.738 Y98.834 E17.0148
G1 X109.463 Y98.69 E17.05168
G1 X110.219 Y98.597 E17.08968
G1 X110.6 Y98.568 E17.10874
