;FLAVOR:Marlin
;TIME:1758
;Filament used: 2.16811m
;Layer height: 0.2
;MINX:43.501
;MINY:66.833
;MINZ:0.3
;MAXX:77.997
;MAXY:100.959
;MAXZ:20.1
;Generated with Cura_SteamEngine 4.13.1
M140 S60
M105
M190 S60
M104 S210
M105
M109 S210
M82 ;absolute extrusion mode
; Aquila X2 Custom Start G-code
G92 E0 ; Reset Extruder
G28 ; Home all axes
G1 Z2.0 F3000 ; Move Z Axis up little to prevent scratching of Heat Bed
G1 X0.1 Y20 Z0.3 F5000.0 ; Move to start position
G1 X0.1 Y200.0 Z0.3 F1500.0 E15 ; Draw the first line
G1 X0.4 Y200.0 Z0.3 F5000.0 ; Move to side a little
G1 X0.4 Y20 Z0.3 F1500.0 E30 ; Draw the second line
G92 E0 ; Reset Extruder
G1 Z2.0 F3000 ; Move Z Axis up little to prevent scratching of Heat Bed
G1 X5 Y20 Z0.3 F5000.0 ; Move over to prevent blob squish
G92 E0
G92 E0
G1 F2400 E-3
;LAYER_COUNT:100
;LAYER:0
M107
G0 F3600 X57.974 Y78.859 Z0.3
;TYPE:SUPPORT
G1 F2400 E0
G1 F1800 X63.518 Y78.859 E0.27659
G1 X66.289 Y83.659 E0.5531
G1 X63.518 Y88.459 E0.82962
G1 X57.974 Y88.459 E1.10621
G1 X55.203 Y83.659 E1.38272
G1 X57.974 Y78.859 E1.65923
G0 F3600 X58.473 Y81.054
G1 F1800 X58.097 Y81.444 E1.68626
G1 X57.788 Y81.885 E1.71312
G1 X57.567 Y82.315 E1.73725
G1 X57.406 Y82.79 E1.76227
G1 X57.314 Y83.341 E1.79014
G1 X57.299 Y83.799 E1.813
G1 X57.356 Y84.305 E1.8384
G1 X57.505 Y84.852 E1.86669
G1 X57.712 Y85.299 E1.89126
G1 X57.992 Y85.742 E1.91741
G1 X58.367 Y86.154 E1.9452
G1 X58.729 Y86.45 E1.96853
G1 X59.149 Y86.724 E1.99355
G1 X59.684 Y86.942 E2.02237
G1 X60.185 Y87.059 E2.04804
G1 X60.614 Y87.106 E2.06957
G1 X61.159 Y87.082 E2.09679
G1 X61.702 Y86.974 E2.12441
G1 X62.206 Y86.775 E2.15144
G1 X62.601 Y86.563 E2.17381
G1 X63.038 Y86.239 E2.20095
G1 X63.403 Y85.871 E2.22681
G1 X63.673 Y85.491 E2.25007
G1 X63.949 Y84.96 E2.27992
G1 X64.099 Y84.466 E2.30568
G1 X64.178 Y83.972 E2.33064
G1 X64.193 Y83.51 E2.3537
G1 X64.13 Y82.968 E2.38092
G1 X63.981 Y82.473 E2.40671
G1 X63.776 Y82.009 E2.43202
G1 X63.479 Y81.558 E2.45896
G1 X63.154 Y81.176 E2.48398
G1 X62.744 Y80.853 E2.51002
G1 X62.321 Y80.598 E2.53466
G1 X61.857 Y80.388 E2.56007
G1 X61.342 Y80.261 E2.58654
G1 X60.846 Y80.211 E2.61141
G1 X60.296 Y80.237 E2.63888
G1 X59.804 Y80.344 E2.664
G1 X59.332 Y80.51 E2.68896
G1 X58.912 Y80.74 E2.71285
G1 X58.473 Y81.054 E2.73978
G0 F3600 X66.289 Y83.659
G1 F1800 X63.518 Y88.459 E3.01629
G1 X57.974 Y88.459 E3.29288
G1 X55.203 Y83.659 E3.56939
G1 X57.974 Y78.859 E3.84591
G1 X63.518 Y78.859 E4.1225
G1 X66.289 Y83.659 E4.39901
G0 F3600 X64.192 Y83.512
G1 F1800 X64.13 Y82.964 E4.42653
G1 X63.983 Y82.476 E4.45195
G1 X63.775 Y82.008 E4.4775
G1 X63.479 Y81.558 E4.50437
G1 X63.154 Y81.176 E4.5294
G1 X62.741 Y80.851 E4.55562
G1 X62.324 Y80.6 E4.5799
G1 X61.856 Y80.387 E4.60555
G1 X61.343 Y80.261 E4.63191
G1 X60.847 Y80.212 E4.65677
G1 X60.292 Y80.237 E4.68449
G1 X59.812 Y80.342 E4.709
G1 X59.332 Y80.511 E4.73439
G1 X58.913 Y80.739 E4.75819
G1 X58.471 Y81.056 E4.78533
G1 X58.098 Y81.443 E4.81214
G1 X57.786 Y81.887 E4.83922
G1 X57.565 Y82.317 E4.86334
G1 X57.406 Y82.788 E4.88814
G1 X57.315 Y83.338 E4.91595
G1 X57.3 Y83.798 E4.93891
G1 X57.356 Y84.308 E4.96451
G1 X57.505 Y84.854 E4.99274
G1 X57.71 Y85.296 E5.01705
G1 X57.991 Y85.741 E5.04331
G1 X58.367 Y86.154 E5.07117
G1 X58.73 Y86.451 E5.09457
G1 X59.152 Y86.726 E5.1197
G1 X59.681 Y86.941 E5.14819
G1 X60.184 Y87.058 E5.17396
G1 X60.614 Y87.105 E5.19554
G1 X61.161 Y87.082 E5.22285
G1 X61.701 Y86.975 E5.25031
G1 X62.207 Y86.775 E5.27746
G1 X62.599 Y86.563 E5.29969
G1 X63.038 Y86.239 E5.32691
G1 X63.404 Y85.87 E5.35284
G1 X63.675 Y85.488 E5.37621
G1 X63.949 Y84.961 E5.40584
G1 X64.099 Y84.466 E5.43165
G1 X64.177 Y83.976 E5.4564
G1 X64.192 Y83.512 E5.47956
G1 F2400 E2.47956
;MESH:BasicStopNut-Body.stl
G0 F3600 X57.312 Y79.537
G0 X56.216 Y78.905
G0 X53.371 Y83.659
G1 F2400 E5.47956
G0 F3600 X53.471 Y83.659
;TYPE:WALL-INNER
G1 F1800 X57.109 Y89.959 E5.84251
G1 X64.383 Y89.959 E6.20541
G1 X68.021 Y83.659 E6.56836
G1 X64.383 Y77.359 E6.93131
G1 X57.109 Y77.359 E7.29421
G1 X53.471 Y83.659 E7.65716
G0 F3600 X53.371 Y83.659
G0 X57.09 Y89.993
G0 X64.11 Y97.957
G0 X64.189 Y98.018
G1 F1800 X63.799 Y98.631 E7.69341
G1 X63.464 Y99.228 E7.72756
G1 X63.191 Y99.595 E7.75038
G1 X62.943 Y99.804 E7.76656
G1 X62.647 Y99.937 E7.78275
G1 X62.164 Y100.024 E7.80724
G1 X61.464 Y100.07 E7.84224
G1 X60.746 Y100.086 E7.87807
G1 X60.03 Y100.07 E7.9138
G1 X59.285 Y100.02 E7.95105
G1 X58.835 Y99.934 E7.97391
G1 X58.53 Y99.793 E7.99067
G1 X58.311 Y99.609 E8.00494
G1 X58.031 Y99.23 E8.02845
G1 X57.786 Y98.803 E8.05301
G1 X57.447 Y98.221 E8.08661
G1 X56.97 Y97.636 E8.12427
G1 X56.371 Y97.182 E8.16177
G1 X55.904 Y96.964 E8.18748
G1 X55.405 Y96.83 E8.21326
G1 X54.656 Y96.795 E8.25067
G1 X53.911 Y96.933 E8.28847
G1 X53.156 Y97.21 E8.32859
G1 X52.648 Y97.386 E8.35541
G1 X52.256 Y97.449 E8.37522
G1 X51.882 Y97.4 E8.39404
G1 X51.323 Y97.114 E8.42536
G1 X50.741 Y96.688 E8.46135
G1 X50.19 Y96.245 E8.49662
G1 X49.639 Y95.761 E8.53321
G1 X49.114 Y95.257 E8.56952
G1 X48.822 Y94.9 E8.59253
G1 X48.675 Y94.583 E8.60996
G1 X48.628 Y94.306 E8.62398
G1 X48.656 Y93.833 E8.64762
G1 X48.802 Y93.063 E8.68672
G1 X48.879 Y92.441 E8.71799
G1 X48.832 Y91.696 E8.75523
G1 X48.698 Y91.199 E8.78091
G1 X48.48 Y90.73 E8.80671
G1 X48.023 Y90.133 E8.84422
G1 X47.43 Y89.67 E8.88175
G1 X46.97 Y89.431 E8.90762
G1 X46.222 Y89.16 E8.94731
G1 X45.711 Y88.965 E8.9746
G1 X45.321 Y88.717 E8.99765
G1 X45.084 Y88.429 E9.01626
G1 X44.876 Y87.899 E9.04467
G1 X44.704 Y87.2 E9.08058
G1 X44.57 Y86.524 E9.11496
G1 X44.46 Y85.807 E9.15115
G1 X44.375 Y85.002 E9.19154
G1 X44.403 Y84.51 E9.21612
G1 X44.498 Y84.223 E9.2312
G1 X44.701 Y83.925 E9.24919
G1 X45.018 Y83.618 E9.27121
G1 X45.435 Y83.282 E9.29793
G1 X46.007 Y82.761 E9.33653
G1 X46.453 Y82.158 E9.37395
G1 X46.67 Y81.691 E9.39964
G1 X46.802 Y81.197 E9.42515
G1 X46.843 Y80.621 E9.45396
G1 X46.749 Y79.941 E9.48821
G1 X46.486 Y79.236 E9.52575
G1 X45.866 Y78.158 E9.58779
G1 X45.708 Y77.764 E9.60897
G1 X45.665 Y77.44 E9.62527
G1 X45.718 Y77.09 E9.64293
G1 X45.865 Y76.705 E9.66349
G1 X46.173 Y76.077 E9.69839
G1 X46.522 Y75.442 E9.73454
G1 X46.89 Y74.837 E9.76987
G1 X47.324 Y74.188 E9.80882
G1 X47.602 Y73.871 E9.82986
G1 X47.905 Y73.662 E9.84822
G1 X48.152 Y73.575 E9.86128
G1 X48.63 Y73.52 E9.88529
G1 X49.258 Y73.528 E9.91662
G1 X49.962 Y73.505 E9.95176
G1 X50.531 Y73.396 E9.98067
G1 X51.221 Y73.11 E10.01793
G1 X51.653 Y72.807 E10.04426
G1 X52.159 Y72.253 E10.08169
G1 X52.513 Y71.59 E10.11919
G1 X52.667 Y71.096 E10.145
G1 X52.774 Y70.526 E10.17394
G1 X52.869 Y69.947 E10.20321
G1 X53 Y69.513 E10.22583
G1 X53.186 Y69.208 E10.24365
G1 X53.465 Y68.96 E10.26227
G1 X53.736 Y68.804 E10.27787
G1 X54.466 Y68.48 E10.31772
G1 X55.12 Y68.225 E10.35274
G1 X55.81 Y67.991 E10.38909
G1 X56.545 Y67.778 E10.42727
G1 X56.982 Y67.712 E10.44932
G1 X57.329 Y67.746 E10.46671
G1 X57.588 Y67.843 E10.48051
G1 X57.966 Y68.094 E10.50315
G1 X58.461 Y68.517 E10.53563
G1 X59.071 Y68.988 E10.57408
G1 X59.741 Y69.321 E10.61141
G1 X60.238 Y69.455 E10.63709
G1 X60.755 Y69.501 E10.66298
G1 X61.499 Y69.401 E10.70044
G1 X62.198 Y69.121 E10.738
G1 X62.632 Y68.844 E10.76369
G1 X63.086 Y68.47 E10.79304
G1 X63.521 Y68.095 E10.82169
G1 X63.904 Y67.845 E10.84451
G1 X64.253 Y67.727 E10.86289
G1 X64.451 Y67.71 E10.8728
G1 X64.938 Y67.776 E10.89732
G1 X65.682 Y67.991 E10.93596
G1 X66.366 Y68.223 E10.97199
G1 X67.026 Y68.48 E11.00733
G1 X67.714 Y68.784 E11.04485
G1 X68.107 Y69.018 E11.06767
G1 X68.346 Y69.256 E11.0845
G1 X68.485 Y69.498 E11.09842
G1 X68.648 Y70.074 E11.12829
G1 X68.727 Y70.587 E11.15418
G1 X68.893 Y71.343 E11.1928
G1 X69.192 Y72.03 E11.23018
G1 X69.488 Y72.454 E11.25598
G1 X69.852 Y72.819 E11.2817
G1 X70.487 Y73.222 E11.31922
G1 X71.206 Y73.456 E11.35694
G1 X71.829 Y73.524 E11.38821
G1 X72.519 Y73.521 E11.42263
G1 X73.058 Y73.53 E11.44953
G1 X73.455 Y73.609 E11.46972
G1 X73.717 Y73.735 E11.48422
G1 X73.949 Y73.929 E11.49931
G1 X74.21 Y74.249 E11.51991
G1 X74.593 Y74.821 E11.55426
G1 X74.968 Y75.44 E11.59037
G1 X75.318 Y76.077 E11.62663
G1 X75.67 Y76.796 E11.66657
G1 X75.812 Y77.275 E11.69149
G1 X75.808 Y77.645 E11.70995
G1 X75.672 Y78.059 E11.73169
G1 X74.981 Y79.286 E11.80195
G1 X74.76 Y79.874 E11.83329
G1 X74.658 Y80.438 E11.86188
G1 X74.658 Y80.946 E11.88722
G1 X74.746 Y81.456 E11.91304
G1 X75.033 Y82.151 E11.95056
G1 X75.484 Y82.76 E11.98837
G1 X75.993 Y83.229 E12.0229
G1 X76.399 Y83.562 E12.04909
G1 X76.756 Y83.886 E12.07315
G1 X76.975 Y84.191 E12.09188
G1 X77.095 Y84.542 E12.11039
G1 X77.117 Y85.005 E12.13351
G1 X77.031 Y85.809 E12.17385
G1 X76.922 Y86.52 E12.20974
G1 X76.788 Y87.2 E12.24432
G1 X76.612 Y87.915 E12.28105
G1 X76.444 Y88.362 E12.30488
G1 X76.238 Y88.652 E12.32262
G1 X75.915 Y88.896 E12.34282
G1 X75.508 Y89.076 E12.36502
G1 X74.894 Y89.288 E12.39743
G1 X74.285 Y89.544 E12.43039
G1 X73.666 Y89.958 E12.46754
G1 X73.293 Y90.327 E12.49372
G1 X72.888 Y90.964 E12.53137
G1 X72.66 Y91.687 E12.5692
G1 X72.612 Y92.441 E12.60689
G1 X72.691 Y93.064 E12.63822
G1 X72.797 Y93.63 E12.66695
G1 X72.866 Y94.182 E12.6947
G1 X72.84 Y94.489 E12.71007
G1 X72.748 Y94.757 E12.72421
G1 X72.41 Y95.225 E12.75301
G1 X71.847 Y95.767 E12.792
G1 X71.302 Y96.245 E12.82817
G1 X70.749 Y96.688 E12.86352
G1 X70.157 Y97.122 E12.90014
G1 X69.735 Y97.357 E12.92424
G1 X69.413 Y97.442 E12.94085
G1 X69.119 Y97.44 E12.95552
G1 X68.68 Y97.335 E12.97804
G1 X68.215 Y97.162 E13.00279
G1 X67.579 Y96.934 E13.0365
G1 X66.834 Y96.794 E13.07432
G1 X66.088 Y96.831 E13.11158
G1 X65.587 Y96.964 E13.13744
G1 X65.125 Y97.181 E13.16291
G1 X64.653 Y97.522 E13.19196
G1 X64.189 Y98.018 E13.22584
G0 F3600 X64.506 Y98.264
;TYPE:WALL-OUTER
G1 F1800 X64.142 Y98.836 E13.25967
G1 X63.803 Y99.441 E13.29427
G1 X63.482 Y99.874 E13.32116
G1 X63.16 Y100.144 E13.34212
G1 X62.764 Y100.323 E13.36381
G1 X62.217 Y100.421 E13.39153
G1 X61.476 Y100.47 E13.42858
G1 X60.746 Y100.486 E13.46501
G1 X60.016 Y100.47 E13.50144
G1 X59.232 Y100.417 E13.54064
G1 X58.712 Y100.318 E13.56705
G1 X58.315 Y100.134 E13.58888
G1 X58.015 Y99.882 E13.60843
G1 X57.697 Y99.452 E13.63511
G1 X57.44 Y99.003 E13.66092
G1 X57.117 Y98.45 E13.69287
G1 X56.69 Y97.926 E13.72659
G1 X56.163 Y97.526 E13.7596
G1 X55.767 Y97.341 E13.78141
G1 X55.343 Y97.228 E13.8033
G1 X54.683 Y97.197 E13.83626
G1 X54.017 Y97.32 E13.87005
G1 X53.287 Y97.588 E13.90885
G1 X52.746 Y97.775 E13.9374
G1 X52.26 Y97.853 E13.96196
G1 X51.771 Y97.789 E13.98657
G1 X51.287 Y97.565 E14.01317
G1 X51.094 Y97.442 E14.02459
G1 X50.505 Y97.011 E14.061
G1 X49.926 Y96.546 E14.09805
G1 X49.375 Y96.062 E14.13464
G1 X48.82 Y95.53 E14.173
G1 X48.48 Y95.114 E14.1998
G1 X48.29 Y94.706 E14.22226
G1 X48.226 Y94.327 E14.24143
G1 X48.259 Y93.781 E14.26872
G1 X48.407 Y93.001 E14.30833
G1 X48.477 Y92.429 E14.33708
G1 X48.435 Y91.761 E14.37047
G1 X48.321 Y91.336 E14.39243
G1 X48.136 Y90.939 E14.41428
G1 X47.736 Y90.417 E14.44709
G1 X47.213 Y90.008 E14.48021
G1 X46.809 Y89.798 E14.50293
G1 X46.079 Y89.534 E14.54165
G1 X45.532 Y89.325 E14.57087
G1 X45.054 Y89.022 E14.5991
G1 X44.737 Y88.635 E14.62406
G1 X44.526 Y88.128 E14.65146
G1 X44.492 Y88.011 E14.65754
G1 X44.316 Y87.296 E14.69427
G1 X44.175 Y86.586 E14.73039
G1 X44.143 Y86.368 E14.74138
G1 X44.062 Y85.851 E14.76749
G1 X43.974 Y85.015 E14.80943
G1 X44.007 Y84.432 E14.83856
G1 X44.136 Y84.044 E14.85896
G1 X44.393 Y83.666 E14.88176
G1 X44.754 Y83.317 E14.90681
G1 X45.175 Y82.978 E14.93378
G1 X45.709 Y82.492 E14.9698
G1 X46.107 Y81.953 E15.00323
G1 X46.293 Y81.554 E15.02519
G1 X46.406 Y81.131 E15.04704
G1 X46.441 Y80.634 E15.07189
G1 X46.359 Y80.039 E15.10186
G1 X46.123 Y79.407 E15.13552
G1 X45.759 Y78.774 E15.17195
G1 X45.506 Y78.334 E15.19727
G1 X45.319 Y77.868 E15.22232
G1 X45.261 Y77.437 E15.24402
G1 X45.33 Y76.983 E15.26693
G1 X45.495 Y76.551 E15.29
G1 X45.822 Y75.884 E15.32706
G1 X46.171 Y75.249 E15.36321
G1 X46.557 Y74.615 E15.40024
G1 X47.003 Y73.947 E15.44031
G1 X47.335 Y73.57 E15.46537
G1 X47.723 Y73.302 E15.4889
G1 X48.059 Y73.183 E15.50668
G1 X48.614 Y73.12 E15.53455
G1 X49.254 Y73.128 E15.56648
G1 X49.918 Y73.106 E15.59963
G1 X50.416 Y73.011 E15.62492
G1 X51.027 Y72.757 E15.65793
G1 X51.387 Y72.505 E15.67986
G1 X51.83 Y72.02 E15.71263
G1 X52.142 Y71.435 E15.7457
G1 X52.278 Y70.999 E15.76849
G1 X52.38 Y70.457 E15.79601
G1 X52.478 Y69.86 E15.82619
G1 X52.631 Y69.35 E15.85275
G1 X52.877 Y68.947 E15.87631
G1 X53.227 Y68.636 E15.89967
G1 X53.559 Y68.444 E15.9188
G1 X54.311 Y68.111 E15.95983
G1 X54.986 Y67.848 E15.99597
G1 X55.681 Y67.612 E16.03259
G1 X56.465 Y67.385 E16.07331
G1 X56.969 Y67.309 E16.09874
G1 X57.421 Y67.353 E16.1214
G1 X57.769 Y67.483 E16.13993
G1 X58.21 Y67.776 E16.16635
G1 X58.713 Y68.206 E16.19936
G1 X59.284 Y68.647 E16.23536
G1 X59.884 Y68.945 E16.26878
G1 X60.309 Y69.06 E16.29075
G1 X60.746 Y69.099 E16.31263
G1 X61.396 Y69.011 E16.34536
G1 X62.014 Y68.764 E16.37856
G1 X62.396 Y68.52 E16.40118
G1 X62.828 Y68.164 E16.4291
G1 X63.282 Y67.773 E16.459
G1 X63.727 Y67.482 E16.48552
G1 X64.173 Y67.332 E16.509
G1 X64.457 Y67.308 E16.52322
G1 X65.022 Y67.384 E16.55166
G1 X65.81 Y67.612 E16.59259
G1 X66.506 Y67.848 E16.62925
G1 X67.181 Y68.111 E16.66539
G1 X67.899 Y68.428 E16.70455
G1 X68.351 Y68.697 E16.73079
G1 X68.666 Y69.011 E16.75298
G1 X68.857 Y69.342 E16.77205
G1 X69.039 Y69.988 E16.80553
G1 X69.12 Y70.514 E16.83208
G1 X69.275 Y71.219 E16.8681
G1 X69.543 Y71.834 E16.90156
G1 X69.796 Y72.196 E16.9236
G1 X70.104 Y72.505 E16.94536
G1 X70.659 Y72.857 E16.97815
G1 X71.291 Y73.063 E17.01132
G1 X71.85 Y73.124 E17.03937
G1 X72.524 Y73.121 E17.073
G1 X73.097 Y73.131 E17.10159
G1 X73.584 Y73.227 E17.12635
G1 X73.937 Y73.397 E17.1459
G1 X74.234 Y73.646 E17.16524
G1 X74.527 Y74.004 E17.18832
G1 X74.935 Y74.614 E17.22493
G1 X75.319 Y75.247 E17.26187
G1 X75.669 Y75.884 E17.29813
G1 X76.046 Y76.654 E17.3409
G1 X76.213 Y77.218 E17.37025
G1 X76.207 Y77.711 E17.39484
G1 X76.039 Y78.222 E17.42168
G1 X75.687 Y78.848 E17.45751
G1 X75.345 Y79.456 E17.49231
G1 X75.147 Y79.981 E17.52031
G1 X75.058 Y80.474 E17.5453
G1 X75.058 Y80.912 E17.56715
G1 X75.133 Y81.344 E17.58903
G1 X75.384 Y81.953 E17.62189
G1 X75.783 Y82.491 E17.65531
G1 X76.256 Y82.927 E17.6874
G1 X76.66 Y83.259 E17.71349
G1 X77.058 Y83.62 E17.7403
G1 X77.335 Y84.005 E17.76396
G1 X77.492 Y84.467 E17.7883
G1 X77.518 Y85.015 E17.81567
G1 X77.484 Y85.34 E17.83197
G1 X77.429 Y85.852 E17.85767
G1 X77.316 Y86.585 E17.89467
G1 X77.176 Y87.296 E17.93082
G1 X76.993 Y88.039 E17.969
G1 X76.801 Y88.551 E17.99628
G1 X76.529 Y88.933 E18.01967
G1 X76.118 Y89.244 E18.04539
G1 X75.657 Y89.448 E18.07054
G1 X75.037 Y89.662 E18.10326
G1 X74.475 Y89.898 E18.13367
G1 X73.92 Y90.269 E18.16698
G1 X73.606 Y90.58 E18.18902
G1 X73.254 Y91.134 E18.22177
G1 X73.056 Y91.761 E18.25457
G1 X73.014 Y92.429 E18.28797
G1 X73.086 Y93.002 E18.31678
G1 X73.194 Y93.581 E18.34616
G1 X73.268 Y94.176 E18.37608
G1 X73.235 Y94.569 E18.39575
G1 X73.108 Y94.939 E18.41527
G1 X72.799 Y95.387 E18.44242
G1 X72.702 Y95.499 E18.44981
G1 X72.111 Y96.068 E18.49074
G1 X71.566 Y96.546 E18.52691
G1 X70.986 Y97.011 E18.564
G1 X70.374 Y97.46 E18.60187
G1 X69.887 Y97.731 E18.62967
G1 X69.465 Y97.842 E18.65144
G1 X69.071 Y97.84 E18.6711
G1 X68.563 Y97.718 E18.69716
G1 X68.078 Y97.538 E18.72297
G1 X67.474 Y97.321 E18.75499
G1 X66.807 Y97.196 E18.78885
G1 X66.15 Y97.228 E18.82166
G1 X65.725 Y97.341 E18.8436
G1 X65.329 Y97.527 E18.86543
G1 X64.919 Y97.824 E18.89069
G1 X64.506 Y98.264 E18.9208
G0 F3600 X64.399 Y98.432
G0 X63.979 Y98.164
G0 X57.09 Y89.993
G0 X53.431 Y83.659
G0 X53.933 Y83.659
G1 F1800 X57.34 Y89.559 E19.2607
G1 X64.152 Y89.559 E19.60055
G1 X67.559 Y83.659 E19.94046
G1 X64.152 Y77.759 E20.28036
G1 X57.34 Y77.759 E20.62021
G1 X53.933 Y83.659 E20.96012
G0 F3600 X54.033 Y83.832
G0 X53.6 Y84.082
G0 X53.021 Y83.659
;TYPE:SKIN
G1 F1800 X56.884 Y90.349 E21.34553
G1 X64.608 Y90.349 E21.73088
G1 X68.471 Y83.659 E22.11629
G1 X64.608 Y76.969 E22.50171
G1 X56.884 Y76.969 E22.88706
G1 X53.021 Y83.659 E23.27247
G0 F3600 X47.038 Y81.824
G1 F1800 X47.188 Y81.262 E23.30149
G1 X47.235 Y80.608 E23.3342
G1 X47.129 Y79.845 E23.37263
G1 X46.841 Y79.07 E23.41388
G1 X46.217 Y77.986 E23.47628
G1 X46.087 Y77.662 E23.4937
