;FLAVOR:Marlin
;TIME:792
;Filament used: 0.852152m
;Layer height: 0.2
;MINX:51.209
;MINY:100.35
;MINZ:0.3
;MAXX:70.509
;MAXY:119.65
;MAXZ:15.9
;Generated with Cura_SteamEngine 4.13.1
M140 S60
M105
M190 S60
M104 S210
M105
M109 S210
M82 ;absolute extrusion mode
; Aquila X2 Custom Start G-code
G92 E0 ; Reset Extruder
G28 ; Home all axes
G1 Z2.0 F3000 ; Move Z Axis up little to prevent scratching of Heat Bed
G1 X0.1 Y20 Z0.3 F5000.0 ; Move to start position
G1 X0.1 Y200.0 Z0.3 F1500.0 E15 ; Draw the first line
G1 X0.4 Y200.0 Z0.3 F5000.0 ; Move to side a little
G1 X0.4 Y20 Z0.3 F1500.0 E30 ; Draw the second line
G92 E0 ; Reset Extruder
G1 Z2.0 F3000 ; Move Z Axis up little to prevent scratching of Heat Bed
G1 X5 Y20 Z0.3 F5000.0 ; Move over to prevent blob squish
G92 E0
G92 E0
G1 F2400 E-3
;LAYER_COUNT:79
;LAYER:0
M107
G0 F3600 X58.087 Y105.2 Z0.3
;TYPE:SUPPORT
G1 F2400 E0
G1 F1800 X63.631 Y105.2 E0.27659
G1 X66.402 Y110 E0.5531
G1 X63.631 Y114.8 E0.82962
G1 X58.087 Y114.8 E1.10621
G1 X55.316 Y110 E1.38272
G1 X58.087 Y105.2 E1.65923
G0 F3600 X59.15 Y107.005
G1 F1800 X58.63 Y107.357 E1.69056
G1 X58.194 Y107.812 E1.722
G1 X57.88 Y108.25 E1.74889
G1 X57.619 Y108.818 E1.78007
G1 X57.46 Y109.38 E1.80921
G1 X57.409 Y109.979 E1.8392
G1 X57.458 Y110.603 E1.87043
G1 X57.621 Y111.188 E1.90073
G1 X57.864 Y111.709 E1.92941
G1 X58.216 Y112.219 E1.96033
G1 X58.677 Y112.68 E1.99285
G1 X59.139 Y112.983 E2.02042
G1 X59.671 Y113.242 E2.04994
G1 X60.262 Y113.402 E2.08048
G1 X60.871 Y113.453 E2.11097
G1 X61.468 Y113.395 E2.1409
G1 X62.045 Y113.245 E2.17064
G1 X62.597 Y112.981 E2.20117
G1 X63.113 Y112.616 E2.2327
G1 X63.505 Y112.212 E2.26078
G1 X63.847 Y111.735 E2.29007
G1 X64.116 Y111.146 E2.32237
G1 X64.257 Y110.557 E2.35259
G1 X64.31 Y110.024 E2.37931
G1 X64.262 Y109.412 E2.40994
G1 X64.093 Y108.797 E2.44176
G1 X63.854 Y108.277 E2.47031
G1 X63.485 Y107.76 E2.502
G1 X63.06 Y107.335 E2.53198
G1 X62.559 Y107.003 E2.56197
G1 X62.039 Y106.76 E2.5906
G1 X61.457 Y106.597 E2.62076
G1 X60.856 Y106.551 E2.65083
G1 X60.24 Y106.603 E2.68167
G1 X59.695 Y106.759 E2.70995
G1 X59.15 Y107.005 E2.73979
G0 F3600 X66.402 Y110
G1 F1800 X63.631 Y114.8 E3.0163
G1 X58.087 Y114.8 E3.29289
G1 X55.316 Y110 E3.5694
G1 X58.087 Y105.2 E3.84591
G1 X63.631 Y105.2 E4.12251
G1 X66.402 Y110 E4.39902
G0 F3600 X64.31 Y110.022
G1 F1800 X64.263 Y109.414 E4.42944
G1 X64.094 Y108.799 E4.46126
G1 X63.853 Y108.275 E4.49004
G1 X63.482 Y107.756 E4.52186
G1 X63.062 Y107.336 E4.5515
G1 X62.559 Y107.003 E4.58159
G1 X62.042 Y106.761 E4.61007
G1 X61.453 Y106.596 E4.64059
G1 X60.857 Y106.55 E4.67041
G1 X60.24 Y106.602 E4.7013
G1 X59.694 Y106.759 E4.72965
G1 X59.153 Y107.003 E4.75926
G1 X58.63 Y107.357 E4.79076
G1 X58.193 Y107.814 E4.82231
G1 X57.88 Y108.249 E4.84905
G1 X57.618 Y108.82 E4.88039
G1 X57.46 Y109.377 E4.90927
G1 X57.408 Y109.978 E4.93937
G1 X57.457 Y110.599 E4.97045
G1 X57.622 Y111.191 E5.00111
G1 X57.863 Y111.706 E5.02948
G1 X58.22 Y112.224 E5.06086
G1 X58.674 Y112.678 E5.0929
G1 X59.136 Y112.981 E5.12046
G1 X59.673 Y113.243 E5.15027
G1 X60.263 Y113.403 E5.18077
G1 X60.87 Y113.453 E5.21115
G1 X61.465 Y113.396 E5.24097
G1 X62.049 Y113.244 E5.27108
G1 X62.598 Y112.981 E5.30145
G1 X63.111 Y112.619 E5.33278
G1 X63.503 Y112.215 E5.36086
G1 X63.848 Y111.732 E5.39047
G1 X64.117 Y111.144 E5.42273
G1 X64.257 Y110.559 E5.45274
G1 X64.31 Y110.022 E5.47966
G1 F2400 E2.47966
;MESH:StopORingBase-Body.stl
G0 F3600 X63.769 Y115.041
G0 X64.31 Y116.3
G0 X61.529 Y118.272
G1 F2400 E5.47966
G0 F3600 X61.537 Y118.371
;TYPE:WALL-INNER
G1 F1800 X60.789 Y118.399 E5.51701
G1 X60.074 Y118.363 E5.55272
G1 X59.353 Y118.264 E5.58903
G1 X58.636 Y118.101 E5.62572
G1 X57.944 Y117.877 E5.662
G1 X57.27 Y117.595 E5.69845
G1 X56.628 Y117.257 E5.73465
G1 X56.012 Y116.861 E5.77119
G1 X55.421 Y116.404 E5.80846
G1 X54.893 Y115.914 E5.8444
G1 X54.405 Y115.377 E5.8806
G1 X53.966 Y114.802 E5.91669
G1 X53.567 Y114.173 E5.95385
G1 X53.235 Y113.529 E5.99
G1 X52.958 Y112.855 E6.02635
G1 X52.736 Y112.147 E6.06337
G1 X52.585 Y111.459 E6.09851
G1 X52.49 Y110.727 E6.13534
G1 X52.459 Y110 E6.17164
G1 X52.474 Y109.536 E6.1948
G1 X52.519 Y109.007 E6.22129
G1 X52.584 Y108.55 E6.24432
G1 X52.742 Y107.835 E6.28085
G1 X53.048 Y106.913 E6.32932
G1 X53.352 Y106.238 E6.36625
G1 X53.702 Y105.609 E6.40216
G1 X54.125 Y104.982 E6.4399
G1 X54.409 Y104.617 E6.46297
G1 X54.902 Y104.077 E6.49945
G1 X55.437 Y103.584 E6.53575
G1 X56.013 Y103.139 E6.57206
G1 X56.632 Y102.742 E6.60875
G1 X57.274 Y102.403 E6.64497
G1 X57.946 Y102.122 E6.68131
G1 X58.396 Y101.97 E6.705
G1 X58.88 Y101.839 E6.73002
G1 X59.831 Y101.665 E6.77825
G1 X60.553 Y101.606 E6.81439
G1 X61.28 Y101.611 E6.85067
G1 X62.006 Y101.679 E6.88704
G1 X62.721 Y101.809 E6.9233
G1 X63.434 Y102.004 E6.96018
G1 X64.116 Y102.256 E6.99645
G1 X64.758 Y102.56 E7.03189
G1 X65.407 Y102.937 E7.06934
G1 X65.599 Y103.066 E7.08088
G1 X66.013 Y103.367 E7.10641
G1 X66.549 Y103.82 E7.14143
G1 X67.082 Y104.357 E7.17917
G1 X67.529 Y104.893 E7.21399
G1 X67.953 Y105.501 E7.25097
G1 X68.313 Y106.126 E7.28696
G1 X68.423 Y106.348 E7.29932
G1 X68.628 Y106.805 E7.32431
G1 X68.874 Y107.485 E7.36038
G1 X69.107 Y108.417 E7.40831
G1 X69.216 Y109.167 E7.44612
G1 X69.257 Y109.878 E7.48165
G1 X69.216 Y110.828 E7.52909
G1 X69.148 Y111.347 E7.55521
G1 X69.061 Y111.818 E7.5791
G1 X68.876 Y112.51 E7.61484
G1 X68.53 Y113.42 E7.66341
G1 X68.081 Y114.286 E7.71208
G1 X67.539 Y115.093 E7.76058
G1 X67.067 Y115.659 E7.79735
G1 X66.747 Y115.989 E7.82028
G1 X66.193 Y116.487 E7.85744
G1 X65.406 Y117.063 E7.9061
G1 X64.987 Y117.314 E7.93047
G1 X64.542 Y117.547 E7.95553
G1 X64.115 Y117.744 E7.97899
G1 X63.431 Y117.996 E8.01536
G1 X62.718 Y118.191 E8.05223
G1 X62.266 Y118.281 E8.07523
G1 X61.537 Y118.371 E8.11187
G0 F3600 X61.529 Y118.272
G0 X57.203 Y116.334
G0 X53.484 Y110
G0 X53.584 Y110
G1 F1800 X57.222 Y116.3 E8.47482
G1 X64.496 Y116.3 E8.83772
G1 X68.134 Y110 E9.20067
G1 X64.496 Y103.7 E9.56362
G1 X57.222 Y103.7 E9.92652
G1 X53.584 Y110 E10.28947
G0 F3600 X54.046 Y110
;TYPE:WALL-OUTER
G1 F1800 X57.453 Y115.9 E10.62938
G1 X64.265 Y115.9 E10.96923
G1 X67.672 Y110 E11.30913
G1 X64.265 Y104.1 E11.64904
G1 X57.453 Y104.1 E11.98889
G1 X54.046 Y110 E12.32879
G0 F3600 X54.146 Y110.173
G0 X53.713 Y110.423
G0 X57.203 Y116.334
G0 X61.529 Y118.272
G0 X61.566 Y118.77
G1 F1800 X60.798 Y118.799 E12.36714
G1 X60.542 Y118.795 E12.37991
G1 X60.03 Y118.761 E12.40551
G1 X59.777 Y118.733 E12.41821
G1 X59.272 Y118.656 E12.4437
G1 X58.536 Y118.488 E12.48136
G1 X58.286 Y118.415 E12.49435
G1 X57.8 Y118.251 E12.51994
G1 X57.103 Y117.959 E12.55764
G1 X56.425 Y117.602 E12.59587
G1 X56.203 Y117.467 E12.60884
G1 X55.777 Y117.184 E12.63435
G1 X55.573 Y117.035 E12.64695
G1 X55.172 Y116.717 E12.67249
G1 X54.982 Y116.55 E12.68511
G1 X54.611 Y116.198 E12.71062
G1 X54.436 Y116.015 E12.72325
G1 X54.096 Y115.632 E12.74881
G1 X53.638 Y115.033 E12.78642
G1 X53.229 Y114.387 E12.82457
G1 X53.1 Y114.15 E12.83803
G1 X52.873 Y113.699 E12.86322
G1 X52.768 Y113.461 E12.8762
G1 X52.582 Y112.992 E12.90137
G1 X52.501 Y112.752 E12.91401
G1 X52.353 Y112.263 E12.9395
G1 X52.294 Y112.017 E12.95212
G1 X52.189 Y111.516 E12.97766
G1 X52.091 Y110.76 E13.01569
G1 X52.058 Y110.004 E13.05344
G1 X52.075 Y109.502 E13.0785
G1 X52.12 Y108.973 E13.10499
G1 X52.191 Y108.473 E13.13018
G1 X52.354 Y107.736 E13.16784
G1 X52.5 Y107.254 E13.19297
G1 X52.679 Y106.759 E13.21923
G1 X52.992 Y106.062 E13.25735
G1 X53.365 Y105.392 E13.2956
G1 X53.793 Y104.758 E13.33377
G1 X54.103 Y104.359 E13.35898
G1 X54.618 Y103.795 E13.39708
G1 X55.18 Y103.277 E13.43521
G1 X55.785 Y102.81 E13.47334
G1 X56.428 Y102.397 E13.51147
G1 X57.096 Y102.044 E13.54916
G1 X57.557 Y101.844 E13.57423
G1 X57.8 Y101.749 E13.58725
G1 X58.285 Y101.586 E13.61278
G1 X58.787 Y101.45 E13.63872
G1 X59.272 Y101.344 E13.66349
G1 X59.772 Y101.269 E13.68872
G1 X60.033 Y101.239 E13.70182
G1 X60.541 Y101.206 E13.72722
G1 X60.798 Y101.2 E13.74005
G1 X61.298 Y101.211 E13.765
G1 X62.059 Y101.282 E13.80313
G1 X62.815 Y101.42 E13.84147
G1 X63.547 Y101.62 E13.87933
G1 X63.795 Y101.705 E13.89241
G1 X64.274 Y101.889 E13.91801
G1 X64.503 Y101.991 E13.93051
G1 X64.956 Y102.212 E13.95566
G1 X65.617 Y102.596 E13.9938
G1 X65.834 Y102.742 E14.00685
G1 X66.248 Y103.043 E14.03238
G1 X66.446 Y103.201 E14.04502
G1 X66.825 Y103.53 E14.07006
G1 X67.015 Y103.711 E14.08315
G1 X67.37 Y104.079 E14.10866
G1 X67.537 Y104.269 E14.12128
G1 X67.853 Y104.658 E14.14628
G1 X68.291 Y105.286 E14.18448
G1 X68.427 Y105.51 E14.19756
G1 X68.672 Y105.949 E14.22264
G1 X68.788 Y106.184 E14.23571
G1 X68.998 Y106.651 E14.26126
G1 X69.254 Y107.36 E14.29887
G1 X69.389 Y107.847 E14.32408
G1 X69.503 Y108.359 E14.35025
G1 X69.614 Y109.12 E14.38862
G1 X69.657 Y109.878 E14.4265
G1 X69.651 Y110.379 E14.45149
G1 X69.613 Y110.88 E14.47656
G1 X69.545 Y111.399 E14.50267
G1 X69.452 Y111.903 E14.52824
G1 X69.257 Y112.632 E14.56589
G1 X69.09 Y113.106 E14.59096
G1 X68.891 Y113.593 E14.61721
G1 X68.671 Y114.052 E14.6426
G1 X68.429 Y114.483 E14.66726
G1 X68.145 Y114.929 E14.69364
G1 X67.86 Y115.333 E14.71831
G1 X67.536 Y115.729 E14.74384
G1 X67.37 Y115.921 E14.7565
G1 X67.019 Y116.283 E14.78166
G1 X66.45 Y116.794 E14.81981
G1 X66.032 Y117.116 E14.84613
G1 X65.625 Y117.398 E14.87084
G1 X65.186 Y117.661 E14.89637
G1 X64.724 Y117.903 E14.92239
G1 X64.264 Y118.115 E14.94766
G1 X63.549 Y118.379 E14.98568
G1 X62.818 Y118.579 E15.02349
G1 X62.325 Y118.677 E15.04857
G1 X61.566 Y118.77 E15.08672
G0 F3600 X61.366 Y118.777
G0 X61.509 Y117.981
;TYPE:SKIN
G1 F1800 X60.795 Y118.009 E15.12237
G1 X60.1 Y117.973 E15.15709
G1 X59.423 Y117.88 E15.19118
G1 X58.747 Y117.727 E15.22576
G1 X58.078 Y117.51 E15.26085
G1 X57.437 Y117.242 E15.29551
G1 X56.825 Y116.92 E15.33001
G1 X56.229 Y116.537 E15.36536
G1 X55.679 Y116.111 E15.40007
G1 X55.177 Y115.645 E15.43424
G1 X54.694 Y115.114 E15.47005
G1 X54.287 Y114.581 E15.50351
G1 X53.91 Y113.986 E15.53865
G1 X53.586 Y113.358 E15.5739
G1 X53.323 Y112.717 E15.60847
G1 X53.113 Y112.046 E15.64355
G1 X52.968 Y111.384 E15.67736
G1 X52.88 Y110.707 E15.71142
G1 X52.849 Y109.983 E15.74757
G1 X52.905 Y109.062 E15.79361
G1 X52.97 Y108.605 E15.81664
G1 X53.116 Y107.946 E15.85031
G1 X53.413 Y107.05 E15.8974
G1 X53.697 Y106.42 E15.93188
G1 X54.03 Y105.821 E15.96607
G1 X54.441 Y105.21 E16.00281
G1 X54.711 Y104.864 E16.02471
G1 X55.174 Y104.358 E16.05892
G1 X55.702 Y103.871 E16.09476
G1 X56.23 Y103.463 E16.12805
G1 X56.828 Y103.079 E16.16351
G1 X57.441 Y102.756 E16.19807
G1 X58.084 Y102.487 E16.23285
G1 X58.958 Y102.221 E16.27843
G1 X59.892 Y102.051 E16.32579
G1 X60.559 Y101.996 E16.35918
G1 X61.263 Y102.001 E16.3943
G1 X61.947 Y102.065 E16.42858
G1 X62.64 Y102.191 E16.46372
G1 X63.313 Y102.374 E16.49851
G1 X63.96 Y102.614 E16.53294
G1 X64.591 Y102.913 E16.56778
G1 X65.189 Y103.261 E16.6023
G1 X65.369 Y103.382 E16.61312
G1 X65.783 Y103.683 E16.63865
G1 X66.283 Y104.106 E16.67133
G1 X66.792 Y104.619 E16.70738
G1 X67.223 Y105.136 E16.74096
G1 X67.623 Y105.708 E16.77578
G1 X67.969 Y106.31 E16.81043
G1 X68.261 Y106.938 E16.84498
G1 X68.503 Y107.607 E16.88047
G1 X68.722 Y108.484 E16.92557
G1 X68.826 Y109.19 E16.96117
G1 X68.866 Y109.884 E16.99585
G1 X68.826 Y110.805 E17.04184
G1 X68.681 Y111.73 E17.08856
G1 X68.505 Y112.387 E17.12249
G1 X68.172 Y113.261 E17.16915
G1 X67.745 Y114.087 E17.21554
G1 X67.227 Y114.859 E17.26192
G1 X66.775 Y115.399 E17.29706
G1 X66.476 Y115.708 E17.31851
G1 X65.94 Y116.19 E17.35447
G1 X65.205 Y116.728 E17.39991
G1 X64.378 Y117.193 E17.44725
G1 X63.965 Y117.384 E17.46995
G1 X63.31 Y117.626 E17.50479
G1 X62.624 Y117.812 E17.54025
G1 X62.208 Y117.895 E17.56141
G1 X61.509 Y117.981 E17.59655
G0 F3600 X64.721 Y116.69
G1 F1800 X68.584 Y110 E17.98196
G1 X64.721 Y103.31 E18.36737
G1 X56.997 Y103.31 E18.75272
G1 X53.134 Y110 E19.13814
G1 X56.997 Y116.69 E19.52355
G1 X64.721 Y116.69 E19.9089
G0 F3600 X57.203 Y116.334
G0 X56.103 Y115.5
G1 F1800 X53.655 Y113.052 E20.08162
G1 X53.585 Y112.982
G0 F3600 X54.556 Y112.821
G1 F1800 X53.16 Y111.426 E20.18008
G0 F3600 X53.783 Y111.483
G1 F1800 X53.069 Y110.768 E20.23049
G1 X52.999 Y110.698
G0 F3600 X53.111 Y109.68
G1 F1800 X53.051 Y109.619 E20.23476
G0 F3600 X53.318 Y109.321
G1 F1800 X53.083 Y109.086 E20.25134
G0 F3600 X53.525 Y108.963
G1 F1800 X53.155 Y108.592 E20.27748
G0 F3600 X53.259 Y108.13
G1 F1800 X53.732 Y108.603 E20.31085
G0 F3600 X53.939 Y108.245
G1 F1800 X53.388 Y107.694 E20.34973
G0 F3600 X53.529 Y107.269
G1 F1800 X54.146 Y107.886 E20.39326
G0 F3600 X54.353 Y107.528
G1 F1800 X53.692 Y106.866 E20.43994
G0 F3600 X53.869 Y106.478
G1 F1800 X54.561 Y107.169 E20.48872
G0 F3600 X54.767 Y106.81
G1 F1800 X54.071 Y106.114 E20.53783
G0 F3600 X54.285 Y105.762
G1 F1800 X54.974 Y106.452 E20.58648
G0 F3600 X55.181 Y106.093
G1 F1800 X54.512 Y105.423 E20.63372
G0 F3600 X54.754 Y105.1
G1 F1800 X55.389 Y105.735 E20.67852
G0 F3600 X55.596 Y105.376
G1 F1800 X55.016 Y104.796 E20.71944
G0 F3600 X55.287 Y104.501
G1 F1800 X55.802 Y105.017 E20.75581
G0 F3600 X56.009 Y104.658
G1 F1800 X55.58 Y104.228 E20.78612
G0 F3600 X55.878 Y103.961
G1 F1800 X56.217 Y104.3 E20.81003
G0 F3600 X56.424 Y103.941
G1 F1800 X56.197 Y103.714 E20.82605
G0 F3600 X56.531 Y103.482
G1 F1800 X56.631 Y103.583 E20.83314
G0 F3600 X57.243 Y103.063
G1 F1800 X57.308 Y103.129 E20.83776
G0 F3600 X57.62 Y102.875
G1 F1800 X57.874 Y103.129 E20.85568
G0 F3600 X58.02 Y102.709
G1 F1800 X58.44 Y103.129 E20.88532
G0 F3600 X58.442 Y102.565
G1 F1800 X59.005 Y103.129 E20.92507
G0 F3600 X59.571 Y103.129
G1 F1800 X58.876 Y102.434 E20.97411
G0 F3600 X59.342 Y102.334
G1 F1800 X60.137 Y103.129 E21.0302
G0 F3600 X60.702 Y103.129
G1 F1800 X59.82 Y102.246 E21.09247
G0 F3600 X60.333 Y102.194
G1 F1800 X61.268 Y103.129 E21.15844
G0 F3600 X61.834 Y103.129
G1 F1800 X60.883 Y102.178 E21.22554
G0 F3600 X61.471 Y102.2
G1 F1800 X62.4 Y103.129 E21.29108
G0 F3600 X62.965 Y103.129
G1 F1800 X62.114 Y102.278 E21.35112
G0 F3600 X62.83 Y102.428
G1 F1800 X63.531 Y103.129 E21.40058
G0 F3600 X63.665 Y102.697
G1 F1800 X64.097 Y103.129 E21.43106
G0 F3600 X65.043 Y103.51
G1 F1800 X67.652 Y106.119 E21.61514
G1 X67.722 Y106.189
G0 F3600 X66.591 Y106.189
G1 F1800 X68.421 Y108.019 E21.74426
G0 F3600 X68.578 Y108.742
G1 F1800 X67.364 Y107.528 E21.82991
G1 X67.294 Y107.458
G0 F3600 X68.164 Y107.196
G1 F1800 X65.817 Y104.849 E21.99551
G1 X65.747 Y104.779
G0 F3600 X68.138 Y108.867
G1 F1800 X68.656 Y109.385 E22.03205
G0 F3600 X68.552 Y110.413
G1 F1800 X68.658 Y110.519 E22.03953
G0 F3600 X68.345 Y110.771
G1 F1800 X68.607 Y111.034 E22.05805
G0 F3600 X68.138 Y111.13
G1 F1800 X68.531 Y111.523 E22.08578
G0 F3600 X68.426 Y111.984
G1 F1800 X67.931 Y111.488 E22.12074
G0 F3600 X67.723 Y111.847
G1 F1800 X68.298 Y112.422 E22.16131
G0 F3600 X68.142 Y112.831
G1 F1800 X67.516 Y112.205 E22.20548
G0 F3600 X67.309 Y112.564
G1 F1800 X67.981 Y113.236 E22.25289
G0 F3600 X67.788 Y113.609
G1 F1800 X67.103 Y112.923 E22.30126
G0 F3600 X66.895 Y113.282
G1 F1800 X67.595 Y113.982 E22.35065
G0 F3600 X67.37 Y114.322
G1 F1800 X66.688 Y113.64 E22.39877
G0 F3600 X66.481 Y113.999
G1 F1800 X67.143 Y114.66 E22.44544
G0 F3600 X66.893 Y114.976
G1 F1800 X66.274 Y114.357 E22.48911
G0 F3600 X66.067 Y114.716
G1 F1800 X66.635 Y115.284 E22.52919
G0 F3600 X66.357 Y115.571
G1 F1800 X65.859 Y115.074 E22.56429
G0 F3600 X65.652 Y115.433
G1 F1800 X66.058 Y115.838 E22.5929
G0 F3600 X65.755 Y116.101
G1 F1800 X65.445 Y115.791 E22.61477
G0 F3600 X65.238 Y116.15
G1 F1800 X65.428 Y116.34 E22.62818
G0 F3600 X65.101 Y116.578
G1 F1800 X65.031 Y116.508 E22.63312
G0 F3600 X64.377 Y116.985
G1 F1800 X64.26 Y116.869 E22.64134
G0 F3600 X63.995 Y117.169
G1 F1800 X63.694 Y116.869 E22.66254
G0 F3600 X63.589 Y117.329
G1 F1800 X63.129 Y116.869 E22.69499
G0 F3600 X62.563 Y116.869
G1 F1800 X63.17 Y117.476 E22.73782
G0 F3600 X62.725 Y117.596
G1 F1800 X61.997 Y116.869 E22.78915
G0 F3600 X61.432 Y116.869
G1 F1800 X62.262 Y117.699 E22.84771
G0 F3600 X61.763 Y117.766
G1 F1800 X60.866 Y116.869 E22.911
G0 F3600 X60.3 Y116.869
G1 F1800 X61.241 Y117.809 E22.97736
G0 F3600 X60.687 Y117.821
G1 F1800 X59.734 Y116.869 E23.04456
G0 F3600 X59.169 Y116.869
G1 F1800 X60.088 Y117.788 E23.1094
G0 F3600 X59.43 Y117.695
