;FLAVOR:Marlin
;TIME:681
;Filament used: 0.667385m
;Layer height: 0.2
;MINX:138.218
;MINY:99.738
;MINZ:0.3
;MAXX:158.501
;MAXY:120.262
;MAXZ:13.1
;Generated with Cura_SteamEngine 4.13.1
M140 S60
M105
M190 S60
M104 S210
M105
M109 S210
M82 ;absolute extrusion mode
; Aquila X2 Custom Start G-code
G92 E0 ; Reset Extruder
G28 ; Home all axes
G1 Z2.0 F3000 ; Move Z Axis up little to prevent scratching of Heat Bed
G1 X0.1 Y20 Z0.3 F5000.0 ; Move to start position
G1 X0.1 Y200.0 Z0.3 F1500.0 E15 ; Draw the first line
G1 X0.4 Y200.0 Z0.3 F5000.0 ; Move to side a little
G1 X0.4 Y20 Z0.3 F1500.0 E30 ; Draw the second line
G92 E0 ; Reset Extruder
G1 Z2.0 F3000 ; Move Z Axis up little to prevent scratching of Heat Bed
G1 X5 Y20 Z0.3 F5000.0 ; Move over to prevent blob squish
G92 E0
G92 E0
G1 F2400 E-3
;LAYER_COUNT:65
;LAYER:0
M107
;MESH:StopORingKnob-Body.stl
G0 F3600 X144.251 Y106.05 Z0.3
;TYPE:WALL-INNER
G1 F2400 E0
G1 F1800 X144.251 Y113.95 E0.39413
G1 X152.151 Y113.95 E0.78827
G1 X152.151 Y106.05 E1.1824
G1 X144.251 Y106.05 E1.57653
G0 F3600 X144.181 Y105.98
G0 X144.223 Y113.978
G0 X151.386 Y118.01
G0 X151.482 Y118.037
G1 F1800 X151.388 Y118.869 E1.6183
G1 X151.294 Y119.117 E1.63153
G1 X151.098 Y119.364 E1.64727
G1 X150.816 Y119.539 E1.66382
G1 X150.32 Y119.672 E1.68944
G1 X149.506 Y119.813 E1.73066
G1 X148.998 Y119.859 E1.75611
G1 X148.722 Y119.806 E1.77013
G1 X148.475 Y119.678 E1.78401
G1 X148.288 Y119.493 E1.79713
G1 X147.875 Y118.686 E1.84236
G1 X147.555 Y118.357 E1.86526
G1 X147.104 Y118.101 E1.89113
G1 X146.529 Y117.987 E1.92037
G1 X145.944 Y118.075 E1.94989
G1 X145.426 Y118.351 E1.97917
G1 X145.057 Y118.741 E2.00596
G1 X144.805 Y118.93 E2.02167
G1 X144.56 Y119.018 E2.03466
G1 X144.285 Y119.033 E2.0484
G1 X143.95 Y118.94 E2.06575
G1 X143.246 Y118.57 E2.10542
G1 X142.581 Y118.148 E2.14472
G1 X142.366 Y117.947 E2.1594
G1 X142.245 Y117.748 E2.17102
G1 X142.168 Y117.437 E2.187
G1 X142.189 Y117.149 E2.20141
G1 X142.342 Y116.654 E2.22726
G1 X142.367 Y116.207 E2.2496
G1 X142.249 Y115.703 E2.27542
G1 X141.944 Y115.202 E2.30468
G1 X141.489 Y114.836 E2.33381
G1 X141.066 Y114.667 E2.35654
G1 X140.569 Y114.616 E2.38147
G1 X140.072 Y114.679 E2.40646
G1 X139.746 Y114.624 E2.42295
G1 X139.514 Y114.504 E2.43599
G1 X139.286 Y114.268 E2.45236
G1 X139.046 Y113.767 E2.48007
G1 X138.765 Y112.993 E2.52115
G1 X138.638 Y112.541 E2.54458
G1 X138.629 Y112.248 E2.5592
G1 X138.7 Y111.991 E2.5725
G1 X138.879 Y111.722 E2.58862
G1 X139.071 Y111.562 E2.60109
G1 X139.491 Y111.286 E2.62617
G1 X139.821 Y110.884 E2.65211
G1 X140.015 Y110.403 E2.67799
G1 X140.06 Y109.882 E2.70408
G1 X139.922 Y109.312 E2.73334
G1 X139.602 Y108.825 E2.76241
G1 X138.904 Y108.302 E2.80592
G1 X138.735 Y108.079 E2.81988
G1 X138.634 Y107.777 E2.83577
G1 X138.638 Y107.456 E2.85179
G1 X138.769 Y106.994 E2.87574
G1 X139.048 Y106.228 E2.91642
G1 X139.237 Y105.809 E2.93935
G1 X139.449 Y105.549 E2.95609
G1 X139.718 Y105.387 E2.97175
G1 X139.986 Y105.325 E2.98548
G1 X140.855 Y105.373 E3.0289
G1 X141.355 Y105.234 E3.05479
G1 X141.833 Y104.911 E3.08357
G1 X142.123 Y104.551 E3.10663
G1 X142.335 Y104.011 E3.13557
G1 X142.364 Y103.485 E3.16186
G1 X142.204 Y102.913 E3.19149
G1 X142.168 Y102.564 E3.20899
G1 X142.247 Y102.247 E3.22529
G1 X142.393 Y102.018 E3.23884
G1 X142.576 Y101.855 E3.25107
G1 X143.25 Y101.428 E3.29087
G1 X143.951 Y101.06 E3.33037
G1 X144.246 Y100.971 E3.34575
G1 X144.463 Y100.967 E3.35657
G1 X144.744 Y101.042 E3.37108
G1 X144.985 Y101.193 E3.38527
G1 X145.375 Y101.605 E3.41358
G1 X145.873 Y101.9 E3.44245
G1 X146.448 Y102.012 E3.47168
G1 X146.974 Y101.943 E3.49815
G1 X147.501 Y101.685 E3.52742
G1 X147.915 Y101.262 E3.55695
G1 X148.142 Y100.763 E3.5843
G1 X148.304 Y100.488 E3.60022
G1 X148.548 Y100.275 E3.61638
G1 X148.76 Y100.181 E3.62795
G1 X149.042 Y100.141 E3.64216
G1 X149.512 Y100.188 E3.66573
G1 X150.329 Y100.331 E3.70711
G1 X150.782 Y100.447 E3.73044
G1 X151.032 Y100.581 E3.74459
G1 X151.245 Y100.804 E3.75997
G1 X151.38 Y101.105 E3.77643
G1 X151.443 Y101.819 E3.81219
G1 X151.663 Y102.364 E3.84151
G1 X152.051 Y102.804 E3.87078
G1 X152.508 Y103.068 E3.89711
G1 X153.081 Y103.184 E3.92628
G1 X153.603 Y103.12 E3.95252
G1 X154.148 Y102.86 E3.98264
G1 X154.475 Y102.768 E3.99959
G1 X154.794 Y102.788 E4.01553
G1 X155.041 Y102.887 E4.02881
G1 X155.253 Y103.054 E4.04227
G1 X155.782 Y103.635 E4.08148
G1 X156.269 Y104.266 E4.12124
G1 X156.412 Y104.565 E4.13778
G1 X156.447 Y104.878 E4.15349
G1 X156.376 Y105.182 E4.16907
G1 X155.913 Y105.877 E4.21073
G1 X155.762 Y106.376 E4.23674
G1 X155.764 Y106.897 E4.26273
G1 X155.954 Y107.454 E4.29209
G1 X156.322 Y107.918 E4.32164
G1 X156.819 Y108.227 E4.35084
G1 X157.391 Y108.366 E4.3802
G1 X157.693 Y108.52 E4.39712
G1 X157.909 Y108.748 E4.41279
G1 X158.035 Y109.031 E4.42824
G1 X158.092 Y109.599 E4.45672
G1 X158.092 Y110.403 E4.49683
G1 X158.057 Y110.877 E4.52054
G1 X157.95 Y111.185 E4.53681
G1 X157.75 Y111.435 E4.55278
G1 X157.521 Y111.583 E4.56639
G1 X156.815 Y111.776 E4.6029
G1 X156.322 Y112.082 E4.63185
G1 X155.954 Y112.546 E4.6614
G1 X155.764 Y113.103 E4.69076
G1 X155.762 Y113.625 E4.7168
G1 X155.914 Y114.126 E4.74292
G1 X156.236 Y114.576 E4.77053
G1 X156.403 Y114.893 E4.7884
G1 X156.448 Y115.196 E4.80368
G1 X156.403 Y115.468 E4.81744
G1 X156.272 Y115.729 E4.83201
G1 X155.773 Y116.376 E4.87277
G1 X155.252 Y116.948 E4.91137
G1 X155.055 Y117.103 E4.92388
G1 X154.757 Y117.218 E4.93982
G1 X154.44 Y117.228 E4.95564
G1 X154.102 Y117.117 E4.97339
G1 X153.664 Y116.898 E4.99782
G1 X153.087 Y116.816 E5.02689
G1 X152.574 Y116.911 E5.05292
G1 X152.111 Y117.151 E5.07894
G1 X151.706 Y117.57 E5.10801
G1 X151.482 Y118.037 E5.13385
G0 F3600 X151.867 Y118.159
;TYPE:WALL-OUTER
G1 F1800 X151.81 Y118.496 E5.15091
G1 X151.783 Y118.953 E5.17375
G1 X151.646 Y119.317 E5.19315
G1 X151.367 Y119.668 E5.21552
G1 X150.978 Y119.909 E5.23835
G1 X150.402 Y120.063 E5.2681
G1 X149.561 Y120.209 E5.31068
G1 X148.976 Y120.262 E5.33999
G1 X148.589 Y120.188 E5.35964
G1 X148.239 Y120.006 E5.37932
G1 X147.96 Y119.73 E5.3989
G1 X147.75 Y119.317 E5.42202
G1 X147.547 Y118.922 E5.44418
G1 X147.308 Y118.677 E5.46125
G1 X146.963 Y118.481 E5.48105
G1 X146.519 Y118.393 E5.50363
G1 X146.071 Y118.46 E5.52623
G1 X145.672 Y118.673 E5.54879
G1 X145.326 Y119.039 E5.57392
G1 X144.999 Y119.285 E5.59434
G1 X144.64 Y119.414 E5.61337
G1 X144.241 Y119.435 E5.6333
G1 X143.801 Y119.313 E5.65608
G1 X143.044 Y118.916 E5.69873
G1 X142.337 Y118.467 E5.74051
G1 X142.051 Y118.2 E5.76003
G1 X141.872 Y117.905 E5.77725
G1 X141.764 Y117.471 E5.79956
G1 X141.793 Y117.075 E5.81937
G1 X141.945 Y116.583 E5.84506
G1 X141.964 Y116.242 E5.8621
G1 X141.874 Y115.856 E5.88187
G1 X141.639 Y115.47 E5.90442
G1 X141.285 Y115.185 E5.92709
G1 X140.97 Y115.059 E5.94402
G1 X140.574 Y115.019 E5.96388
G1 X140.063 Y115.083 E5.98957
G1 X139.618 Y115.009 E6.01207
G1 X139.274 Y114.83 E6.03142
G1 X138.952 Y114.498 E6.0545
G1 X138.677 Y113.923 E6.08629
G1 X138.385 Y113.12 E6.12892
G1 X138.239 Y112.601 E6.15582
G1 X138.227 Y112.201 E6.17579
G1 X138.332 Y111.823 E6.19536
G1 X138.578 Y111.452 E6.21757
G1 X138.834 Y111.239 E6.23418
G1 X139.22 Y110.985 E6.25723
G1 X139.473 Y110.677 E6.27712
G1 X139.622 Y110.309 E6.29693
G1 X139.656 Y109.913 E6.31676
G1 X139.55 Y109.474 E6.33929
G1 X139.301 Y109.095 E6.36191
G1 X139.039 Y108.878 E6.37888
G1 X138.624 Y108.595 E6.40394
G1 X138.377 Y108.268 E6.42439
G1 X138.233 Y107.839 E6.44697
G1 X138.239 Y107.398 E6.46897
G1 X138.388 Y106.87 E6.49634
G1 X138.679 Y106.072 E6.53872
G1 X138.892 Y105.6 E6.56455
G1 X139.184 Y105.241 E6.58764
G1 X139.566 Y105.011 E6.60989
G1 X139.96 Y104.921 E6.63005
G1 X140.46 Y104.97 E6.65511
G1 X140.802 Y104.973 E6.67218
G1 X141.185 Y104.866 E6.69202
G1 X141.559 Y104.613 E6.71454
G1 X141.773 Y104.348 E6.73154
G1 X141.939 Y103.925 E6.75421
G1 X141.961 Y103.529 E6.77399
G1 X141.809 Y102.987 E6.80208
G1 X141.763 Y102.535 E6.82474
G1 X141.875 Y102.088 E6.84773
G1 X142.085 Y101.758 E6.86725
G1 X142.337 Y101.533 E6.8841
G1 X143.048 Y101.082 E6.92611
G1 X143.799 Y100.688 E6.96842
G1 X144.184 Y100.572 E6.98848
G1 X144.513 Y100.566 E7.0049
G1 X144.905 Y100.67 E7.02513
G1 X145.241 Y100.881 E7.04493
G1 X145.627 Y101.29 E7.07298
G1 X146.017 Y101.521 E7.0956
G1 X146.46 Y101.607 E7.11811
G1 X146.857 Y101.555 E7.13809
G1 X147.263 Y101.356 E7.16064
G1 X147.58 Y101.032 E7.18326
G1 X147.788 Y100.576 E7.20826
G1 X147.991 Y100.231 E7.22823
G1 X148.332 Y99.933 E7.25083
G1 X148.648 Y99.793 E7.26807
G1 X149.034 Y99.738 E7.28752
G1 X149.566 Y99.791 E7.3142
G1 X150.407 Y99.938 E7.35679
G1 X150.929 Y100.072 E7.38368
G1 X151.277 Y100.259 E7.40339
G1 X151.582 Y100.578 E7.42541
G1 X151.77 Y100.995 E7.44823
G1 X151.813 Y101.332 E7.46518
G1 X151.838 Y101.729 E7.48502
G1 X152.008 Y102.151 E7.50772
G1 X152.308 Y102.49 E7.5303
G1 X152.652 Y102.689 E7.55013
G1 X153.097 Y102.779 E7.57278
G1 X153.49 Y102.731 E7.59253
G1 X154.007 Y102.484 E7.62112
G1 X154.432 Y102.365 E7.64314
G1 X154.883 Y102.393 E7.66568
G1 X155.244 Y102.538 E7.68509
G1 X155.525 Y102.758 E7.7029
G1 X156.088 Y103.377 E7.74464
G1 X156.612 Y104.055 E7.78739
G1 X156.803 Y104.456 E7.80955
G1 X156.852 Y104.9 E7.83184
G1 X156.749 Y105.339 E7.85433
G1 X156.536 Y105.685 E7.8746
G1 X156.277 Y106.054 E7.8971
G1 X156.162 Y106.434 E7.9169
G1 X156.164 Y106.83 E7.93666
G1 X156.31 Y107.26 E7.95932
G1 X156.592 Y107.615 E7.98193
G1 X156.976 Y107.853 E8.00447
G1 X157.53 Y107.988 E8.03292
G1 X157.937 Y108.195 E8.0557
G1 X158.246 Y108.522 E8.07815
G1 X158.427 Y108.926 E8.10023
G1 X158.492 Y109.579 E8.13297
G1 X158.492 Y110.425 E8.17518
G1 X158.452 Y110.958 E8.20185
G1 X158.306 Y111.38 E8.22412
G1 X158.021 Y111.736 E8.24688
G1 X157.686 Y111.953 E8.26679
G1 X156.976 Y112.147 E8.30351
G1 X156.592 Y112.385 E8.32605
G1 X156.31 Y112.74 E8.34867
G1 X156.164 Y113.17 E8.37132
G1 X156.162 Y113.566 E8.39108
G1 X156.278 Y113.947 E8.41095
G1 X156.577 Y114.365 E8.43659
G1 X156.789 Y114.768 E8.45931
G1 X156.854 Y115.199 E8.48105
G1 X156.788 Y115.593 E8.50098
G1 X156.612 Y115.945 E8.52062
G1 X156.085 Y116.627 E8.56362
G1 X155.525 Y117.242 E8.60512
G1 X155.256 Y117.454 E8.6222
G1 X154.837 Y117.616 E8.64461
G1 X154.382 Y117.63 E8.66733
G1 X153.948 Y117.487 E8.69012
G1 X153.543 Y117.285 E8.7127
G1 X153.095 Y117.221 E8.73528
G1 X152.705 Y117.293 E8.75507
G1 X152.353 Y117.476 E8.77486
G1 X152.039 Y117.801 E8.7974
G1 X151.867 Y118.159 E8.81722
G0 F3600 X151.834 Y118.356
G0 X151.352 Y118.301
G0 X144.223 Y113.978
G0 X144.223 Y106.022
G0 X144.651 Y106.45
G1 F1800 X144.651 Y113.55 E9.17144
G1 X151.751 Y113.55 E9.52566
G1 X151.751 Y106.45 E9.87988
G1 X144.651 Y106.45 E10.2341
G0 F3600 X144.651 Y106.65
G0 X144.151 Y106.65
G0 X143.861 Y105.66
;TYPE:SKIN
G1 F1800 X143.861 Y114.34 E10.66715
G1 X152.541 Y114.34 E11.1002
G1 X152.541 Y105.66 E11.53324
G1 X143.861 Y105.66 E11.96629
G0 F3600 X142.464 Y104.75
G1 F1800 X142.721 Y104.095 E12.00139
G1 X142.757 Y103.442 E12.03402
G1 X142.588 Y102.838 E12.06531
G1 X142.563 Y102.593 E12.0776
G1 X142.609 Y102.405 E12.08725
G1 X142.806 Y102.171 E12.10251
G1 X143.453 Y101.762 E12.1407
G1 X144.099 Y101.423 E12.1771
G1 X144.415 Y101.359 E12.19318
G1 X144.589 Y101.405 E12.20216
G1 X144.738 Y101.498 E12.21093
G1 X145.129 Y101.913 E12.23937
G1 X145.732 Y102.27 E12.27433
G1 X146.436 Y102.407 E12.31012
G1 X147.089 Y102.321 E12.34298
G1 X147.733 Y102.005 E12.37876
G1 X148.242 Y101.486 E12.41503
G1 X148.49 Y100.942 E12.44486
G1 X148.608 Y100.741 E12.45649
G1 X148.87 Y100.559 E12.4724
G1 X149.05 Y100.533 E12.48148
G1 X149.461 Y100.574 E12.50208
G1 X150.241 Y100.712 E12.5416
G1 X150.643 Y100.815 E12.5623
G1 X150.792 Y100.894 E12.57072
G1 X150.918 Y101.026 E12.57982
G1 X150.998 Y101.203 E12.58951
G1 X151.059 Y101.911 E12.62497
G1 X151.326 Y102.572 E12.66053
G1 X151.801 Y103.11 E12.69634
G1 X152.368 Y103.438 E12.72902
G1 X153.066 Y103.578 E12.76453
G1 X153.714 Y103.5 E12.7971
G1 X154.284 Y103.227 E12.82863
G1 X154.515 Y103.162 E12.8406
G1 X154.71 Y103.174 E12.85035
G1 X154.987 Y103.341 E12.86648
G1 X155.489 Y103.893 E12.90371
G1 X155.936 Y104.472 E12.9402
G1 X156.031 Y104.671 E12.9512
G1 X156.052 Y104.855 E12.96044
G1 X156.012 Y105.026 E12.9692
G1 X155.556 Y105.709 E13.01018
G1 X155.372 Y106.319 E13.04196
G1 X155.374 Y106.963 E13.07409
G1 X155.607 Y107.643 E13.10995
G1 X156.059 Y108.214 E13.14629
G1 X156.667 Y108.592 E13.182
G1 X157.257 Y108.735 E13.21229
G1 X157.456 Y108.836 E13.22343
G1 X157.579 Y108.966 E13.23235
G1 X157.653 Y109.133 E13.24147
G1 X157.702 Y109.618 E13.26579
G1 X157.702 Y110.403 E13.30495
G1 X157.673 Y110.792 E13.32441
G1 X157.602 Y110.996 E13.33519
G1 X157.487 Y111.14 E13.34438
G1 X157.358 Y111.223 E13.35204
G1 X156.657 Y111.415 E13.3883
G1 X156.059 Y111.786 E13.42341
G1 X155.607 Y112.357 E13.45974
G1 X155.374 Y113.037 E13.4956
G1 X155.372 Y113.682 E13.52778
G1 X155.559 Y114.301 E13.56004
G1 X155.901 Y114.777 E13.58928
G1 X156.027 Y115.016 E13.60276
G1 X156.054 Y115.195 E13.61179
G1 X156.029 Y115.342 E13.61923
G1 X155.937 Y115.526 E13.62949
G1 X155.48 Y116.118 E13.66681
G1 X154.986 Y116.661 E13.70343
G1 X154.86 Y116.761 E13.71146
G1 X154.679 Y116.83 E13.72112
G1 X154.496 Y116.836 E13.73025
G1 X154.249 Y116.755 E13.74322
G1 X153.781 Y116.521 E13.76933
G1 X153.079 Y116.42 E13.80471
G1 X152.446 Y116.538 E13.83684
G1 X151.875 Y116.834 E13.86892
G1 X151.382 Y117.344 E13.90431
G1 X151.102 Y117.928 E13.93662
G1 X151.006 Y118.777 E13.97925
G1 X150.951 Y118.922 E13.98699
G1 X150.834 Y119.069 E13.99636
G1 X150.66 Y119.177 E14.00658
G1 X150.229 Y119.293 E14.02885
G1 X149.455 Y119.427 E14.06803
G1 X149.019 Y119.466 E14.08987
G1 X148.707 Y119.359 E14.10633
G1 X148.606 Y119.259 E14.11342
G1 X148.195 Y118.456 E14.15842
G1 X147.796 Y118.045 E14.187
G1 X147.242 Y117.731 E14.21877
G1 X146.539 Y117.591 E14.25453
G1 X145.819 Y117.699 E14.29086
G1 X145.186 Y118.037 E14.32666
G1 X144.801 Y118.445 E14.35464
G1 X144.619 Y118.582 E14.36601
G1 X144.325 Y118.64 E14.38096
G1 X144.095 Y118.576 E14.39287
G1 X143.436 Y118.229 E14.43003
G1 X142.821 Y117.839 E14.46636
G1 X142.608 Y117.594 E14.48256
G1 X142.56 Y117.402 E14.49243
G1 X142.573 Y117.227 E14.50118
G1 X142.728 Y116.724 E14.52744
G1 X142.759 Y116.172 E14.55503
G1 X142.614 Y115.553 E14.58674
G1 X142.242 Y114.941 E14.62248
G1 X141.688 Y114.495 E14.65796
G1 X141.16 Y114.285 E14.68631
G1 X140.565 Y114.224 E14.71615
G1 X140.081 Y114.285 E14.74049
G1 X139.876 Y114.251 E14.75085
G1 X139.748 Y114.185 E14.75804
G1 X139.609 Y114.042 E14.76799
G1 X139.411 Y113.628 E14.79088
G1 X139.137 Y112.873 E14.83095
G1 X139.026 Y112.479 E14.85137
G1 X139.059 Y112.156 E14.86757
G1 X139.172 Y111.986 E14.87776
G1 X139.308 Y111.872 E14.88661
G1 X139.754 Y111.579 E14.91323
G1 X140.16 Y111.085 E14.94514
G1 X140.399 Y110.495 E14.97689
G1 X140.454 Y109.852 E15.00909
G1 X140.285 Y109.154 E15.04492
G1 X139.891 Y108.554 E15.08073
G1 X139.181 Y108.022 E15.12499
G1 X139.085 Y107.896 E15.1329
G1 X139.025 Y107.715 E15.14241
G1 X139.028 Y107.513 E15.15249
G1 X139.136 Y107.127 E15.17249
G1 X139.415 Y106.361 E15.21316
G1 X139.571 Y106.016 E15.23205
G1 X139.707 Y105.848 E15.24283
G1 X139.865 Y105.753 E15.25203
G1 X140.017 Y105.718 E15.25981
G1 X140.898 Y105.766 E15.30383
G1 X141.521 Y105.593 E15.33609
G1 X142.1 Y105.201 E15.37097
G1 X142.464 Y104.75 E15.39989
G0 F3600 X154.32 Y103.408
G1 F1800 X155.847 Y104.936 E15.50766
G0 F3600 X155.626 Y105.28
G1 F1800 X153.938 Y103.592 E15.62676
G0 F3600 X153.488 Y103.708
G1 F1800 X155.399 Y105.619 E15.76159
G0 F3600 X155.264 Y106.049
G1 F1800 X152.953 Y103.738 E15.92464
G0 F3600 X152.196 Y103.547
G1 F1800 X155.192 Y106.543 E16.13603
G0 F3600 X155.254 Y107.171
G1 F1800 X148.864 Y100.781 E16.58687
G0 F3600 X148.616 Y101.098
G1 F1800 X157.521 Y110.003 E17.21517
G0 F3600 X157.51 Y110.558
G1 F1800 X152.72 Y105.768 E17.55313
G0 F3600 X152.431 Y105.479
G1 F1800 X148.437 Y101.486 E17.83489
G0 F3600 X148.184 Y101.798
G1 F1800 X151.866 Y105.479 E18.09464
G0 F3600 X151.3 Y105.479
G1 F1800 X147.905 Y102.085 E18.33414
G0 F3600 X147.549 Y102.295
G1 F1800 X150.734 Y105.479 E18.55883
G0 F3600 X150.168 Y105.479
G1 F1800 X147.17 Y102.481 E18.77035
G0 F3600 X146.68 Y102.556
G1 F1800 X149.603 Y105.479 E18.97659
