;FLAVOR:Marlin
;TIME:302
;Filament used: 0.31213m
;Layer height: 0.2
;MINX:100.3
;MINY:100.3
;MINZ:0.3
;MAXX:119.7
;MAXY:119.7
;MAXZ:7.5
;Generated with Cura_SteamEngine 4.13.1
M140 S60
M105
M190 S60
M104 S210
M105
M109 S210
M82 ;absolute extrusion mode
; Aquila X2 Custom Start G-code
G92 E0 ; Reset Extruder
G28 ; Home all axes
G1 Z2.0 F3000 ; Move Z Axis up little to prevent scratching of Heat Bed
G1 X0.1 Y20 Z0.3 F5000.0 ; Move to start position
G1 X0.1 Y200.0 Z0.3 F1500.0 E15 ; Draw the first line
G1 X0.4 Y200.0 Z0.3 F5000.0 ; Move to side a little
G1 X0.4 Y20 Z0.3 F1500.0 E30 ; Draw the second line
G92 E0 ; Reset Extruder
G1 Z2.0 F3000 ; Move Z Axis up little to prevent scratching of Heat Bed
G1 X5 Y20 Z0.3 F5000.0 ; Move over to prevent blob squish
G92 E0
G92 E0
G1 F2400 E-3
;LAYER_COUNT:37
;LAYER:0
M107
;MESH:StopORingSleeve-Body.stl
G0 F3600 X109.245 Y118.717 Z0.3
;TYPE:WALL-INNER
G1 F2400 E0
G1 F1800 X110 Y118.75 E0.0377
G1 X110.77 Y118.716 E0.07616
G1 X111.527 Y118.616 E0.11425
G1 X112.272 Y118.45 E0.15233
G1 X112.999 Y118.22 E0.19037
G1 X113.704 Y117.927 E0.22846
G1 X114.381 Y117.575 E0.26653
G1 X115.026 Y117.164 E0.30469
G1 X115.631 Y116.698 E0.34279
G1 X116.194 Y116.182 E0.38089
G1 X116.707 Y115.619 E0.41889
G1 X117.172 Y115.013 E0.457
G1 X117.581 Y114.369 E0.49506
G1 X117.93 Y113.698 E0.53279
G1 X118.224 Y112.984 E0.57131
G1 X118.453 Y112.256 E0.60939
G1 X118.618 Y111.512 E0.64741
G1 X118.717 Y110.755 E0.6855
G1 X118.75 Y109.993 E0.72355
G1 X118.717 Y109.237 E0.7613
G1 X118.616 Y108.473 E0.79975
G1 X118.45 Y107.728 E0.83783
G1 X118.22 Y107.001 E0.87587
G1 X117.927 Y106.296 E0.91396
G1 X117.578 Y105.625 E0.95169
G1 X117.164 Y104.974 E0.99018
G1 X116.698 Y104.369 E1.02828
G1 X116.182 Y103.806 E1.06638
G1 X115.619 Y103.293 E1.10438
G1 X115.013 Y102.828 E1.14249
G1 X114.369 Y102.419 E1.18055
G1 X113.698 Y102.07 E1.21829
G1 X112.992 Y101.778 E1.2564
G1 X112.256 Y101.547 E1.29489
G1 X111.512 Y101.382 E1.33291
G1 X110.755 Y101.283 E1.371
G1 X109.993 Y101.25 E1.40905
G1 X109.23 Y101.284 E1.44715
G1 X108.473 Y101.384 E1.48525
G1 X107.728 Y101.55 E1.52333
G1 X107.001 Y101.78 E1.56137
G1 X106.302 Y102.07 E1.59913
G1 X105.625 Y102.422 E1.63719
G1 X104.974 Y102.836 E1.67568
G1 X104.369 Y103.302 E1.71378
G1 X103.812 Y103.813 E1.75149
G1 X103.293 Y104.381 E1.78988
G1 X102.832 Y104.98 E1.82759
G1 X102.422 Y105.625 E1.86572
G1 X102.067 Y106.308 E1.90412
G1 X101.776 Y107.016 E1.94231
G1 X101.547 Y107.744 E1.98039
G1 X101.382 Y108.488 E2.01841
G1 X101.283 Y109.245 E2.0565
G1 X101.25 Y110 E2.0942
G1 X101.284 Y110.77 E2.13265
G1 X101.384 Y111.527 E2.17075
G1 X101.55 Y112.272 E2.20883
G1 X101.78 Y112.999 E2.24687
G1 X102.073 Y113.704 E2.28496
G1 X102.425 Y114.381 E2.32303
G1 X102.836 Y115.026 E2.36118
G1 X103.302 Y115.631 E2.39928
G1 X103.818 Y116.194 E2.43738
G1 X104.381 Y116.707 E2.47538
G1 X104.987 Y117.172 E2.51349
G1 X105.631 Y117.581 E2.55155
G1 X106.302 Y117.93 E2.58929
G1 X107.008 Y118.222 E2.6274
G1 X107.735 Y118.452 E2.66544
G1 X108.488 Y118.618 E2.70391
G1 X109.245 Y118.717 E2.742
G0 F3600 X109.237 Y118.816
G0 X110.807 Y119.164
G0 X110.815 Y119.263
G1 F1800 X110 Y119.299 E2.7827
G1 X109.178 Y119.262 E2.82375
G1 X108.382 Y119.158 E2.8638
G1 X107.596 Y118.983 E2.90398
G1 X106.815 Y118.737 E2.94483
G1 X106.075 Y118.43 E2.9848
G1 X105.342 Y118.049 E3.02601
G1 X104.665 Y117.618 E3.06605
G1 X104.024 Y117.125 E3.1064
G1 X103.416 Y116.568 E3.14753
G1 X102.864 Y115.964 E3.18836
G1 X102.387 Y115.341 E3.2275
G1 X101.948 Y114.651 E3.2683
G1 X101.571 Y113.926 E3.30907
G1 X101.26 Y113.176 E3.34958
G1 X101.016 Y112.402 E3.39007
G1 X100.842 Y111.611 E3.43047
G1 X100.736 Y110.799 E3.47133
G1 X100.701 Y110 E3.51123
G1 X100.736 Y109.194 E3.55148
G1 X100.842 Y108.382 E3.59233
G1 X101.02 Y107.581 E3.63327
G1 X101.262 Y106.815 E3.67335
G1 X101.572 Y106.071 E3.71356
G1 X101.948 Y105.349 E3.75417
G1 X102.389 Y104.655 E3.79519
G1 X102.869 Y104.029 E3.83455
G1 X103.427 Y103.421 E3.87572
G1 X104.017 Y102.879 E3.91569
G1 X104.665 Y102.382 E3.95644
G1 X105.34 Y101.952 E3.99636
G1 X106.075 Y101.57 E4.03769
G1 X106.814 Y101.263 E4.07761
G1 X107.596 Y101.017 E4.11851
G1 X108.382 Y100.842 E4.15869
G1 X109.185 Y100.737 E4.19909
G1 X110.009 Y100.701 E4.24024
G1 X110.815 Y100.737 E4.28049
G1 X111.618 Y100.842 E4.32089
G1 X112.404 Y101.017 E4.36107
G1 X113.186 Y101.263 E4.40197
G1 X113.925 Y101.57 E4.44189
G1 X114.651 Y101.948 E4.48272
G1 X115.341 Y102.387 E4.52353
G1 X115.971 Y102.869 E4.5631
G1 X116.567 Y103.416 E4.60346
G1 X117.125 Y104.024 E4.64463
G1 X117.618 Y104.665 E4.68498
G1 X118.048 Y105.34 E4.7249
G1 X118.43 Y106.075 E4.76623
G1 X118.74 Y106.822 E4.80658
G1 X118.986 Y107.606 E4.84757
G1 X119.157 Y108.38 E4.88712
G1 X119.262 Y109.176 E4.92718
G1 X119.299 Y109.993 E4.96798
G1 X119.264 Y110.806 E5.00858
G1 X119.158 Y111.618 E5.04943
G1 X118.983 Y112.404 E5.08961
G1 X118.739 Y113.182 E5.13028
G1 X118.425 Y113.937 E5.17108
G1 X118.052 Y114.651 E5.21127
G1 X117.613 Y115.341 E5.25207
G1 X117.131 Y115.971 E5.29164
G1 X116.584 Y116.567 E5.332
G1 X115.976 Y117.125 E5.37318
G1 X115.335 Y117.618 E5.41352
G1 X114.66 Y118.048 E5.45345
G1 X113.925 Y118.43 E5.49477
G1 X113.185 Y118.737 E5.53474
G1 X112.404 Y118.983 E5.5756
G1 X111.618 Y119.158 E5.61577
G1 X110.815 Y119.263 E5.65617
G0 F3600 X110.85 Y119.662
;TYPE:WALL-OUTER
G1 F1800 X110 Y119.7 E5.69862
G1 X109.143 Y119.661 E5.74142
G1 X108.311 Y119.552 E5.78328
G1 X107.494 Y119.371 E5.82503
G1 X106.688 Y119.117 E5.86719
G1 X105.897 Y118.789 E5.90992
G1 X105.147 Y118.399 E5.95209
G1 X104.433 Y117.944 E5.99433
G1 X103.761 Y117.428 E6.0366
G1 X103.138 Y116.856 E6.07879
G1 X102.561 Y116.225 E6.12145
G1 X102.051 Y115.56 E6.16326
G1 X101.602 Y114.854 E6.20501
G1 X101.207 Y114.095 E6.24769
G1 X100.883 Y113.313 E6.28992
G1 X100.629 Y112.506 E6.33213
G1 X100.447 Y111.68 E6.37433
G1 X100.337 Y110.834 E6.41689
G1 X100.3 Y110.004 E6.45834
G1 X100.337 Y109.159 E6.50054
G1 X100.448 Y108.311 E6.54321
G1 X100.631 Y107.486 E6.58537
G1 X100.886 Y106.679 E6.62759
G1 X101.211 Y105.897 E6.66984
G1 X101.602 Y105.146 E6.71208
G1 X102.051 Y104.44 E6.75382
G1 X102.566 Y103.768 E6.79606
G1 X103.144 Y103.138 E6.83872
G1 X103.761 Y102.572 E6.88049
G1 X104.433 Y102.056 E6.92276
G1 X105.146 Y101.602 E6.96493
G1 X105.897 Y101.211 E7.00717
G1 X106.687 Y100.883 E7.04985
G1 X107.494 Y100.629 E7.09206
G1 X108.311 Y100.448 E7.1338
G1 X109.15 Y100.338 E7.17602
G1 X110.009 Y100.3 E7.21892
G1 X110.85 Y100.338 E7.26092
G1 X111.689 Y100.448 E7.30314
G1 X112.506 Y100.629 E7.34488
G1 X113.313 Y100.883 E7.38709
G1 X114.103 Y101.211 E7.42977
G1 X114.854 Y101.602 E7.47201
G1 X115.56 Y102.051 E7.51375
G1 X116.232 Y102.566 E7.55599
G1 X116.856 Y103.138 E7.59822
G1 X117.428 Y103.761 E7.64042
G1 X117.944 Y104.433 E7.68269
G1 X118.398 Y105.146 E7.72486
G1 X118.789 Y105.897 E7.7671
G1 X119.12 Y106.695 E7.8102
G1 X119.373 Y107.502 E7.85239
G1 X119.552 Y108.311 E7.89373
G1 X119.662 Y109.15 E7.93595
G1 X119.7 Y109.996 E7.9782
G1 X119.663 Y110.841 E8.0204
G1 X119.552 Y111.689 E8.06306
G1 X119.371 Y112.506 E8.10481
G1 X119.117 Y113.313 E8.14702
G1 X118.785 Y114.111 E8.19014
G1 X118.398 Y114.854 E8.23194
G1 X117.949 Y115.56 E8.27368
G1 X117.434 Y116.232 E8.31592
G1 X116.862 Y116.856 E8.35815
G1 X116.239 Y117.428 E8.40034
G1 X115.567 Y117.944 E8.44261
G1 X114.854 Y118.398 E8.48479
G1 X114.103 Y118.789 E8.52703
G1 X113.312 Y119.117 E8.56975
G1 X112.506 Y119.371 E8.61191
G1 X111.689 Y119.552 E8.65366
G1 X110.85 Y119.662 E8.69587
G0 F3600 X110.65 Y119.67
G0 X110.629 Y119.171
G0 X109.216 Y118.813
G0 X109.28 Y118.318
G1 F1800 X110 Y118.35 E8.73183
G1 X110.735 Y118.317 E8.76854
G1 X111.457 Y118.222 E8.80487
G1 X112.168 Y118.063 E8.84122
G1 X112.862 Y117.844 E8.87752
G1 X113.535 Y117.564 E8.91389
G1 X114.181 Y117.228 E8.95022
G1 X114.796 Y116.836 E8.9866
G1 X115.373 Y116.392 E9.02292
G1 X115.91 Y115.899 E9.05929
G1 X116.4 Y115.362 E9.09556
G1 X116.844 Y114.784 E9.13192
G1 X117.234 Y114.169 E9.16826
G1 X117.567 Y113.529 E9.20425
G1 X117.848 Y112.848 E9.241
G1 X118.066 Y112.153 E9.27734
G1 X118.224 Y111.443 E9.31363
G1 X118.318 Y110.72 E9.35001
G1 X118.35 Y109.993 E9.38631
G1 X118.318 Y109.272 E9.42232
G1 X118.222 Y108.543 E9.459
G1 X118.063 Y107.832 E9.49535
G1 X117.844 Y107.138 E9.53166
G1 X117.564 Y106.465 E9.56802
G1 X117.231 Y105.825 E9.60402
G1 X116.836 Y105.204 E9.64073
G1 X116.392 Y104.627 E9.67706
G1 X115.899 Y104.09 E9.71343
G1 X115.362 Y103.6 E9.74969
G1 X114.784 Y103.156 E9.78606
G1 X114.169 Y102.766 E9.82239
G1 X113.529 Y102.433 E9.85838
G1 X112.855 Y102.154 E9.89477
G1 X112.153 Y101.934 E9.93148
G1 X111.443 Y101.776 E9.96777
G1 X110.72 Y101.682 E10.00414
G1 X109.993 Y101.65 E10.04044
G1 X109.265 Y101.683 E10.0768
G1 X108.543 Y101.778 E10.11313
G1 X107.832 Y101.937 E10.14948
G1 X107.138 Y102.156 E10.18579
G1 X106.471 Y102.433 E10.22182
G1 X105.825 Y102.769 E10.25815
G1 X105.204 Y103.164 E10.29487
G1 X104.627 Y103.608 E10.33119
G1 X104.095 Y104.096 E10.36721
G1 X103.6 Y104.638 E10.40383
G1 X103.16 Y105.21 E10.43983
G1 X102.769 Y105.825 E10.47619
G1 X102.43 Y106.477 E10.51285
G1 X102.152 Y107.152 E10.54927
G1 X101.934 Y107.847 E10.58561
G1 X101.776 Y108.557 E10.6219
G1 X101.682 Y109.28 E10.65827
G1 X101.65 Y110 E10.69423
G1 X101.683 Y110.735 E10.73094
G1 X101.778 Y111.457 E10.76727
G1 X101.937 Y112.168 E10.80362
G1 X102.156 Y112.862 E10.83992
G1 X102.436 Y113.535 E10.87629
G1 X102.772 Y114.181 E10.91262
G1 X103.164 Y114.796 E10.949
G1 X103.608 Y115.373 E10.98532
G1 X104.101 Y115.91 E11.02169
G1 X104.638 Y116.4 E11.05796
G1 X105.216 Y116.844 E11.09432
G1 X105.831 Y117.234 E11.13066
G1 X106.471 Y117.567 E11.16665
G1 X107.145 Y117.846 E11.20304
G1 X107.839 Y118.065 E11.23935
G1 X108.557 Y118.224 E11.27604
G1 X109.28 Y118.318 E11.31241
G0 F3600 X109.48 Y118.326
G0 X109.458 Y118.826
G0 X107.725 Y118.49
G0 X106.56 Y118.067
G0 X104.841 Y117.286
;TYPE:SKIN
G1 F1800 X105.463 Y117.908 E11.3563
G0 F3600 X106.199 Y118.079
G1 F1800 X106.552 Y118.431 E11.38117
G0 F3600 X107.137 Y118.45
G1 F1800 X107.425 Y118.738 E11.40149
G0 F3600 X107.93 Y118.678
G1 F1800 X108.179 Y118.927 E11.41906
G0 F3600 X108.636 Y118.818
G1 F1800 X108.855 Y119.037 E11.43451
G0 F3600 X109.281 Y118.898
G1 F1800 X109.477 Y119.094 E11.44834
G0 F3600 X109.873 Y118.924
G1 F1800 X110.063 Y119.114 E11.46174
G0 F3600 X110.425 Y118.91
G1 F1800 X110.605 Y119.09 E11.47444
G0 F3600 X110.952 Y118.872
G1 F1800 X111.121 Y119.04 E11.48633
G0 F3600 X111.452 Y118.805
G1 F1800 X111.618 Y118.972 E11.49808
G0 F3600 X111.922 Y118.711
G1 F1800 X112.081 Y118.869 E11.50926
G0 F3600 X112.381 Y118.603
G1 F1800 X112.529 Y118.752 E11.51974
G0 F3600 X112.811 Y118.467
G1 F1800 X112.96 Y118.617 E11.53029
G0 F3600 X113.228 Y118.319
G1 F1800 X113.371 Y118.462 E11.54038
G0 F3600 X113.627 Y118.153
G1 F1800 X113.771 Y118.296 E11.5505
G0 F3600 X114.01 Y117.97
G1 F1800 X114.149 Y118.109 E11.56031
G0 F3600 X114.382 Y117.776
G1 F1800 X114.522 Y117.916 E11.57019
G0 F3600 X114.87 Y117.699
G1 F1800 X114.734 Y117.562 E11.57982
G0 F3600 X115.08 Y117.342
G1 F1800 X115.215 Y117.478 E11.58938
G0 F3600 X115.536 Y117.233
G1 F1800 X115.403 Y117.1 E11.59876
G0 F3600 X115.722 Y116.854
G1 F1800 X115.856 Y116.987 E11.60818
G0 F3600 X116.152 Y116.717
G1 F1800 X116.019 Y116.585 E11.61753
G0 F3600 X116.314 Y116.314
G1 F1800 X116.447 Y116.447 E11.62691
G0 F3600 X116.719 Y116.154
G1 F1800 X116.584 Y116.018 E11.63647
G0 F3600 X116.853 Y115.722
G1 F1800 X116.99 Y115.858 E11.6461
G0 F3600 X117.234 Y115.537
G1 F1800 X117.099 Y115.401 E11.65566
G0 F3600 X117.342 Y115.079
G1 F1800 X117.478 Y115.215 E11.66526
G0 F3600 X117.698 Y114.87
G1 F1800 X117.561 Y114.733 E11.67493
G0 F3600 X117.775 Y114.381
G1 F1800 X117.915 Y114.521 E11.6848
G0 F3600 X118.11 Y114.15
G1 F1800 X117.969 Y114.009 E11.69475
G0 F3600 X118.297 Y113.772
G1 F1800 X118.152 Y113.627 E11.70498
G0 F3600 X118.463 Y113.372
G1 F1800 X118.318 Y113.226 E11.71525
G0 F3600 X118.618 Y112.961
G1 F1800 X118.466 Y112.809 E11.72597
G0 F3600 X118.753 Y112.531
G1 F1800 X118.601 Y112.379 E11.7367
G0 F3600 X118.87 Y112.082
G1 F1800 X118.709 Y111.921 E11.74806
G0 F3600 X118.973 Y111.619
G1 F1800 X118.805 Y111.451 E11.75991
G0 F3600 X119.041 Y111.121
G1 F1800 X118.871 Y110.951 E11.7719
G0 F3600 X119.091 Y110.606
G1 F1800 X118.909 Y110.424 E11.78475
G0 F3600 X119.115 Y110.064
G1 F1800 X118.924 Y109.873 E11.79822
G0 F3600 X119.095 Y109.478
G1 F1800 X118.897 Y109.28 E11.81219
G0 F3600 X119.037 Y108.855
G1 F1800 X118.817 Y108.634 E11.82775
G0 F3600 X118.928 Y108.18
G1 F1800 X118.677 Y107.929 E11.84546
G0 F3600 X118.74 Y107.426
G1 F1800 X118.45 Y107.137 E11.86588
G0 F3600 X118.432 Y106.553
G1 F1800 X118.078 Y106.198 E11.8909
G0 F3600 X117.909 Y105.464
G1 F1800 X117.295 Y104.85 E11.93422
G1 X117.225 Y104.78
G0 F3600 X115.157 Y102.712
G1 F1800 X114.536 Y102.091 E11.97803
G0 F3600 X113.799 Y101.92
G1 F1800 X113.446 Y101.567 E12.00294
G0 F3600 X112.863 Y101.549
G1 F1800 X112.573 Y101.259 E12.0234
G0 F3600 X112.07 Y101.322
G1 F1800 X111.819 Y101.071 E12.04111
G0 F3600 X111.362 Y101.18
G1 F1800 X111.144 Y100.962 E12.05649
G0 F3600 X110.717 Y101.1
G1 F1800 X110.521 Y100.904 E12.07032
G0 F3600 X110.126 Y101.075
G1 F1800 X109.935 Y100.884 E12.0838
G0 F3600 X109.573 Y101.088
G1 F1800 X109.393 Y100.908 E12.0965
G0 F3600 X109.046 Y101.126
G1 F1800 X108.878 Y100.958 E12.10835
G0 F3600 X108.547 Y101.193
G1 F1800 X108.38 Y101.026 E12.12013
G0 F3600 X108.076 Y101.288
G1 F1800 X107.917 Y101.129 E12.13135
G0 F3600 X107.618 Y101.395
G1 F1800 X107.468 Y101.246 E12.1419
G0 F3600 X107.188 Y101.531
G1 F1800 X107.038 Y101.382 E12.15245
G0 F3600 X106.771 Y101.679
G1 F1800 X106.627 Y101.536 E12.16257
G0 F3600 X106.371 Y101.846
G1 F1800 X106.227 Y101.702 E12.17273
G0 F3600 X105.988 Y102.029
G1 F1800 X105.849 Y101.889 E12.18257
G0 F3600 X105.617 Y102.222
G1 F1800 X105.476 Y102.082 E12.19249
G0 F3600 X105.129 Y102.3
G1 F1800 X105.264 Y102.436 E12.20205
G0 F3600 X104.919 Y102.656
G1 F1800 X104.783 Y102.52 E12.21164
G0 F3600 X104.462 Y102.765
G1 F1800 X104.595 Y102.898 E12.22103
G0 F3600 X104.276 Y103.144
G1 F1800 X104.141 Y103.01 E12.23052
G0 F3600 X103.845 Y103.28
G1 F1800 X103.98 Y103.414 E12.24001
G0 F3600 X103.685 Y103.685
G1 F1800 X103.55 Y103.55 E12.24953
G0 F3600 X103.28 Y103.845
G1 F1800 X103.415 Y103.98 E12.25906
G0 F3600 X103.146 Y104.277
G1 F1800 X103.009 Y104.14 E12.26872
G0 F3600 X102.763 Y104.46
G1 F1800 X102.899 Y104.596 E12.27832
G0 F3600 X102.657 Y104.919
G1 F1800 X102.519 Y104.782 E12.28802
G0 F3600 X102.3 Y105.129
G1 F1800 X102.437 Y105.265 E12.29765
G0 F3600 X102.223 Y105.617
G1 F1800 X102.083 Y105.477 E12.30753
G0 F3600 X101.889 Y105.849
G1 F1800 X102.029 Y105.989 E12.3174
G0 F3600 X101.701 Y106.227
G1 F1800 X101.846 Y106.372 E12.32764
G0 F3600 X101.535 Y106.626
G1 F1800 X101.681 Y106.773 E12.33797
G0 F3600 X101.38 Y107.037
G1 F1800 X101.532 Y107.189 E12.3487
G0 F3600 X101.244 Y107.466
G1 F1800 X101.397 Y107.62 E12.35953
G0 F3600 X101.128 Y107.917
G1 F1800 X101.289 Y108.077 E12.37085
G0 F3600 X101.025 Y108.379
G1 F1800 X101.194 Y108.547 E12.38274
G0 F3600 X100.957 Y108.877
G1 F1800 X101.128 Y109.047 E12.39477
G0 F3600 X100.906 Y109.392
G1 F1800 X101.089 Y109.574 E12.40765
G0 F3600 X100.883 Y109.934
G1 F1800 X101.075 Y110.126 E12.42119
G0 F3600 X100.904 Y110.52
G1 F1800 X101.102 Y110.718 E12.43516
G0 F3600 X100.962 Y111.144
G1 F1800 X101.181 Y111.363 E12.45061
G0 F3600 X101.071 Y111.819
G1 F1800 X101.322 Y112.07 E12.46832
G0 F3600 X101.259 Y112.572
G1 F1800 X101.548 Y112.862 E12.48875
G0 F3600 X101.568 Y113.447
G1 F1800 X101.92 Y113.8 E12.51362
G0 F3600 X102.09 Y114.535
G1 F1800 X102.702 Y115.147 E12.5568
G1 X102.772 Y115.217
G0 F3600 X102.787 Y115.206
;MESH:NONMESH
G0 F600 X102.787 Y115.206 Z0.5
G0 F3600 X104.356 Y116.737
G0 X105.612 Y117.615
G0 X106.995 Y118.259
G0 X107.837 Y118.484
G0 X109.254 Y118.817
G0 X109.258 Y118.718
;TIME_ELAPSED:14.681774
;LAYER:1
M106 S255
;TYPE:WALL-INNER
;MESH:StopORingSleeve-Body.stl
G1 F2700 X110 Y118.75 E12.5815
G1 X110.783 Y118.715 E12.60757
G1 X111.539 Y118.614 E12.63294
G1 X112.284 Y118.446 E12.65834
G1 X113.012 Y118.215 E12.68374
G1 X113.716 Y117.921 E12.70912
