;FLAVOR:Marlin
;TIME:479
;Filament used: 0.483501m
;Layer height: 0.2
;MINX:90.6
;MINY:102.7
;MINZ:0.3
;MAXX:129.4
;MAXY:117.3
;MAXZ:6.1
;Generated with Cura_SteamEngine 4.13.1
M140 S60
M105
M190 S60
M104 S210
M105
M109 S210
M82 ;absolute extrusion mode
; Aquila X2 Custom Start G-code
G92 E0 ; Reset Extruder
G28 ; Home all axes
G1 Z2.0 F3000 ; Move Z Axis up little to prevent scratching of Heat Bed
G1 X0.1 Y20 Z0.3 F5000.0 ; Move to start position
G1 X0.1 Y200.0 Z0.3 F1500.0 E15 ; Draw the first line
G1 X0.4 Y200.0 Z0.3 F5000.0 ; Move to side a little
G1 X0.4 Y20 Z0.3 F1500.0 E30 ; Draw the second line
G92 E0 ; Reset Extruder
G1 Z2.0 F3000 ; Move Z Axis up little to prevent scratching of Heat Bed
G1 X5 Y20 Z0.3 F5000.0 ; Move over to prevent blob squish
G92 E0
G92 E0
G1 F2400 E-3
;LAYER_COUNT:30
;LAYER:0
M107
;MESH:OLED Surround-Body.stl
G0 F3600 X96.828 Y114.072 Z0.3
;TYPE:WALL-INNER
G1 F2400 E0
G1 F1800 X123.173 Y114.073 E1.31436
G1 X123.173 Y104.927 E1.77065
G1 X96.828 Y104.928 E3.08501
G1 X96.828 Y114.072 E3.54121
G0 F3600 X96.758 Y114.142
G0 X128.458 Y116.358
G0 X128.528 Y116.428
G1 F1800 X91.473 Y116.427 E5.38989
G1 X91.473 Y103.573 E6.03118
G1 X128.527 Y103.573 E7.87981
G1 X128.528 Y116.428 E8.52115
G0 F3600 X128.928 Y116.828
;TYPE:WALL-OUTER
G1 F1800 X91.073 Y116.827 E10.40974
G1 X91.073 Y103.173 E11.09094
G1 X128.927 Y103.173 E12.97948
G1 X128.928 Y116.828 E13.66074
G0 F3600 X128.728 Y116.828
G0 X128.458 Y116.358
G0 X96.8 Y114.1
G0 X97.228 Y113.672
G1 F1800 X122.773 Y113.673 E14.93518
G1 X122.773 Y105.327 E15.35156
G1 X97.228 Y105.328 E16.62601
G1 X97.228 Y113.672 E17.04229
G0 F3600 X97.428 Y113.672
G0 X97.427 Y114.172
G0 X96.438 Y114.462
;TYPE:SKIN
G1 F1800 X123.563 Y114.463 E18.39557
G1 X123.563 Y104.537 E18.89078
G1 X96.438 Y104.538 E20.24405
G1 X96.438 Y114.462 E20.73916
G0 F3600 X91.863 Y116.037
G1 F1800 X91.863 Y103.963 E21.34153
G1 X128.137 Y103.963 E23.15125
G1 X128.138 Y116.038 E23.75367
G1 X91.863 Y116.037 E25.56344
G0 F3600 X92.663 Y115.856
G1 F1800 X92.042 Y115.235 E25.60726
G0 F3600 X92.042 Y114.67
G1 F1800 X93.229 Y115.856 E25.69097
G0 F3600 X93.794 Y115.856
G1 F1800 X92.042 Y114.104 E25.81458
G0 F3600 X92.042 Y113.538
G1 F1800 X94.36 Y115.856 E25.97813
G0 F3600 X94.926 Y115.856
G1 F1800 X92.042 Y112.973 E26.18158
G0 F3600 X92.042 Y112.407
G1 F1800 X95.491 Y115.856 E26.42492
G0 F3600 X96.057 Y115.856
G1 F1800 X92.042 Y111.841 E26.7082
G0 F3600 X92.042 Y111.275
G1 F1800 X96.623 Y115.856 E27.03142
G0 F3600 X97.188 Y115.856
G1 F1800 X92.042 Y110.71 E27.39449
G0 F3600 X92.042 Y110.144
G1 F1800 X96.257 Y114.359 E27.69189
G0 F3600 X96.539 Y114.641
G1 F1800 X97.754 Y115.856 E27.77761
G0 F3600 X98.32 Y115.856
G1 F1800 X97.105 Y114.641 E27.86333
G0 F3600 X97.671 Y114.641
G1 F1800 X98.886 Y115.856 E27.94906
G0 F3600 X99.451 Y115.856
G1 F1800 X98.236 Y114.641 E28.03478
G0 F3600 X98.802 Y114.641
G1 F1800 X100.017 Y115.856 E28.12051
G0 F3600 X100.583 Y115.856
G1 F1800 X99.368 Y114.641 E28.20623
G0 F3600 X99.933 Y114.641
G1 F1800 X101.148 Y115.856 E28.29196
G0 F3600 X101.714 Y115.856
G1 F1800 X100.499 Y114.641 E28.37768
G0 F3600 X101.065 Y114.641
G1 F1800 X102.28 Y115.856 E28.46341
G0 F3600 X102.845 Y115.856
G1 F1800 X101.631 Y114.641 E28.5491
G0 F3600 X102.196 Y114.641
G1 F1800 X103.411 Y115.856 E28.63482
G0 F3600 X103.977 Y115.856
G1 F1800 X102.762 Y114.641 E28.72055
G0 F3600 X103.328 Y114.641
G1 F1800 X104.542 Y115.856 E28.80624
G0 F3600 X105.108 Y115.856
G1 F1800 X103.893 Y114.641 E28.89196
G0 F3600 X104.459 Y114.641
G1 F1800 X105.674 Y115.856 E28.97769
G0 F3600 X106.239 Y115.856
G1 F1800 X105.025 Y114.641 E29.06338
G0 F3600 X105.591 Y114.642
G1 F1800 X106.805 Y115.856 E29.14903
G0 F3600 X107.371 Y115.856
G1 F1800 X106.157 Y114.642 E29.23468
G0 F3600 X106.722 Y114.642
G1 F1800 X107.937 Y115.856 E29.32037
G0 F3600 X108.502 Y115.856
G1 F1800 X107.288 Y114.642 E29.40603
G0 F3600 X107.854 Y114.642
G1 F1800 X109.068 Y115.856 E29.49168
G0 F3600 X109.634 Y115.856
G1 F1800 X108.419 Y114.642 E29.57737
G0 F3600 X108.985 Y114.642
G1 F1800 X110.2 Y115.857 E29.6631
G0 F3600 X110.766 Y115.857
G1 F1800 X109.551 Y114.642 E29.74882
G0 F3600 X110.117 Y114.642
G1 F1800 X111.331 Y115.857 E29.83451
G0 F3600 X111.897 Y115.857
G1 F1800 X110.682 Y114.642 E29.92024
G0 F3600 X111.248 Y114.642
G1 F1800 X112.463 Y115.857 E30.00596
G0 F3600 X113.028 Y115.857
G1 F1800 X111.814 Y114.642 E30.09165
G0 F3600 X112.379 Y114.642
G1 F1800 X113.594 Y115.857 E30.17738
G0 F3600 X114.16 Y115.857
G1 F1800 X112.945 Y114.642 E30.2631
G0 F3600 X113.511 Y114.642
G1 F1800 X114.725 Y115.857 E30.34879
G0 F3600 X115.291 Y115.857
G1 F1800 X114.076 Y114.642 E30.43451
G0 F3600 X114.643 Y114.643
G1 F1800 X115.857 Y115.857 E30.52017
G0 F3600 X116.423 Y115.857
G1 F1800 X115.208 Y114.643 E30.60586
G0 F3600 X115.774 Y114.643
G1 F1800 X116.988 Y115.857 E30.69151
G0 F3600 X117.554 Y115.857
G1 F1800 X116.34 Y114.643 E30.77717
G0 F3600 X116.905 Y114.643
G1 F1800 X118.12 Y115.857 E30.86286
G0 F3600 X118.685 Y115.857
G1 F1800 X117.471 Y114.643 E30.94851
G0 F3600 X118.037 Y114.643
G1 F1800 X119.251 Y115.857 E31.03417
G0 F3600 X119.817 Y115.857
G1 F1800 X118.603 Y114.643 E31.11982
G0 F3600 X119.168 Y114.643
G1 F1800 X120.382 Y115.857 E31.20547
G0 F3600 X120.948 Y115.857
G1 F1800 X119.734 Y114.643 E31.29113
G0 F3600 X120.3 Y114.643
G1 F1800 X121.514 Y115.857 E31.37678
G0 F3600 X122.079 Y115.857
G1 F1800 X120.865 Y114.643 E31.46244
G0 F3600 X121.431 Y114.643
G1 F1800 X122.645 Y115.857 E31.54809
G0 F3600 X123.211 Y115.857
G1 F1800 X121.997 Y114.643 E31.63375
G0 F3600 X122.562 Y114.643
G1 F1800 X123.776 Y115.857 E31.7194
G0 F3600 X124.342 Y115.857
G1 F1800 X123.128 Y114.643 E31.80505
G0 F3600 X123.694 Y114.643
G1 F1800 X124.908 Y115.857 E31.89071
G0 F3600 X125.473 Y115.857
G1 F1800 X123.742 Y114.125 E32.01287
G0 F3600 X123.742 Y113.559
G1 F1800 X126.039 Y115.857 E32.17498
G0 F3600 X126.605 Y115.857
G1 F1800 X123.742 Y112.994 E32.37698
G0 F3600 X123.742 Y112.428
G1 F1800 X127.171 Y115.857 E32.61891
G0 F3600 X127.736 Y115.857
G1 F1800 X123.742 Y111.862 E32.90074
G0 F3600 X123.742 Y111.297
G1 F1800 X127.956 Y115.511 E33.19806
G0 F3600 X127.956 Y114.945
G1 F1800 X123.742 Y110.731 E33.49538
G0 F3600 X123.742 Y110.165
G1 F1800 X127.956 Y114.38 E33.79274
G0 F3600 X127.956 Y113.814
G1 F1800 X123.742 Y109.6 E34.09006
G0 F3600 X123.742 Y109.034
G1 F1800 X127.956 Y113.248 E34.38738
G0 F3600 X127.956 Y112.683
G1 F1800 X123.742 Y108.468 E34.68474
G0 F3600 X123.742 Y107.903
G1 F1800 X127.956 Y112.117 E34.98206
G0 F3600 X127.956 Y111.551
G1 F1800 X123.742 Y107.337 E35.27938
G0 F3600 X123.742 Y106.771
G1 F1800 X127.956 Y110.986 E35.57673
G0 F3600 X127.956 Y110.42
G1 F1800 X123.742 Y106.206 E35.87405
G0 F3600 X123.742 Y105.64
G1 F1800 X127.956 Y109.854 E36.17137
G0 F3600 X127.956 Y109.289
G1 F1800 X123.742 Y105.074 E36.46873
G0 F3600 X123.742 Y104.508
G1 F1800 X127.956 Y108.723 E36.76609
G0 F3600 X127.956 Y108.157
G1 F1800 X123.941 Y104.142 E37.04937
G0 F3600 X123.59 Y104.356
G1 F1800 X123.375 Y104.142 E37.0645
G0 F3600 X123.024 Y104.356
G1 F1800 X122.81 Y104.142 E37.0796
G0 F3600 X122.458 Y104.356
G1 F1800 X122.244 Y104.142 E37.0947
G0 F3600 X121.893 Y104.356
G1 F1800 X121.678 Y104.142 E37.10983
G0 F3600 X121.327 Y104.356
G1 F1800 X121.113 Y104.142 E37.12493
G0 F3600 X120.761 Y104.356
G1 F1800 X120.547 Y104.142 E37.14003
G0 F3600 X120.196 Y104.356
G1 F1800 X119.981 Y104.142 E37.15516
G0 F3600 X119.63 Y104.356
G1 F1800 X119.416 Y104.142 E37.17026
G0 F3600 X119.064 Y104.356
G1 F1800 X118.85 Y104.142 E37.18536
G0 F3600 X118.499 Y104.356
G1 F1800 X118.284 Y104.142 E37.2005
G0 F3600 X117.933 Y104.356
G1 F1800 X117.719 Y104.142 E37.21559
G0 F3600 X117.367 Y104.356
G1 F1800 X117.153 Y104.142 E37.23069
G0 F3600 X116.802 Y104.356
G1 F1800 X116.587 Y104.142 E37.24583
G0 F3600 X116.236 Y104.356
G1 F1800 X116.022 Y104.142 E37.26093
G0 F3600 X115.67 Y104.356
G1 F1800 X115.456 Y104.142 E37.27603
G0 F3600 X115.104 Y104.356
G1 F1800 X114.89 Y104.142 E37.29112
G0 F3600 X114.539 Y104.356
G1 F1800 X114.325 Y104.142 E37.30622
G0 F3600 X113.973 Y104.356
G1 F1800 X113.759 Y104.142 E37.32132
G0 F3600 X113.407 Y104.356
G1 F1800 X113.193 Y104.142 E37.33642
G0 F3600 X112.842 Y104.356
G1 F1800 X112.627 Y104.142 E37.35156
G0 F3600 X112.276 Y104.356
G1 F1800 X112.062 Y104.142 E37.36665
G0 F3600 X111.71 Y104.356
G1 F1800 X111.496 Y104.142 E37.38175
G0 F3600 X111.145 Y104.356
G1 F1800 X110.93 Y104.142 E37.39689
G0 F3600 X110.579 Y104.356
G1 F1800 X110.365 Y104.142 E37.41199
G0 F3600 X110.013 Y104.356
G1 F1800 X109.799 Y104.142 E37.42708
G0 F3600 X109.448 Y104.356
G1 F1800 X109.233 Y104.142 E37.44222
G0 F3600 X108.882 Y104.356
G1 F1800 X108.668 Y104.142 E37.45732
G0 F3600 X108.316 Y104.356
G1 F1800 X108.102 Y104.142 E37.47242
G0 F3600 X107.751 Y104.356
G1 F1800 X107.536 Y104.142 E37.48755
G0 F3600 X107.185 Y104.356
G1 F1800 X106.971 Y104.142 E37.50265
G0 F3600 X106.619 Y104.356
G1 F1800 X106.405 Y104.142 E37.51775
G0 F3600 X106.053 Y104.356
G1 F1800 X105.839 Y104.142 E37.53285
G0 F3600 X105.488 Y104.356
G1 F1800 X105.274 Y104.142 E37.54795
G0 F3600 X104.922 Y104.356
G1 F1800 X104.708 Y104.142 E37.56304
G0 F3600 X104.356 Y104.356
G1 F1800 X104.142 Y104.142 E37.57814
G0 F3600 X103.791 Y104.356
G1 F1800 X103.577 Y104.142 E37.59324
G0 F3600 X103.225 Y104.356
G1 F1800 X103.011 Y104.142 E37.60834
G0 F3600 X102.659 Y104.356
G1 F1800 X102.445 Y104.142 E37.62344
G0 F3600 X102.094 Y104.356
G1 F1800 X101.879 Y104.142 E37.63857
G0 F3600 X101.528 Y104.356
G1 F1800 X101.314 Y104.142 E37.65367
G0 F3600 X100.962 Y104.356
G1 F1800 X100.748 Y104.142 E37.66877
G0 F3600 X100.397 Y104.356
G1 F1800 X100.182 Y104.142 E37.68391
G0 F3600 X99.831 Y104.356
G1 F1800 X99.617 Y104.142 E37.69901
G0 F3600 X99.265 Y104.356
G1 F1800 X99.051 Y104.142 E37.7141
G0 F3600 X98.7 Y104.356
G1 F1800 X98.485 Y104.142 E37.72924
G0 F3600 X98.134 Y104.356
G1 F1800 X97.92 Y104.142 E37.74434
G0 F3600 X97.568 Y104.356
G1 F1800 X97.354 Y104.142 E37.75944
G0 F3600 X97.003 Y104.356
G1 F1800 X96.788 Y104.142 E37.77457
G0 F3600 X96.437 Y104.356
G1 F1800 X96.223 Y104.142 E37.78967
G0 F3600 X95.657 Y104.142
G1 F1800 X96.257 Y104.743 E37.83204
G0 F3600 X96.257 Y105.308
G1 F1800 X95.091 Y104.142 E37.91431
G0 F3600 X94.526 Y104.142
G1 F1800 X96.257 Y105.874 E38.03647
G0 F3600 X96.257 Y106.44
G1 F1800 X93.96 Y104.142 E38.19857
G0 F3600 X93.394 Y104.142
G1 F1800 X96.257 Y107.005 E38.40057
G0 F3600 X96.257 Y107.571
G1 F1800 X92.828 Y104.142 E38.64251
G0 F3600 X92.263 Y104.142
G1 F1800 X96.257 Y108.137 E38.92434
G0 F3600 X96.257 Y108.702
G1 F1800 X92.042 Y104.487 E39.22173
G0 F3600 X92.042 Y105.053
G1 F1800 X96.257 Y109.268 E39.51912
G0 F3600 X96.257 Y109.834
G1 F1800 X92.042 Y105.619 E39.81651
G0 F3600 X92.042 Y106.184
G1 F1800 X96.257 Y110.399 E40.11391
G0 F3600 X96.257 Y110.965
G1 F1800 X92.042 Y106.75 E40.4113
G0 F3600 X92.042 Y107.316
G1 F1800 X96.257 Y111.531 E40.70869
G0 F3600 X96.257 Y112.096
G1 F1800 X92.042 Y107.881 E41.00608
G0 F3600 X92.042 Y108.447
G1 F1800 X96.257 Y112.662 E41.30347
G0 F3600 X96.257 Y113.228
G1 F1800 X92.042 Y109.013 E41.60086
G0 F3600 X92.042 Y109.578
G1 F1800 X96.257 Y113.793 E41.89825
G1 X96.327 Y113.863
G0 F3600 X96.8 Y104.9
G0 X124.507 Y104.142
G1 F1800 X127.956 Y107.591 E42.1416
G0 F3600 X127.956 Y107.026
G1 F1800 X125.073 Y104.142 E42.34504
G0 F3600 X125.638 Y104.142
G1 F1800 X127.956 Y106.46 E42.50859
G0 F3600 X127.956 Y105.894
G1 F1800 X126.204 Y104.142 E42.6322
G0 F3600 X126.77 Y104.142
G1 F1800 X127.956 Y105.329 E42.71592
G0 F3600 X127.956 Y104.763
G1 F1800 X127.335 Y104.142 E42.75973
G1 X127.265 Y104.072
;MESH:NONMESH
G0 F600 X127.265 Y104.072 Z0.5
G0 F3600 X123.201 Y114.101
G0 X96.8 Y114.1
G0 X97.1 Y113.8
;TIME_ELAPSED:38.106766
;LAYER:1
M106 S255
;TYPE:WALL-INNER
;MESH:OLED Surround-Body.stl
G1 F2700 X122.901 Y113.801 E43.61788
G1 X122.9 Y105.2 E43.90395
G1 X97.1 Y105.2 E44.76206
G1 X97.1 Y113.8 E45.0481
G0 F5400 X97.03 Y113.87
G0 X128.73 Y116.63
G0 X128.8 Y116.7
G1 F2700 X91.201 Y116.699 E46.29864
G1 X91.201 Y103.301 E46.74426
G1 X128.799 Y103.301 E47.99478
G1 X128.8 Y116.7 E48.44043
G0 F5400 X129.2 Y117.1
;TYPE:WALL-OUTER
G1 F1800 X90.801 Y117.099 E49.71759
G1 X90.801 Y102.901 E50.18981
G1 X129.199 Y102.901 E51.46694
G1 X129.2 Y117.1 E51.9392
G0 F5400 X129 Y117.1
G0 X128.73 Y116.63
G0 X97.072 Y113.828
G0 X97.5 Y113.4
G1 F1800 X122.501 Y113.401 E52.77073
G1 X122.5 Y105.6 E53.0302
G1 X97.5 Y105.6 E53.8617
G1 X97.5 Y113.4 E54.12113
G0 F5400 X97.7 Y113.4
G0 X97.699 Y113.9
G0 X96.71 Y114.19
;TYPE:SKIN
G1 F1800 X123.291 Y114.191 E55.00522
G1 X123.29 Y104.81 E55.31723
G1 X96.71 Y104.81 E56.20128
G1 X96.71 Y114.19 E56.51326
G0 F5400 X91.591 Y116.309
G1 F1800 X91.591 Y103.691 E56.93294
G1 X128.409 Y103.691 E58.15751
G1 X128.41 Y116.31 E58.57722
G1 X91.591 Y116.309 E59.80183
G0 F5400 X91.771 Y103.956
G1 F1800 X91.857 Y103.869 E59.8059
G0 F5400 X92.423 Y103.869
G1 F1800 X91.771 Y104.521 E59.83656
G0 F5400 X91.771 Y105.087
G1 F1800 X92.988 Y103.869 E59.89383
G0 F5400 X93.554 Y103.869
G1 F1800 X91.771 Y105.653 E59.97772
G0 F5400 X91.771 Y106.218
G1 F1800 X94.12 Y103.869 E60.08821
G0 F5400 X94.685 Y103.869
G1 F1800 X91.771 Y106.784 E60.2253
G0 F5400 X91.771 Y107.35
G1 F1800 X95.251 Y103.869 E60.38901
G0 F5400 X95.817 Y103.869
G1 F1800 X91.771 Y107.915 E60.57932
G0 F5400 X91.771 Y108.481
G1 F1800 X96.382 Y103.869 E60.79623
G0 F5400 X96.948 Y103.869
G1 F1800 X91.771 Y109.047 E61.03977
G0 F5400 X91.771 Y109.612
G1 F1800 X96.529 Y104.854 E61.26357
G0 F5400 X96.754 Y104.629
G1 F1800 X97.514 Y103.869 E61.29932
G0 F5400 X98.079 Y103.869
G1 F1800 X97.319 Y104.629 E61.33507
G0 F5400 X97.885 Y104.629
G1 F1800 X98.645 Y103.869 E61.37081
G0 F5400 X99.211 Y103.869
G1 F1800 X98.451 Y104.629 E61.40656
G0 F5400 X99.016 Y104.629
G1 F1800 X99.777 Y103.869 E61.44233
G0 F5400 X100.342 Y103.869
G1 F1800 X99.582 Y104.629 E61.47808
G0 F5400 X100.148 Y104.629
G1 F1800 X100.908 Y103.869 E61.51383
G0 F5400 X101.474 Y103.869
G1 F1800 X100.713 Y104.629 E61.5496
G0 F5400 X101.279 Y104.629
G1 F1800 X102.039 Y103.869 E61.58535
G0 F5400 X102.605 Y103.869
G1 F1800 X101.845 Y104.629 E61.6211
G0 F5400 X102.41 Y104.629
G1 F1800 X103.171 Y103.869 E61.65687
G0 F5400 X103.736 Y103.869
G1 F1800 X102.976 Y104.629 E61.69262
G0 F5400 X103.542 Y104.629
G1 F1800 X104.302 Y103.869 E61.72837
G0 F5400 X104.868 Y103.869
G1 F1800 X104.108 Y104.629 E61.76411
G0 F5400 X104.673 Y104.629
G1 F1800 X105.433 Y103.869 E61.79986
G0 F5400 X105.999 Y103.869
G1 F1800 X105.239 Y104.629 E61.83561
G0 F5400 X105.805 Y104.629
G1 F1800 X106.565 Y103.869 E61.87136
G0 F5400 X107.13 Y103.869
G1 F1800 X106.37 Y104.629 E61.90711
G0 F5400 X106.936 Y104.629
G1 F1800 X107.696 Y103.869 E61.94285
G0 F5400 X108.262 Y103.869
G1 F1800 X107.502 Y104.629 E61.9786
G0 F5400 X108.067 Y104.629
G1 F1800 X108.827 Y103.869 E62.01435
G0 F5400 X109.393 Y103.869
G1 F1800 X108.633 Y104.629 E62.0501
G0 F5400 X109.199 Y104.629
G1 F1800 X109.959 Y103.869 E62.08585
G0 F5400 X110.524 Y103.87
G1 F1800 X109.764 Y104.629 E62.12157
G0 F5400 X110.329 Y104.63
G1 F1800 X111.09 Y103.87 E62.15734
G0 F5400 X111.655 Y103.87
G1 F1800 X110.895 Y104.63 E62.19309
G0 F5400 X111.461 Y104.63
G1 F1800 X112.221 Y103.87 E62.22884
G0 F5400 X112.787 Y103.87
G1 F1800 X112.026 Y104.63 E62.26461
G0 F5400 X112.592 Y104.63
G1 F1800 X113.352 Y103.87 E62.30036
G0 F5400 X113.918 Y103.87
G1 F1800 X113.158 Y104.63 E62.33611
G0 F5400 X113.723 Y104.63
G1 F1800 X114.484 Y103.87 E62.37188
G0 F5400 X115.049 Y103.87
G1 F1800 X114.289 Y104.63 E62.40763
G0 F5400 X114.855 Y104.63
G1 F1800 X115.615 Y103.87 E62.44337
G0 F5400 X116.181 Y103.87
G1 F1800 X115.421 Y104.63 E62.47912
G0 F5400 X115.986 Y104.63
G1 F1800 X116.746 Y103.87 E62.51487
G0 F5400 X117.312 Y103.87
G1 F1800 X116.552 Y104.63 E62.55062
G0 F5400 X117.118 Y104.63
G1 F1800 X117.878 Y103.87 E62.58637
G0 F5400 X118.443 Y103.87
G1 F1800 X117.683 Y104.63 E62.62211
G0 F5400 X118.249 Y104.63
G1 F1800 X119.009 Y103.87 E62.65786
G0 F5400 X119.575 Y103.87
G1 F1800 X118.815 Y104.63 E62.69361
G0 F5400 X119.38 Y104.63
G1 F1800 X120.14 Y103.87 E62.72936
G0 F5400 X120.706 Y103.87
G1 F1800 X119.946 Y104.63 E62.76511
