;FLAVOR:Marlin
;TIME:1102
;Filament used: 0.689743m
;Layer height: 0.2
;MINX:98.112
;MINY:98.108
;MINZ:0.3
;MAXX:121.888
;MAXY:121.891
;MAXZ:40.1
;Generated with Cura_SteamEngine 4.13.1
M140 S60
M105
M190 S60
M104 S210
M105
M109 S210
M82 ;absolute extrusion mode
; Aquila X2 Custom Start G-code
G92 E0 ; Reset Extruder
G28 ; Home all axes
G1 Z2.0 F3000 ; Move Z Axis up little to prevent scratching of Heat Bed
G1 X0.1 Y20 Z0.3 F5000.0 ; Move to start position
G1 X0.1 Y200.0 Z0.3 F1500.0 E15 ; Draw the first line
G1 X0.4 Y200.0 Z0.3 F5000.0 ; Move to side a little
G1 X0.4 Y20 Z0.3 F1500.0 E30 ; Draw the second line
G92 E0 ; Reset Extruder
G1 Z2.0 F3000 ; Move Z Axis up little to prevent scratching of Heat Bed
G1 X5 Y20 Z0.3 F5000.0 ; Move over to prevent blob squish
G92 E0
G92 E0
G1 F2400 E-5
;LAYER_COUNT:200
;LAYER:0
M107
G0 F3600 X101.534 Y101.651 Z0.3
;TYPE:SKIRT
G1 F2400 E0
G1 F1800 X101.928 Y101.268 E0.02741
G1 X102.406 Y100.85 E0.05909
G1 X102.874 Y100.483 E0.08876
G1 X103.312 Y100.17 E0.11562
G1 X103.833 Y99.834 E0.14655
G1 X104.342 Y99.542 E0.17583
G1 X104.863 Y99.276 E0.20501
G1 X105.394 Y99.036 E0.23408
G1 X105.974 Y98.812 E0.2651
G1 X106.529 Y98.628 E0.29428
G1 X107.079 Y98.474 E0.32277
G1 X107.658 Y98.342 E0.3524
G1 X108.254 Y98.238 E0.38258
G1 X108.834 Y98.166 E0.41174
G1 X109.44 Y98.122 E0.44205
G1 X109.997 Y98.108 E0.46985
G1 X110.617 Y98.125 E0.50079
G1 X111.179 Y98.167 E0.52891
G1 X111.765 Y98.241 E0.55838
G1 X112.366 Y98.347 E0.58883
G1 X112.944 Y98.479 E0.6184
G1 X113.52 Y98.642 E0.64827
G1 X114.061 Y98.823 E0.67673
G1 X114.616 Y99.041 E0.70648
G1 X115.161 Y99.287 E0.73631
G1 X115.658 Y99.54 E0.76413
G1 X116.21 Y99.859 E0.79594
G1 X116.698 Y100.175 E0.82495
G1 X117.168 Y100.513 E0.85383
G1 X117.634 Y100.883 E0.88351
G1 X118.091 Y101.285 E0.91388
G1 X118.489 Y101.673 E0.94161
G1 X118.904 Y102.119 E0.972
G1 X119.291 Y102.577 E1.00192
G1 X119.638 Y103.034 E1.03055
G1 X119.973 Y103.522 E1.06008
G1 X120.294 Y104.047 E1.09078
G1 X120.569 Y104.55 E1.11938
G1 X120.836 Y105.102 E1.14997
G1 X121.055 Y105.617 E1.17789
G1 X121.261 Y106.176 E1.20761
G1 X121.436 Y106.74 E1.23707
G1 X121.584 Y107.312 E1.26655
G1 X121.707 Y107.918 E1.2974
G1 X121.793 Y108.473 E1.32542
G1 X121.857 Y109.099 E1.35681
G1 X121.886 Y109.677 E1.38569
G1 X121.888 Y110.249 E1.41422
G1 X121.845 Y111.052 E1.45434
G1 X121.778 Y111.639 E1.48382
G1 X121.683 Y112.218 E1.51309
G1 X121.567 Y112.765 E1.54099
G1 X121.405 Y113.372 E1.57233
G1 X121.217 Y113.95 E1.60266
G1 X121.003 Y114.511 E1.63261
G1 X120.773 Y115.036 E1.66121
G1 X120.525 Y115.535 E1.68901
G1 X120.223 Y116.075 E1.71988
G1 X119.917 Y116.564 E1.74865
G1 X119.567 Y117.063 E1.77906
G1 X119.206 Y117.527 E1.80839
G1 X118.826 Y117.969 E1.83747
G1 X118.405 Y118.413 E1.868
G1 X118.007 Y118.793 E1.89545
G1 X117.531 Y119.204 E1.92683
G1 X117.072 Y119.561 E1.95584
G1 X116.586 Y119.901 E1.98543
G1 X116.1 Y120.207 E2.01408
G1 X115.58 Y120.501 E2.04388
G1 X115.034 Y120.773 E2.07432
G1 X114.47 Y121.019 E2.10502
G1 X113.935 Y121.221 E2.13355
G1 X113.364 Y121.405 E2.16348
G1 X112.821 Y121.551 E2.19153
G1 X112.273 Y121.671 E2.21952
G1 X111.614 Y121.779 E2.25283
G1 X111.084 Y121.842 E2.27946
G1 X110.47 Y121.882 E2.31016
G1 X109.912 Y121.891 E2.338
G1 X109.262 Y121.868 E2.37045
G1 X108.726 Y121.823 E2.39728
G1 X108.116 Y121.74 E2.428
G1 X107.564 Y121.639 E2.45599
G1 X106.95 Y121.493 E2.48748
G1 X106.405 Y121.334 E2.5158
G1 X105.823 Y121.132 E2.54654
G1 X105.305 Y120.925 E2.57437
G1 X104.762 Y120.675 E2.60419
G1 X104.23 Y120.396 E2.63416
G1 X103.717 Y120.094 E2.66386
G1 X103.228 Y119.773 E2.69305
G1 X102.758 Y119.43 E2.72207
G1 X102.276 Y119.04 E2.75301
G1 X101.877 Y118.685 E2.77965
G1 X101.429 Y118.242 E2.81109
G1 X101.02 Y117.794 E2.84135
G1 X100.661 Y117.361 E2.86941
G1 X100.293 Y116.866 E2.90018
G1 X99.974 Y116.392 E2.92869
G1 X99.662 Y115.874 E2.95886
G1 X99.376 Y115.339 E2.98912
G1 X99.124 Y114.804 E3.01863
G1 X98.897 Y114.252 E3.0484
G1 X98.715 Y113.745 E3.07528
G1 X98.532 Y113.139 E3.10686
G1 X98.391 Y112.568 E3.1362
G1 X98.281 Y112.009 E3.16463
G1 X98.193 Y111.403 E3.19518
G1 X98.139 Y110.82 E3.22439
G1 X98.112 Y110.239 E3.25341
G1 X98.116 Y109.627 E3.28394
G1 X98.146 Y109.073 E3.31162
G1 X98.211 Y108.454 E3.34267
G1 X98.297 Y107.898 E3.37074
G1 X98.42 Y107.301 E3.40115
G1 X98.574 Y106.711 E3.43157
G1 X98.747 Y106.161 E3.46034
G1 X98.958 Y105.59 E3.49071
G1 X99.186 Y105.056 E3.51967
G1 X99.458 Y104.501 E3.55051
G1 X99.716 Y104.031 E3.57726
G1 X100.044 Y103.498 E3.60848
G1 X100.37 Y103.026 E3.6371
G1 X100.716 Y102.57 E3.66566
G1 X101.11 Y102.104 E3.6961
G1 X101.534 Y101.651 E3.72706
G0 F3600 X101.824 Y101.927
G1 F1800 X102.204 Y101.557 E3.75352
G1 X102.666 Y101.155 E3.78407
G1 X103.118 Y100.799 E3.81278
G1 X103.542 Y100.497 E3.83875
G1 X104.046 Y100.173 E3.86864
G1 X104.538 Y99.891 E3.89693
G1 X105.042 Y99.633 E3.92518
G1 X105.555 Y99.402 E3.95325
G1 X106.115 Y99.186 E3.98319
G1 X106.651 Y99.009 E4.01136
G1 X107.183 Y98.86 E4.03892
G1 X107.744 Y98.733 E4.06761
G1 X108.32 Y98.633 E4.09678
G1 X108.88 Y98.563 E4.12494
G1 X109.465 Y98.521 E4.1542
G1 X110.003 Y98.508 E4.18105
G1 X110.604 Y98.524 E4.21104
G1 X111.145 Y98.565 E4.23811
G1 X111.712 Y98.637 E4.26662
G1 X112.293 Y98.74 E4.29606
G1 X112.851 Y98.868 E4.32462
G1 X113.408 Y99.026 E4.35351
G1 X113.93 Y99.201 E4.38098
G1 X114.467 Y99.412 E4.40976
G1 X114.994 Y99.65 E4.43861
G1 X115.473 Y99.895 E4.46545
G1 X116.006 Y100.203 E4.49616
G1 X116.477 Y100.508 E4.52416
G1 X116.932 Y100.836 E4.55214
G1 X117.383 Y101.194 E4.58087
G1 X117.823 Y101.582 E4.61014
G1 X118.208 Y101.957 E4.63695
G1 X118.609 Y102.389 E4.66636
G1 X118.983 Y102.832 E4.69528
G1 X119.317 Y103.273 E4.72288
G1 X119.641 Y103.745 E4.75144
G1 X119.951 Y104.252 E4.78109
G1 X120.216 Y104.738 E4.80871
G1 X120.474 Y105.273 E4.83834
G1 X120.686 Y105.77 E4.8653
G1 X120.884 Y106.311 E4.89404
G1 X121.053 Y106.856 E4.92251
G1 X121.196 Y107.409 E4.951
G1 X121.314 Y107.994 E4.98078
G1 X121.397 Y108.532 E5.00794
G1 X121.458 Y109.135 E5.03817
G1 X121.486 Y109.683 E5.06555
G1 X121.488 Y110.24 E5.09334
G1 X121.446 Y111.022 E5.13241
G1 X121.381 Y111.59 E5.16093
G1 X121.289 Y112.15 E5.18924
G1 X121.177 Y112.678 E5.21617
G1 X121.019 Y113.264 E5.24645
G1 X120.838 Y113.822 E5.27572
G1 X120.63 Y114.366 E5.30478
G1 X120.408 Y114.871 E5.3323
G1 X120.168 Y115.355 E5.35925
G1 X119.876 Y115.876 E5.38905
G1 X119.579 Y116.349 E5.41691
G1 X119.242 Y116.831 E5.44625
G1 X118.893 Y117.278 E5.47455
G1 X118.525 Y117.706 E5.50271
G1 X118.117 Y118.135 E5.53224
G1 X117.733 Y118.502 E5.55874
G1 X117.273 Y118.898 E5.58903
G1 X116.829 Y119.243 E5.61708
G1 X116.36 Y119.57 E5.6456
G1 X115.89 Y119.867 E5.67334
G1 X115.386 Y120.151 E5.7022
G1 X114.859 Y120.413 E5.73156
G1 X114.313 Y120.651 E5.76128
G1 X113.806 Y120.843 E5.78833
G1 X113.245 Y121.023 E5.81772
G1 X112.72 Y121.164 E5.84484
G1 X112.192 Y121.279 E5.8718
G1 X111.552 Y121.384 E5.90416
G1 X111.04 Y121.444 E5.92988
G1 X110.447 Y121.483 E5.95952
G1 X109.91 Y121.491 E5.98632
G1 X109.279 Y121.468 E6.01782
G1 X108.763 Y121.425 E6.04365
G1 X108.173 Y121.344 E6.07336
G1 X107.639 Y121.246 E6.10045
G1 X107.046 Y121.104 E6.13087
G1 X106.521 Y120.951 E6.15815
G1 X105.957 Y120.755 E6.18794
G1 X105.457 Y120.555 E6.21481
G1 X104.933 Y120.313 E6.24361
G1 X104.419 Y120.044 E6.27255
G1 X103.923 Y119.751 E6.30129
G1 X103.45 Y119.441 E6.3295
G1 X102.997 Y119.11 E6.35749
G1 X102.531 Y118.731 E6.38746
G1 X102.146 Y118.388 E6.41319
G1 X101.712 Y117.96 E6.4436
G1 X101.319 Y117.527 E6.47277
G1 X100.971 Y117.107 E6.49998
G1 X100.616 Y116.631 E6.52961
G1 X100.308 Y116.171 E6.55723
G1 X100.006 Y115.671 E6.58637
G1 X99.731 Y115.154 E6.61558
G1 X99.487 Y114.637 E6.6441
G1 X99.268 Y114.103 E6.6729
G1 X99.092 Y113.613 E6.69887
G1 X98.916 Y113.027 E6.7294
G1 X98.781 Y112.476 E6.7577
G1 X98.674 Y111.935 E6.78522
G1 X98.59 Y111.35 E6.8147
G1 X98.537 Y110.787 E6.84291
G1 X98.512 Y110.224 E6.87103
G1 X98.516 Y109.634 E6.90047
G1 X98.545 Y109.098 E6.92725
G1 X98.609 Y108.5 E6.95725
G1 X98.692 Y107.963 E6.98436
G1 X98.811 Y107.385 E7.0138
G1 X98.96 Y106.817 E7.0431
G1 X99.128 Y106.283 E7.07103
G1 X99.332 Y105.732 E7.10034
G1 X99.553 Y105.217 E7.1283
G1 X99.815 Y104.68 E7.15811
G1 X100.065 Y104.227 E7.18392
G1 X100.383 Y103.711 E7.21416
G1 X100.697 Y103.256 E7.24174
G1 X101.033 Y102.815 E7.2694
G1 X101.413 Y102.365 E7.29879
G1 X101.824 Y101.927 E7.32875
G0 F3600 X102.113 Y102.203
G1 F1800 X102.481 Y101.846 E7.35433
G1 X102.926 Y101.459 E7.38375
G1 X103.362 Y101.116 E7.41143
G1 X103.772 Y100.824 E7.43654
G1 X104.26 Y100.511 E7.46547
G1 X104.733 Y100.24 E7.49266
G1 X105.221 Y99.991 E7.52
G1 X105.716 Y99.769 E7.54706
G1 X106.255 Y99.561 E7.57589
G1 X106.774 Y99.389 E7.60316
G1 X107.287 Y99.247 E7.62972
G1 X107.829 Y99.124 E7.65745
G1 X108.385 Y99.027 E7.68561
G1 X108.925 Y98.961 E7.71275
G1 X109.49 Y98.92 E7.74101
G1 X110.009 Y98.908 E7.76691
G1 X110.59 Y98.924 E7.79591
G1 X111.111 Y98.964 E7.82197
G1 X111.658 Y99.034 E7.84949
G1 X112.221 Y99.133 E7.87801
G1 X112.757 Y99.257 E7.90545
G1 X113.296 Y99.41 E7.93341
G1 X113.799 Y99.579 E7.95988
G1 X114.318 Y99.783 E7.9877
G1 X114.826 Y100.013 E8.01552
G1 X115.288 Y100.249 E8.04141
G1 X115.802 Y100.547 E8.07105
G1 X116.256 Y100.842 E8.09806
G1 X116.696 Y101.159 E8.12511
G1 X117.132 Y101.505 E8.15288
G1 X117.556 Y101.88 E8.18112
G1 X117.926 Y102.241 E8.20691
G1 X118.314 Y102.659 E8.23537
G1 X118.674 Y103.088 E8.26331
G1 X118.996 Y103.512 E8.28987
G1 X119.309 Y103.969 E8.3175
G1 X119.607 Y104.457 E8.34603
G1 X119.863 Y104.927 E8.37273
G1 X120.112 Y105.443 E8.40132
G1 X120.316 Y105.924 E8.42738
G1 X120.507 Y106.445 E8.45507
G1 X120.67 Y106.971 E8.48254
G1 X120.808 Y107.507 E8.51015
G1 X120.922 Y108.069 E8.53876
G1 X121.002 Y108.59 E8.56506
G1 X121.06 Y109.171 E8.59419
G1 X121.087 Y109.69 E8.62012
G1 X121.088 Y110.231 E8.64711
G1 X121.047 Y110.993 E8.68518
G1 X120.984 Y111.541 E8.7127
G1 X120.895 Y112.082 E8.74005
G1 X120.786 Y112.592 E8.76607
G1 X120.634 Y113.157 E8.79526
G1 X120.458 Y113.695 E8.8235
G1 X120.258 Y114.22 E8.85153
G1 X120.044 Y114.707 E8.87807
G1 X119.811 Y115.175 E8.90415
G1 X119.529 Y115.677 E8.93288
G1 X119.242 Y116.134 E8.9598
G1 X118.916 Y116.598 E8.98809
G1 X118.58 Y117.029 E9.01536
G1 X118.224 Y117.443 E9.0426
G1 X117.83 Y117.857 E9.07111
G1 X117.459 Y118.21 E9.09666
G1 X117.015 Y118.592 E9.12588
G1 X116.586 Y118.925 E9.15298
G1 X116.134 Y119.24 E9.18046
G1 X115.679 Y119.527 E9.2073
G1 X115.193 Y119.801 E9.23514
G1 X114.684 Y120.054 E9.26349
G1 X114.157 Y120.283 E9.29216
G1 X113.678 Y120.464 E9.31771
G1 X113.127 Y120.641 E9.34658
G1 X112.618 Y120.777 E9.37287
G1 X112.111 Y120.887 E9.39875
G1 X111.491 Y120.988 E9.43009
G1 X110.802 Y121.062 E9.46466
G1 X110.246 Y121.089 E9.49243
G1 X109.727 Y121.087 E9.51832
G1 X109.122 Y121.056 E9.54855
G1 X108.616 Y121.005 E9.57392
G1 X108.068 Y120.921 E9.60158
G1 X107.529 Y120.812 E9.62901
G1 X106.968 Y120.668 E9.65791
G1 X106.473 Y120.514 E9.68377
G1 X105.925 Y120.315 E9.71286
G1 X105.442 Y120.112 E9.739
G1 X104.938 Y119.868 E9.76694
G1 X104.455 Y119.604 E9.7944
G1 X103.985 Y119.317 E9.82187
G1 X103.519 Y119 E9.84999
G1 X103.096 Y118.679 E9.87648
G1 X102.664 Y118.318 E9.90457
G1 X102.273 Y117.957 E9.93112
G1 X101.864 Y117.537 E9.96037
G1 X101.518 Y117.145 E9.98645
G1 X101.156 Y116.692 E10.01538
G1 X100.848 Y116.264 E10.04169
G1 X100.544 Y115.795 E10.06957
G1 X100.258 Y115.302 E10.09801
G1 X100.008 Y114.812 E10.12545
G1 X99.778 Y114.302 E10.15336
G1 X99.582 Y113.802 E10.18016
G1 X99.412 Y113.301 E10.20655
G1 X99.253 Y112.736 E10.23583
G1 X99.137 Y112.229 E10.26178
G1 X99.036 Y111.669 E10.29017
G1 X98.967 Y111.12 E10.31778
G1 X98.926 Y110.584 E10.3446
G1 X98.909 Y110.018 E10.37285
G1 X98.922 Y109.465 E10.40044
G1 X98.96 Y108.95 E10.42621
G1 X99.03 Y108.369 E10.4554
G1 X99.12 Y107.85 E10.48168
G1 X99.248 Y107.281 E10.51078
G1 X99.392 Y106.766 E10.53746
G1 X99.572 Y106.226 E10.56586
G1 X99.771 Y105.715 E10.59322
G1 X99.997 Y105.211 E10.62077
G1 X100.254 Y104.706 E10.64904
G1 X100.505 Y104.269 E10.67418
G1 X100.826 Y103.767 E10.70391
G1 X101.35 Y103.059 E10.74786
G1 X101.716 Y102.626 E10.77614
G1 X102.113 Y102.203 E10.80508
G0 F3600 X102.402 Y102.479
G1 F1800 X102.891 Y102.015 E10.83871
G1 X103.309 Y101.663 E10.86598
G1 X103.723 Y101.348 E10.89193
G1 X104.135 Y101.063 E10.91693
G1 X104.612 Y100.767 E10.94493
G1 X105.062 Y100.519 E10.97057
G1 X105.549 Y100.279 E10.99765
G1 X106.04 Y100.068 E11.02432
G1 X106.537 Y99.886 E11.05072
G1 X107.044 Y99.727 E11.07723
G1 X107.543 Y99.596 E11.10297
G1 X108.075 Y99.484 E11.13009
G1 X108.606 Y99.4 E11.15691
G1 X109.135 Y99.343 E11.18346
G1 X109.67 Y99.313 E11.21019
G1 X110.014 Y99.308 E11.22736
G1 X110.576 Y99.324 E11.25541
G1 X111.077 Y99.363 E11.28048
G1 X111.604 Y99.43 E11.30698
G1 X112.149 Y99.527 E11.3346
G1 X112.663 Y99.646 E11.36092
G1 X113.184 Y99.794 E11.38794
G1 X113.668 Y99.957 E11.41342
G1 X114.168 Y100.154 E11.44023
G1 X114.658 Y100.376 E11.46707
G1 X115.104 Y100.604 E11.49206
G1 X115.599 Y100.892 E11.52063
G1 X116.036 Y101.176 E11.54663
G1 X116.46 Y101.482 E11.57272
G1 X116.88 Y101.816 E11.59949
G1 X117.288 Y102.177 E11.62667
G1 X117.753 Y102.638 E11.65934
G1 X118.12 Y103.046 E11.68672
G1 X118.469 Y103.473 E11.71423
G1 X118.978 Y104.193 E11.75822
G1 X119.264 Y104.663 E11.78567
G1 X119.511 Y105.116 E11.81141
G1 X119.75 Y105.614 E11.83897
G1 X119.947 Y106.078 E11.86412
G1 X120.13 Y106.579 E11.89073
G1 X120.287 Y107.086 E11.91721
G1 X120.42 Y107.604 E11.94389
G1 X120.529 Y108.144 E11.97137
G1 X120.606 Y108.648 E11.99681
G1 X120.662 Y109.208 E12.02489
G1 X120.69 Y109.88 E12.05844
G1 X120.683 Y110.436 E12.08618
G1 X120.648 Y110.963 E12.11253
G1 X120.587 Y111.493 E12.13915
G1 X120.501 Y112.013 E12.16545
G1 X120.395 Y112.505 E12.19055
G1 X120.249 Y113.05 E12.2187
G1 X120.079 Y113.568 E12.2459
G1 X119.885 Y114.075 E12.27299
G1 X119.679 Y114.542 E12.29845
G1 X119.454 Y114.994 E12.32364
G1 X119.182 Y115.478 E12.35134
G1 X118.905 Y115.919 E12.37732
G1 X118.591 Y116.366 E12.40457
G1 X118.267 Y116.78 E12.4308
G1 X117.923 Y117.179 E12.45708
G1 X117.543 Y117.578 E12.48457
G1 X117.058 Y118.033 E12.51775
G1 X116.637 Y118.383 E12.54507
G1 X116.206 Y118.707 E12.57197
G1 X115.789 Y118.988 E12.59705
G1 X115.33 Y119.267 E12.62385
G1 X114.852 Y119.527 E12.651
G1 X114.359 Y119.763 E12.67827
G1 X113.871 Y119.966 E12.70464
G1 X113.39 Y120.139 E12.73014
G1 X112.872 Y120.298 E12.75717
G1 X112.354 Y120.429 E12.78383
G1 X111.429 Y120.593 E12.8307
G1 X110.78 Y120.663 E12.86326
G1 X110.244 Y120.689 E12.89004
G1 X109.315 Y120.669 E12.93639
G1 X108.673 Y120.609 E12.96856
G1 X108.144 Y120.528 E12.99526
G1 X107.626 Y120.424 E13.02162
G1 X107.084 Y120.285 E13.04954
G1 X106.224 Y120.002 E13.09471
G1 X105.613 Y119.75 E13.12768
G1 X105.127 Y119.516 E13.15459
G1 X104.661 Y119.261 E13.18109
G1 X104.207 Y118.984 E13.20763
G1 X103.758 Y118.679 E13.23471
G1 X103.35 Y118.37 E13.26024
G1 X102.932 Y118.021 E13.28741
G1 X102.557 Y117.676 E13.31283
G1 X102.162 Y117.271 E13.34105
G1 X101.828 Y116.892 E13.36626
G1 X101.479 Y116.457 E13.39408
G1 X101.182 Y116.043 E13.4195
G1 X100.888 Y115.592 E13.44636
G1 X100.613 Y115.117 E13.47374
G1 X100.372 Y114.645 E13.50018
G1 X100.149 Y114.153 E13.52713
G1 X99.96 Y113.67 E13.55301
G1 X99.796 Y113.189 E13.57836
G1 X99.642 Y112.644 E13.60662
G1 X99.53 Y112.154 E13.63169
G1 X99.433 Y111.615 E13.65902
G1 X99.365 Y111.086 E13.68563
G1 X99.325 Y110.569 E13.7115
G1 X99.309 Y110.024 E13.7387
G1 X99.322 Y109.491 E13.7653
G1 X99.403 Y108.59 E13.81043
G1 X99.481 Y108.092 E13.83558
G1 X99.593 Y107.554 E13.86299
G1 X99.732 Y107.027 E13.89019
G1 X99.889 Y106.529 E13.91624
G1 X100.079 Y106.018 E13.94344
G1 X100.286 Y105.537 E13.96956
G1 X100.531 Y105.038 E13.99729
G1 X100.843 Y104.482 E14.0291
G1 X101.153 Y103.998 E14.05778
G1 X101.666 Y103.303 E14.10087
G1 X102.019 Y102.887 E14.12809
G1 X102.402 Y102.479 E14.15601
G1 F2400 E9.15601
;MESH:Insert-Body.stl
G0 F3600 X104.42 Y104.04
G0 X105.18 Y104.812
G0 X104.077 Y109.118
G0 X104.019 Y110.299
G0 X104.196 Y111.479
G0 X104.609 Y112.608
G0 X105.24 Y113.634
G0 X106.049 Y114.5
G0 X107.024 Y115.197
G0 X108.111 Y115.683
