;FLAVOR:Marlin
;TIME:1758
;Filament used: 2.16808m
;Layer height: 0.2
;MINX:92.755
;MINY:92.936
;MINZ:0.3
;MAXX:127.251
;MAXY:127.062
;MAXZ:20.1
;Generated with Cura_SteamEngine 4.13.1
M140 S60
M105
M190 S60
M104 S210
M105
M109 S210
M82 ;absolute extrusion mode
; Aquila X2 Custom Start G-code
G92 E0 ; Reset Extruder
G28 ; Home all axes
G1 Z2.0 F3000 ; Move Z Axis up little to prevent scratching of Heat Bed
G1 X0.1 Y20 Z0.3 F5000.0 ; Move to start position
G1 X0.1 Y200.0 Z0.3 F1500.0 E15 ; Draw the first line
G1 X0.4 Y200.0 Z0.3 F5000.0 ; Move to side a little
G1 X0.4 Y20 Z0.3 F1500.0 E30 ; Draw the second line
G92 E0 ; Reset Extruder
G1 Z2.0 F3000 ; Move Z Axis up little to prevent scratching of Heat Bed
G1 X5 Y20 Z0.3 F5000.0 ; Move over to prevent blob squish
G92 E0
G92 E0
G1 F2400 E-3
;LAYER_COUNT:100
;LAYER:0
M107
G0 F3600 X107.228 Y104.962 Z0.3
;TYPE:SUPPORT
G1 F2400 E0
G1 F1800 X112.772 Y104.962 E0.27659
G1 X115.543 Y109.762 E0.5531
G1 X112.772 Y114.562 E0.82962
G1 X107.228 Y114.562 E1.10621
G1 X104.457 Y109.762 E1.38272
G1 X107.228 Y104.962 E1.65923
G0 F3600 X107.743 Y107.156
G1 F1800 X107.349 Y107.552 E1.6871
G1 X107.061 Y107.958 E1.71194
G1 X106.822 Y108.414 E1.73762
G1 X106.671 Y108.858 E1.76102
G1 X106.561 Y109.373 E1.78729
G1 X106.553 Y109.919 E1.81453
G1 X106.615 Y110.442 E1.84081
G1 X106.745 Y110.929 E1.86596
G1 X106.962 Y111.387 E1.89124
G1 X107.23 Y111.824 E1.91682
G1 X107.615 Y112.249 E1.94543
G1 X108.006 Y112.578 E1.97092
G1 X108.404 Y112.818 E1.99411
G1 X108.895 Y113.03 E2.02079
G1 X109.395 Y113.152 E2.04647
G1 X109.924 Y113.213 E2.07303
G1 X110.44 Y113.183 E2.09882
G1 X110.917 Y113.086 E2.12311
G1 X111.466 Y112.887 E2.15224
G1 X111.899 Y112.641 E2.17708
G1 X112.269 Y112.363 E2.20017
G1 X112.639 Y111.987 E2.22649
G1 X112.955 Y111.55 E2.2534
G1 X113.194 Y111.075 E2.27993
G1 X113.344 Y110.613 E2.30416
G1 X113.439 Y110.068 E2.33176
G1 X113.445 Y109.552 E2.3575
G1 X113.38 Y109.088 E2.38088
G1 X113.233 Y108.554 E2.40851
G1 X113.035 Y108.124 E2.43213
G1 X112.732 Y107.648 E2.46028
G1 X112.389 Y107.279 E2.48541
G1 X112.017 Y106.971 E2.50951
G1 X111.59 Y106.697 E2.53482
G1 X111.072 Y106.485 E2.56275
G1 X110.597 Y106.362 E2.58722
G1 X110.114 Y106.315 E2.61144
G1 X109.572 Y106.338 E2.6385
G1 X109.039 Y106.45 E2.66567
G1 X108.593 Y106.609 E2.6893
G1 X108.104 Y106.881 E2.71721
G1 X107.743 Y107.156 E2.73985
G0 F3600 X115.543 Y109.762
G1 F1800 X112.772 Y114.562 E3.01636
G1 X107.228 Y114.562 E3.29296
G1 X104.457 Y109.762 E3.56947
G1 X107.228 Y104.962 E3.84598
G1 X112.772 Y104.962 E4.12257
G1 X115.543 Y109.762 E4.39909
G0 F3600 X113.445 Y109.552
G1 F1800 X113.38 Y109.089 E4.42241
G1 X113.233 Y108.556 E4.45
G1 X113.033 Y108.121 E4.47388
G1 X112.733 Y107.649 E4.50178
G1 X112.386 Y107.275 E4.52724
G1 X112.018 Y106.971 E4.55105
G1 X111.592 Y106.698 E4.57629
G1 X111.074 Y106.486 E4.60422
G1 X110.594 Y106.361 E4.62896
G1 X110.116 Y106.315 E4.65292
G1 X109.572 Y106.338 E4.68009
G1 X109.035 Y106.451 E4.70746
G1 X108.595 Y106.607 E4.73075
G1 X108.102 Y106.882 E4.75892
G1 X107.745 Y107.154 E4.78131
G1 X107.348 Y107.553 E4.80939
G1 X107.061 Y107.958 E4.83415
G1 X106.821 Y108.416 E4.85995
G1 X106.674 Y108.847 E4.88267
G1 X106.561 Y109.375 E4.90961
G1 X106.553 Y109.916 E4.9366
G1 X106.616 Y110.447 E4.96328
G1 X106.743 Y110.925 E4.98795
G1 X106.963 Y111.389 E5.01357
G1 X107.231 Y111.826 E5.03915
G1 X107.613 Y112.246 E5.06747
G1 X108.008 Y112.58 E5.09328
G1 X108.4 Y112.816 E5.11611
G1 X108.898 Y113.031 E5.14317
G1 X109.39 Y113.151 E5.16844
G1 X109.924 Y113.213 E5.19526
G1 X110.442 Y113.183 E5.22114
G1 X110.917 Y113.086 E5.24533
G1 X111.465 Y112.887 E5.27442
G1 X111.9 Y112.64 E5.29937
G1 X112.268 Y112.364 E5.32232
G1 X112.64 Y111.985 E5.34882
G1 X112.953 Y111.552 E5.37547
G1 X113.196 Y111.072 E5.40231
G1 X113.344 Y110.613 E5.42637
G1 X113.439 Y110.068 E5.45397
G1 X113.445 Y109.552 E5.47972
G1 F2400 E2.47972
;MESH:BasicStopNut-Body.stl
G0 F3600 X106.593 Y105.593
G0 X105.48 Y104.951
G0 X102.625 Y109.762
G1 F2400 E5.47972
G0 F3600 X102.725 Y109.762
;TYPE:WALL-INNER
G1 F1800 X106.363 Y116.062 E5.84267
G1 X113.637 Y116.062 E6.20557
G1 X117.275 Y109.762 E6.56852
G1 X113.637 Y103.462 E6.93147
G1 X106.363 Y103.462 E7.29437
G1 X102.725 Y109.762 E7.65732
G0 F3600 X102.625 Y109.762
G0 X106.344 Y116.096
G0 X113.217 Y124.267
G0 X113.298 Y124.324
G1 F1800 X113 Y124.83 E7.68662
G1 X112.715 Y125.336 E7.71559
G1 X112.443 Y125.702 E7.73834
G1 X112.205 Y125.902 E7.75385
G1 X111.896 Y126.043 E7.77079
G1 X111.434 Y126.127 E7.79422
G1 X110.719 Y126.173 E7.82997
G1 X110 Y126.19 E7.86585
G1 X109.282 Y126.173 E7.90168
G1 X108.539 Y126.124 E7.93883
G1 X108.091 Y126.039 E7.96158
G1 X107.783 Y125.895 E7.97854
G1 X107.564 Y125.712 E7.99278
G1 X107.285 Y125.335 E8.01618
G1 X107.04 Y124.907 E8.04078
G1 X106.701 Y124.325 E8.07438
G1 X106.224 Y123.74 E8.11204
G1 X105.625 Y123.286 E8.14954
G1 X105.15 Y123.064 E8.1757
G1 X104.415 Y122.901 E8.21326
G1 X103.663 Y122.928 E8.2508
G1 X103.161 Y123.039 E8.27645
G1 X102.605 Y123.235 E8.30586
G1 X102.076 Y123.436 E8.3341
G1 X101.618 Y123.544 E8.35757
G1 X101.257 Y123.534 E8.37559
G1 X100.927 Y123.424 E8.39294
G1 X100.569 Y123.212 E8.4137
G1 X99.995 Y122.792 E8.44919
G1 X99.43 Y122.338 E8.48535
G1 X98.899 Y121.871 E8.52063
G1 X98.399 Y121.393 E8.55514
G1 X98.075 Y121.003 E8.58043
G1 X97.93 Y120.69 E8.59764
G1 X97.883 Y120.414 E8.61161
G1 X97.929 Y119.821 E8.64128
G1 X98.029 Y119.316 E8.66697
G1 X98.133 Y118.547 E8.70568
G1 X98.085 Y117.791 E8.74347
G1 X97.86 Y117.079 E8.78073
G1 X97.601 Y116.629 E8.80663
G1 X97.269 Y116.232 E8.83245
G1 X96.685 Y115.774 E8.86948
G1 X96.227 Y115.536 E8.89523
G1 X95.682 Y115.333 E8.92424
G1 X95.135 Y115.142 E8.95315
G1 X94.73 Y114.937 E8.9758
G1 X94.438 Y114.678 E8.99527
G1 X94.261 Y114.381 E9.01252
G1 X94.129 Y113.999 E9.03268
G1 X93.958 Y113.304 E9.06839
G1 X93.824 Y112.628 E9.10277
G1 X93.714 Y111.91 E9.13901
G1 X93.629 Y111.106 E9.17935
G1 X93.659 Y110.603 E9.20449
G1 X93.75 Y110.331 E9.21879
G1 X93.951 Y110.034 E9.23669
G1 X94.349 Y109.663 E9.26383
G1 X94.903 Y109.207 E9.29963
G1 X95.427 Y108.674 E9.33692
G1 X95.822 Y108.035 E9.3744
G1 X96 Y107.551 E9.40013
G1 X96.088 Y107.05 E9.4255
G1 X96.088 Y106.536 E9.45115
G1 X95.934 Y105.801 E9.48861
G1 X95.598 Y105.079 E9.52834
G1 X95.284 Y104.543 E9.55934
G1 X95.032 Y104.069 E9.58612
G1 X94.928 Y103.678 E9.6063
G1 X94.936 Y103.357 E9.62232
G1 X95.089 Y102.872 E9.64769
G1 X95.427 Y102.18 E9.68612
G1 X95.767 Y101.56 E9.72139
G1 X96.144 Y100.941 E9.75755
G1 X96.578 Y100.292 E9.79651
G1 X96.86 Y99.971 E9.81782
G1 X97.159 Y99.766 E9.83591
G1 X97.406 Y99.679 E9.84897
G1 X97.885 Y99.623 E9.87303
G1 X98.43 Y99.631 E9.90023
G1 X99.037 Y99.625 E9.93051
G1 X99.783 Y99.5 E9.96825
G1 X100.475 Y99.214 E10.0056
G1 X100.908 Y98.91 E10.032
G1 X101.413 Y98.356 E10.0694
G1 X101.77 Y97.686 E10.10727
G1 X101.98 Y96.915 E10.14714
G1 X102.061 Y96.407 E10.17281
G1 X102.156 Y95.916 E10.19776
G1 X102.31 Y95.504 E10.2197
G1 X102.536 Y95.21 E10.2382
G1 X102.889 Y94.965 E10.25964
G1 X103.702 Y94.591 E10.30428
G1 X104.383 Y94.325 E10.34076
G1 X105.063 Y94.094 E10.37659
G1 X105.825 Y93.874 E10.41616
G1 X106.322 Y93.816 E10.44112
G1 X106.674 Y93.877 E10.45894
G1 X107.062 Y94.079 E10.48077
G1 X107.563 Y94.487 E10.513
G1 X108.121 Y94.951 E10.54921
G1 X108.769 Y95.335 E10.58679
G1 X109.483 Y95.557 E10.62409
G1 X110.008 Y95.605 E10.65039
G1 X110.753 Y95.506 E10.68789
G1 X111.46 Y95.222 E10.7259
G1 X112.111 Y94.766 E10.76555
G1 X112.775 Y94.198 E10.80915
G1 X113.149 Y93.952 E10.83148
G1 X113.498 Y93.834 E10.84986
G1 X113.865 Y93.822 E10.86818
G1 X114.261 Y93.898 E10.8883
G1 X114.926 Y94.091 E10.92284
G1 X115.626 Y94.329 E10.95973
G1 X116.29 Y94.588 E10.99529
G1 X116.93 Y94.87 E11.03018
G1 X117.359 Y95.12 E11.05495
G1 X117.609 Y95.374 E11.07273
G1 X117.792 Y95.739 E11.0931
G1 X117.902 Y96.177 E11.11563
G1 X117.981 Y96.69 E11.14153
G1 X118.147 Y97.447 E11.18019
G1 X118.446 Y98.134 E11.21757
G1 X118.742 Y98.557 E11.24333
G1 X119.1 Y98.915 E11.26859
G1 X119.517 Y99.208 E11.29402
G1 X119.984 Y99.425 E11.31971
G1 X120.653 Y99.593 E11.35412
G1 X121.44 Y99.632 E11.39343
G1 X122.124 Y99.623 E11.42756
G1 X122.585 Y99.677 E11.45072
G1 X122.861 Y99.775 E11.46533
G1 X123.145 Y99.975 E11.48266
G1 X123.569 Y100.512 E11.51679
G1 X123.846 Y100.925 E11.5416
G1 X124.232 Y101.56 E11.57868
G1 X124.572 Y102.18 E11.61395
G1 X124.927 Y102.905 E11.65423
G1 X125.066 Y103.375 E11.67868
G1 X125.062 Y103.749 E11.69734
G1 X124.924 Y104.167 E11.7193
G1 X124.236 Y105.39 E11.78931
G1 X124.014 Y105.978 E11.82067
G1 X123.912 Y106.542 E11.84926
G1 X123.912 Y107.049 E11.87456
G1 X124 Y107.559 E11.90038
G1 X124.287 Y108.255 E11.93794
G1 X124.738 Y108.862 E11.97566
G1 X125.247 Y109.334 E12.01029
G1 X125.649 Y109.663 E12.03621
G1 X126.014 Y109.992 E12.06073
G1 X126.229 Y110.291 E12.0791
G1 X126.347 Y110.632 E12.0971
G1 X126.371 Y111.109 E12.12093
G1 X126.285 Y111.912 E12.16122
G1 X126.176 Y112.624 E12.19716
G1 X126.042 Y113.304 E12.23173
G1 X125.866 Y114.019 E12.26847
G1 X125.689 Y114.48 E12.29311
G1 X125.461 Y114.787 E12.31219
G1 X125.164 Y115.002 E12.33048
G1 X124.674 Y115.208 E12.357
G1 X124.147 Y115.393 E12.38486
G1 X123.539 Y115.648 E12.41775
G1 X122.919 Y116.063 E12.45498
G1 X122.547 Y116.431 E12.48108
G1 X122.142 Y117.068 E12.51874
G1 X121.914 Y117.791 E12.55656
G1 X121.866 Y118.545 E12.59426
G1 X121.945 Y119.168 E12.62559
G1 X122.093 Y119.951 E12.66534
G1 X122.118 Y120.409 E12.68823
G1 X122.069 Y120.691 E12.70251
G1 X121.921 Y121.007 E12.71991
G1 X121.611 Y121.382 E12.74419
G1 X121.107 Y121.866 E12.77905
G1 X120.556 Y122.349 E12.81561
G1 X120.003 Y122.792 E12.85096
G1 X119.406 Y123.23 E12.8879
G1 X118.997 Y123.459 E12.91128
G1 X118.677 Y123.543 E12.92779
G1 X118.372 Y123.544 E12.94301
G1 X117.933 Y123.439 E12.96552
G1 X117.468 Y123.266 E12.99028
G1 X116.832 Y123.038 E13.02398
G1 X116.089 Y122.898 E13.06171
G1 X115.341 Y122.935 E13.09907
G1 X114.833 Y123.07 E13.12529
G1 X114.177 Y123.413 E13.16222
G1 X113.771 Y123.747 E13.18845
G1 X113.298 Y124.324 E13.22568
G0 F3600 X113.627 Y124.554
;TYPE:WALL-OUTER
G1 F1800 X113.346 Y125.03 E13.25325
G1 X113.05 Y125.555 E13.28332
G1 X112.736 Y125.978 E13.3096
G1 X112.419 Y126.244 E13.33025
G1 X112.016 Y126.428 E13.35235
G1 X111.487 Y126.524 E13.37917
G1 X110.73 Y126.573 E13.41702
G1 X110 Y126.59 E13.45345
G1 X109.27 Y126.573 E13.48988
G1 X108.486 Y126.521 E13.52908
G1 X107.966 Y126.422 E13.55549
G1 X107.569 Y126.237 E13.57734
G1 X107.272 Y125.989 E13.59664
G1 X106.95 Y125.555 E13.62361
G1 X106.694 Y125.107 E13.64935
G1 X106.371 Y124.554 E13.6813
G1 X105.944 Y124.03 E13.71502
G1 X105.417 Y123.63 E13.74803
G1 X105.021 Y123.445 E13.76984
G1 X104.378 Y123.303 E13.80269
G1 X103.714 Y123.326 E13.83584
G1 X103.271 Y123.424 E13.85847
G1 X102.743 Y123.611 E13.88642
G1 X102.193 Y123.819 E13.91575
G1 X101.658 Y123.945 E13.94317
G1 X101.19 Y123.933 E13.96653
G1 X100.758 Y123.789 E13.98925
G1 X100.348 Y123.546 E14.01303
G1 X99.759 Y123.115 E14.04944
G1 X99.18 Y122.65 E14.08649
G1 X98.635 Y122.171 E14.12269
G1 X98.105 Y121.665 E14.15924
G1 X97.734 Y121.218 E14.18823
G1 X97.545 Y120.811 E14.21061
G1 X97.48 Y120.43 E14.2299
G1 X97.531 Y119.772 E14.26282
G1 X97.634 Y119.25 E14.28937
G1 X97.731 Y118.533 E14.32546
G1 X97.689 Y117.865 E14.35886
G1 X97.492 Y117.241 E14.3915
G1 X97.272 Y116.859 E14.4135
G1 X96.989 Y116.521 E14.43549
G1 X96.467 Y116.112 E14.46857
G1 X96.064 Y115.902 E14.49125
G1 X95.546 Y115.709 E14.51882
G1 X94.976 Y115.509 E14.54896
G1 X94.502 Y115.27 E14.57545
G1 X94.127 Y114.936 E14.6005
G1 X93.897 Y114.553 E14.62279
G1 X93.746 Y114.115 E14.6459
G1 X93.57 Y113.4 E14.68264
G1 X93.429 Y112.69 E14.71875
G1 X93.397 Y112.472 E14.72974
G1 X93.316 Y111.954 E14.7559
G1 X93.228 Y111.118 E14.79784
G1 X93.263 Y110.527 E14.82738
G1 X93.388 Y110.153 E14.84705
G1 X93.647 Y109.77 E14.87012
G1 X94.076 Y109.37 E14.89938
G1 X94.632 Y108.912 E14.93532
G1 X95.11 Y108.425 E14.96936
G1 X95.461 Y107.859 E15.00259
G1 X95.612 Y107.447 E15.02448
G1 X95.688 Y107.015 E15.04637
G1 X95.688 Y106.577 E15.06822
G1 X95.552 Y105.928 E15.1013
G1 X95.243 Y105.265 E15.13779
G1 X94.933 Y104.735 E15.16843
G1 X94.656 Y104.214 E15.19786
G1 X94.526 Y103.726 E15.22306
G1 X94.538 Y103.289 E15.24487
G1 X94.713 Y102.732 E15.274
G1 X95.076 Y101.988 E15.3153
G1 X95.425 Y101.352 E15.35149
G1 X95.811 Y100.719 E15.38848
G1 X96.257 Y100.051 E15.42855
G1 X96.594 Y99.668 E15.454
G1 X96.977 Y99.406 E15.47716
G1 X97.313 Y99.287 E15.49494
G1 X97.868 Y99.223 E15.52281
G1 X98.431 Y99.231 E15.5509
G1 X99.002 Y99.225 E15.57939
G1 X99.672 Y99.113 E15.61328
G1 X100.281 Y98.861 E15.64616
G1 X100.642 Y98.608 E15.66816
G1 X101.084 Y98.124 E15.70086
G1 X101.396 Y97.538 E15.73398
G1 X101.588 Y96.831 E15.77053
G1 X101.668 Y96.331 E15.79579
G1 X101.769 Y95.807 E15.82241
G1 X101.956 Y95.308 E15.849
G1 X102.257 Y94.917 E15.87362
G1 X102.685 Y94.619 E15.89964
G1 X103.086 Y94.425 E15.92186
G1 X103.557 Y94.218 E15.94753
G1 X104.249 Y93.948 E15.98459
G1 X104.934 Y93.715 E16.02068
G1 X105.746 Y93.481 E16.06284
G1 X106.334 Y93.412 E16.09238
G1 X106.803 Y93.494 E16.11613
G1 X107.284 Y93.744 E16.14318
G1 X107.816 Y94.177 E16.1774
G1 X108.352 Y94.623 E16.21219
G1 X108.933 Y94.967 E16.24587
G1 X109.562 Y95.163 E16.27874
G1 X110 Y95.203 E16.30069
G1 X110.65 Y95.116 E16.3334
G1 X111.268 Y94.868 E16.36663
G1 X111.866 Y94.449 E16.40306
G1 X112.534 Y93.878 E16.4469
G1 X112.973 Y93.589 E16.47312
G1 X113.427 Y93.436 E16.49702
G1 X113.896 Y93.421 E16.52043
G1 X114.35 Y93.508 E16.54349
G1 X115.055 Y93.712 E16.58011
G1 X115.76 Y93.952 E16.61727
G1 X116.435 Y94.215 E16.65341
G1 X117.114 Y94.514 E16.69042
G1 X117.605 Y94.8 E16.71877
G1 X117.94 Y95.141 E16.74262
G1 X118.169 Y95.599 E16.76817
G1 X118.293 Y96.092 E16.79353
G1 X118.374 Y96.617 E16.82003
G1 X118.529 Y97.323 E16.85609
G1 X118.797 Y97.937 E16.88951
G1 X119.05 Y98.299 E16.91155
G1 X119.358 Y98.608 E16.93331
G1 X119.718 Y98.86 E16.95524
G1 X120.118 Y99.046 E16.97725
G1 X120.712 Y99.195 E17.0078
G1 X121.447 Y99.232 E17.04452
G1 X122.142 Y99.223 E17.07919
G1 X122.678 Y99.285 E17.10611
G1 X123.045 Y99.416 E17.12555
G1 X123.417 Y99.677 E17.14822
G1 X123.773 Y100.094 E17.17558
G1 X123.902 Y100.291 E17.18733
G1 X124.188 Y100.717 E17.21292
G1 X124.574 Y101.352 E17.25
G1 X124.923 Y101.988 E17.28619
G1 X125.3 Y102.758 E17.32897
G1 X125.467 Y103.321 E17.35826
G1 X125.461 Y103.815 E17.38291
G1 X125.292 Y104.329 E17.4099
G1 X124.941 Y104.951 E17.44554
G1 X124.599 Y105.56 E17.48038
G1 X124.401 Y106.085 E17.50838
G1 X124.312 Y106.578 E17.53337
G1 X124.312 Y107.015 E17.55517
G1 X124.387 Y107.447 E17.57705
G1 X124.638 Y108.057 E17.60996
G1 X125.037 Y108.594 E17.64333
G1 X125.51 Y109.032 E17.67549
G1 X125.914 Y109.363 E17.70155
G1 X126.313 Y109.723 E17.72836
G1 X126.588 Y110.106 E17.75188
G1 X126.744 Y110.556 E17.77565
G1 X126.772 Y111.118 E17.80372
G1 X126.738 Y111.443 E17.82002
G1 X126.683 Y111.955 E17.84571
G1 X126.57 Y112.689 E17.88276
G1 X126.43 Y113.4 E17.91892
G1 X126.247 Y114.143 E17.95709
G1 X126.042 Y114.676 E17.98558
G1 X125.746 Y115.074 E18.01033
G1 X125.359 Y115.354 E18.03416
G1 X124.83 Y115.577 E18.0628
G1 X124.291 Y115.766 E18.0913
G1 X123.729 Y116.002 E18.12171
G1 X123.173 Y116.374 E18.15508
G1 X122.86 Y116.684 E18.17706
G1 X122.508 Y117.238 E18.20981
G1 X122.31 Y117.865 E18.24261
G1 X122.268 Y118.533 E18.276
G1 X122.34 Y119.106 E18.30482
G1 X122.49 Y119.901 E18.34518
G1 X122.519 Y120.432 E18.37171
G1 X122.454 Y120.813 E18.39099
G1 X122.262 Y121.222 E18.41353
G1 X121.906 Y121.653 E18.44142
G1 X121.371 Y122.167 E18.47844
G1 X120.82 Y122.65 E18.51499
G1 X120.24 Y123.115 E18.55208
G1 X119.628 Y123.564 E18.58995
G1 X119.146 Y123.833 E18.61749
G1 X118.73 Y123.943 E18.63896
G1 X118.325 Y123.944 E18.65916
G1 X117.817 Y123.822 E18.68523
G1 X117.331 Y123.642 E18.71108
G1 X116.727 Y123.425 E18.7431
G1 X116.061 Y123.3 E18.77691
G1 X115.403 Y123.332 E18.80977
G1 X114.979 Y123.445 E18.83167
G1 X114.399 Y123.748 E18.86431
G1 X114.056 Y124.031 E18.8865
G1 X113.627 Y124.554 E18.92025
G0 F3600 X113.526 Y124.726
G0 X113.095 Y124.472
G0 X106.344 Y116.096
G0 X102.685 Y109.762
G0 X103.187 Y109.762
