;FLAVOR:Marlin
;TIME:4266
;Filament used: 3.33435m
;Layer height: 0.2
;MINX:38.797
;MINY:65.014
;MINZ:0.3
;MAXX:181.202
;MAXY:154.986
;MAXZ:8.9
;Generated with Cura_SteamEngine 4.13.1
M140 S60
M105
M190 S60
M104 S210
M105
M109 S210
M82 ;absolute extrusion mode
; Aquila X2 Custom Start G-code
G92 E0 ; Reset Extruder
G28 ; Home all axes
G1 Z2.0 F3000 ; Move Z Axis up little to prevent scratching of Heat Bed
G1 X0.1 Y20 Z0.3 F5000.0 ; Move to start position
G1 X0.1 Y200.0 Z0.3 F1500.0 E15 ; Draw the first line
G1 X0.4 Y200.0 Z0.3 F5000.0 ; Move to side a little
G1 X0.4 Y20 Z0.3 F1500.0 E30 ; Draw the second line
G92 E0 ; Reset Extruder
G1 Z2.0 F3000 ; Move Z Axis up little to prevent scratching of Heat Bed
G1 X5 Y20 Z0.3 F5000.0 ; Move over to prevent blob squish
G92 E0
G92 E0
G1 F2400 E-3
;LAYER_COUNT:44
;LAYER:0
M107
;MESH:NumberCutter_16-Cutter.stl
G0 F3600 X40.362 Y86.124 Z0.3
;TYPE:WALL-INNER
G1 F2400 E0
G1 F1800 X66.597 Y86.124 E1.30887
G1 X66.892 Y84.596 E1.38651
G1 X67.12 Y83.562 E1.43934
G1 X67.388 Y82.5 E1.49398
G1 X67.58 Y81.951 E1.523
G1 X67.791 Y81.426 E1.55122
G1 X68.047 Y80.868 E1.58185
G1 X68.304 Y80.373 E1.60968
G1 X68.597 Y79.868 E1.63881
G1 X68.926 Y79.361 E1.66896
G1 X69.262 Y78.892 E1.69774
G1 X69.631 Y78.424 E1.72748
G1 X70.014 Y77.985 E1.75654
G1 X70.414 Y77.569 E1.78533
G1 X70.833 Y77.172 E1.81413
G1 X71.275 Y76.791 E1.84325
G1 X71.753 Y76.418 E1.87349
G1 X72.23 Y76.082 E1.9026
G1 X72.708 Y75.777 E1.93089
G1 X73.236 Y75.475 E1.96124
G1 X73.745 Y75.215 E1.98975
G1 X74.256 Y74.985 E2.01771
G1 X74.41 Y74.948 E2.02561
G1 X75.251 Y74.922 E2.06759
G1 X76.108 Y74.978 E2.11044
G1 X76.972 Y75.121 E2.15413
G1 X77.452 Y75.242 E2.17883
G1 X78.217 Y75.625 E2.22151
G1 X78.955 Y76.038 E2.2637
G1 X79.697 Y76.499 E2.30728
G1 X80.395 Y76.98 E2.34957
G1 X81.06 Y77.486 E2.39126
G1 X81.723 Y78.04 E2.43437
G1 X82.359 Y78.624 E2.47744
G1 X82.968 Y79.238 E2.52059
G1 X83.535 Y79.865 E2.56276
G1 X84.072 Y80.519 E2.60498
G1 X84.59 Y81.211 E2.64811
G1 X85.076 Y81.93 E2.6914
G1 X85.593 Y82.669 E2.7364
G1 X86.076 Y83.423 E2.78107
G1 X86.517 Y84.176 E2.82461
G1 X86.946 Y84.983 E2.87021
G1 X87.491 Y86.124 E2.93329
G1 X114.716 Y86.124 E4.29155
G1 X115.055 Y85.491 E4.32738
G1 X114.59 Y84.794 E4.36918
G1 X114.346 Y84.437 E4.39075
G1 X112.979 Y82.589 E4.50543
G1 X111.54 Y80.796 E4.62013
G1 X110.006 Y79.031 E4.7368
G1 X108.439 Y77.362 E4.85101
G1 X106.643 Y75.895 E4.96671
G1 X104.809 Y74.523 E5.08097
G1 X102.918 Y73.229 E5.19529
G1 X100.974 Y72.017 E5.30958
G1 X98.981 Y70.889 E5.42384
G1 X96.921 Y69.837 E5.53923
G1 X94.906 Y69.074 E5.64673
G1 X92.878 Y68.406 E5.75325
G1 X90.824 Y67.828 E5.85971
G1 X88.745 Y67.341 E5.96624
G1 X86.612 Y66.94 E6.07452
G1 X84.528 Y66.64 E6.17956
G1 X81.22 Y66.288 E6.34553
G1 X77.895 Y66.098 E6.51169
G1 X74.566 Y66.072 E6.67777
G1 X71.239 Y66.207 E6.8439
G1 X67.922 Y66.504 E7.01004
G1 X64.626 Y66.965 E7.17608
G1 X62.661 Y67.326 E7.27576
G1 X60.716 Y67.776 E7.37536
G1 X58.793 Y68.314 E7.47498
G1 X56.896 Y68.937 E7.57459
G1 X55.031 Y69.646 E7.67414
G1 X53.167 Y70.451 E7.77543
G1 X51.402 Y71.311 E7.87339
G1 X49.644 Y72.268 E7.97325
G1 X48.886 Y72.741 E8.01782
G1 X48.143 Y73.256 E8.06292
G1 X47.448 Y73.787 E8.10656
G1 X46.767 Y74.36 E8.15096
G1 X46.113 Y74.966 E8.19544
G1 X45.491 Y75.603 E8.23986
G1 X44.899 Y76.268 E8.28428
G1 X44.332 Y76.971 E8.32934
G1 X43.815 Y77.678 E8.37304
G1 X43.323 Y78.422 E8.41754
G1 X42.869 Y79.187 E8.46192
G1 X42.445 Y79.987 E8.50709
G1 X42.072 Y80.779 E8.55077
G1 X41.731 Y81.602 E8.59521
G1 X41.431 Y82.439 E8.63957
G1 X41.096 Y83.418 E8.69119
G1 X40.802 Y84.402 E8.74243
G1 X40.362 Y86.124 E8.8311
G0 F3600 X39.847 Y92.354
G1 F1800 X39.97 Y93.938 E8.91036
G1 X40.078 Y94.879 E8.95762
G1 X40.221 Y95.818 E9.00501
G1 X40.458 Y96.953 E9.06285
G1 X40.746 Y98.074 E9.1206
G1 X41.078 Y99.163 E9.17739
G1 X41.464 Y100.253 E9.23508
G1 X41.898 Y101.325 E9.29278
G1 X42.38 Y102.376 E9.35047
G1 X42.907 Y103.405 E9.40815
G1 X43.481 Y104.41 E9.46589
G1 X44.11 Y105.405 E9.52462
G1 X45.035 Y106.556 E9.59829
G1 X46.006 Y107.647 E9.67115
G1 X47.026 Y108.687 E9.74383
G1 X48.097 Y109.678 E9.81662
G1 X49.214 Y110.614 E9.88933
G1 X50.375 Y111.496 E9.96207
G1 X51.578 Y112.319 E10.03479
G1 X52.821 Y113.082 E10.10756
G1 X54.099 Y113.784 E10.1803
G1 X55.411 Y114.422 E10.25309
G1 X56.751 Y114.997 E10.32583
G1 X58.14 Y115.51 E10.39971
G1 X59.506 Y115.943 E10.4712
G1 X60.917 Y116.316 E10.54401
G1 X62.344 Y116.618 E10.61678
G1 X63.783 Y116.85 E10.6895
G1 X65.264 Y117.015 E10.76384
G1 X67.797 Y117.308 E10.89106
G1 X70.357 Y117.474 E11.01905
G1 X72.923 Y117.512 E11.14708
G1 X75.487 Y117.423 E11.27507
G1 X78.043 Y117.207 E11.40305
G1 X80.585 Y116.864 E11.53102
G1 X83.107 Y116.395 E11.659
G1 X85.602 Y115.801 E11.78695
G1 X88.066 Y115.084 E11.91498
G1 X90.472 Y114.251 E12.04201
G1 X90.951 Y114.19 E12.0661
G1 X91.475 Y114.224 E12.0923
G1 X91.989 Y114.355 E12.11876
G1 X92.47 Y114.583 E12.14532
G1 X92.649 Y114.722 E12.15662
G1 X92.709 Y114.83 E12.16279
G1 X92.731 Y114.99 E12.17084
G1 X92.692 Y118.723 E12.35709
G1 X92.477 Y122.496 E12.54564
G1 X92.008 Y126.99 E12.77106
G1 X119.528 Y126.99 E14.14404
G1 X120.213 Y125 E14.24904
G1 X120.699 Y123.359 E14.33442
G1 X121.115 Y121.698 E14.41985
G1 X121.466 Y119.988 E14.50694
G1 X121.736 Y118.298 E14.59232
G1 X121.931 Y116.642 E14.67551
G1 X122.018 Y116.437 E14.68662
G1 X122.361 Y116.06 E14.71205
G1 X122.737 Y115.687 E14.73847
G1 X123.12 Y115.342 E14.76419
G1 X123.509 Y115.026 E14.7892
G1 X123.942 Y114.707 E14.81603
G1 X124.374 Y114.423 E14.84182
G1 X124.812 Y114.164 E14.86721
G1 X125.392 Y113.857 E14.89995
G1 X125.833 Y113.293 E14.93567
G1 X126.161 Y112.773 E14.96634
G1 X126.436 Y112.224 E14.99697
G1 X126.656 Y111.65 E15.02764
G1 X126.82 Y111.059 E15.05824
G1 X126.924 Y110.457 E15.08872
G1 X126.962 Y110.059 E15.10866
G1 X126.798 Y109.411 E15.14201
G1 X126.595 Y108.853 E15.17164
G1 X126.339 Y108.319 E15.20118
G1 X126.034 Y107.816 E15.23053
G1 X125.678 Y107.342 E15.2601
G1 X125.283 Y106.91 E15.28931
G1 X124.84 Y106.514 E15.31895
G1 X124.371 Y106.17 E15.34797
G1 X123.881 Y105.862 E15.37684
G1 X123.422 Y105.526 E15.40522
G1 X123.011 Y105.159 E15.43271
G1 X122.637 Y104.753 E15.46025
G1 X122.297 Y104.304 E15.48835
G1 X122.002 Y103.823 E15.5165
G1 X121.76 Y103.327 E15.54404
G1 X121.559 Y102.787 E15.57278
G1 X121.266 Y101.148 E15.65585
G1 X120.909 Y99.522 E15.7389
G1 X120.497 Y97.949 E15.82003
G1 X120.008 Y96.19 E15.91111
G1 X119.44 Y94.447 E16.00257
G1 X118.655 Y92.354 E16.11409
G1 X89.141 Y92.354 E17.58655
G1 X89.114 Y93.498 E17.64364
G1 X89.076 Y94.019 E17.66971
G1 X89.008 Y94.574 E17.6976
G1 X88.923 Y95.076 E17.723
G1 X88.805 Y95.602 E17.7499
G1 X88.663 Y96.118 E17.7766
G1 X88.488 Y96.646 E17.80435
G1 X88.298 Y97.14 E17.83076
G1 X88.077 Y97.639 E17.85798
G1 X87.825 Y98.137 E17.88583
G1 X87.335 Y98.845 E17.92879
G1 X86.809 Y99.534 E17.97203
G1 X86.267 Y100.178 E18.01403
G1 X85.665 Y100.829 E18.05826
G1 X85.065 Y101.419 E18.10024
G1 X84.432 Y101.986 E18.14264
G1 X83.749 Y102.54 E18.18652
G1 X83.064 Y103.044 E18.22894
G1 X82.341 Y103.526 E18.2723
G1 X81.607 Y103.964 E18.31494
G1 X81.019 Y104.233 E18.3472
G1 X80.398 Y104.48 E18.38054
G1 X79.817 Y104.68 E18.4112
G1 X79.193 Y104.862 E18.44363
G1 X78.571 Y105.013 E18.47556
G1 X77.949 Y105.132 E18.50715
G1 X77.306 Y105.225 E18.53957
G1 X76.69 Y105.284 E18.57044
G1 X76.024 Y105.316 E18.60371
G1 X75.411 Y105.317 E18.63429
G1 X74.745 Y105.287 E18.66755
G1 X74.13 Y105.23 E18.69836
G1 X73.485 Y105.138 E18.73087
G1 X73.41 Y105.116 E18.73477
G1 X72.902 Y104.889 E18.76253
G1 X72.388 Y104.63 E18.79124
G1 X71.892 Y104.35 E18.81966
G1 X71.428 Y104.057 E18.84704
G1 X70.938 Y103.715 E18.87685
G1 X70.496 Y103.373 E18.90473
G1 X70.076 Y103.015 E18.93226
G1 X69.656 Y102.622 E18.96096
G1 X69.254 Y102.206 E18.98982
G1 X68.871 Y101.772 E19.0187
G1 X68.518 Y101.328 E19.047
G1 X68.196 Y100.882 E19.07444
G1 X67.88 Y100.398 E19.10328
G1 X67.594 Y99.91 E19.1315
G1 X67.333 Y99.413 E19.15951
G1 X67.085 Y98.88 E19.18883
G1 X66.876 Y98.364 E19.21661
G1 X66.687 Y97.829 E19.24492
G1 X66.52 Y97.273 E19.27388
G1 X66.382 Y96.72 E19.30232
G1 X66.274 Y96.171 E19.33023
G1 X66.182 Y95.083 E19.3847
G1 X66.124 Y94.019 E19.43787
G1 X66.079 Y92.354 E19.52096
G1 X39.847 Y92.354 E20.82968
G0 F3600 X66.734 Y92.354
G1 F1800 X66.781 Y94 E20.91184
G1 X66.839 Y95.043 E20.96395
G1 X66.925 Y96.081 E21.01592
G1 X67.04 Y96.646 E21.04468
G1 X67.177 Y97.184 E21.07238
G1 X67.341 Y97.718 E21.10025
G1 X67.533 Y98.241 E21.12804
G1 X67.748 Y98.752 E21.1557
G1 X67.989 Y99.254 E21.18348
G1 X68.254 Y99.743 E21.21123
G1 X68.543 Y100.217 E21.23893
G1 X68.855 Y100.678 E21.2667
G1 X69.196 Y101.13 E21.29495
G1 X69.553 Y101.556 E21.32268
G1 X69.924 Y101.958 E21.34997
G1 X70.321 Y102.348 E21.37773
G1 X70.736 Y102.718 E21.40547
G1 X71.17 Y103.068 E21.43329
G1 X71.621 Y103.395 E21.46108
G1 X72.086 Y103.698 E21.48877
G1 X72.565 Y103.979 E21.51648
G1 X73.059 Y104.236 E21.54426
G1 X73.634 Y104.5 E21.57582
G1 X74.301 Y104.588 E21.60939
G1 X74.897 Y104.639 E21.63923
G1 X75.493 Y104.662 E21.66899
G1 X76.1 Y104.658 E21.69927
G1 X76.687 Y104.625 E21.72861
G1 X77.289 Y104.565 E21.75879
G1 X77.871 Y104.479 E21.78814
G1 X78.466 Y104.363 E21.81838
G1 X79.036 Y104.223 E21.84767
G1 X79.61 Y104.056 E21.87749
G1 X80.174 Y103.862 E21.90725
G1 X80.737 Y103.639 E21.93746
G1 X81.293 Y103.389 E21.96787
G1 X82.016 Y102.954 E22.00997
G1 X82.708 Y102.49 E22.05153
G1 X83.358 Y102.011 E22.09182
G1 X83.995 Y101.494 E22.13275
G1 X84.618 Y100.938 E22.17441
G1 X85.203 Y100.361 E22.2154
G1 X85.752 Y99.77 E22.25564
G1 X86.282 Y99.142 E22.29664
G1 X86.781 Y98.49 E22.3376
G1 X87.268 Y97.787 E22.38027
G1 X87.703 Y96.86 E22.43136
G1 X88.039 Y95.916 E22.48135
G1 X88.278 Y94.943 E22.53133
G1 X88.422 Y93.957 E22.58105
G1 X88.459 Y93.452 E22.60631
G1 X88.481 Y92.354 E22.6611
G1 X66.734 Y92.354 E23.74606
G0 F3600 X86.808 Y86.124
G1 F1800 X85.935 Y84.483 E23.8388
G1 X85.496 Y83.734 E23.88211
G1 X85.028 Y83.007 E23.92525
G1 X84.515 Y82.273 E23.96992
G1 X84.069 Y81.614 E24.00962
G1 X83.581 Y80.957 E24.05045
G1 X83.052 Y80.313 E24.09203
G1 X82.505 Y79.706 E24.1328
G1 X81.938 Y79.13 E24.17312
G1 X81.327 Y78.567 E24.21457
G1 X80.709 Y78.047 E24.25487
G1 X80.049 Y77.542 E24.29633
G1 X79.387 Y77.082 E24.33654
G1 X78.682 Y76.639 E24.37808
G1 X77.98 Y76.243 E24.4183
G1 X77.192 Y75.843 E24.46238
G1 X76.421 Y75.684 E24.50166
G1 X75.694 Y75.6 E24.53817
G1 X74.967 Y75.579 E24.57446
G1 X74.489 Y75.596 E24.59832
G1 X73.87 Y75.886 E24.63242
G1 X73.361 Y76.156 E24.66117
G1 X72.868 Y76.451 E24.68983
G1 X72.388 Y76.769 E24.71856
G1 X71.925 Y77.113 E24.74733
G1 X71.473 Y77.484 E24.77651
G1 X71.054 Y77.863 E24.80469
G1 X70.647 Y78.27 E24.83341
G1 X70.261 Y78.698 E24.86216
G1 X69.891 Y79.15 E24.89131
G1 X69.554 Y79.606 E24.91959
G1 X69.231 Y80.093 E24.94875
G1 X68.937 Y80.588 E24.97747
G1 X68.671 Y81.088 E25.00573
G1 X68.428 Y81.61 E25.03445
G1 X68.209 Y82.143 E25.0632
G1 X68.014 Y82.698 E25.09255
G1 X67.781 Y83.623 E25.14014
G1 X67.582 Y84.507 E25.18535
G1 X67.258 Y86.124 E25.26762
G1 X86.808 Y86.124 E26.24298
G0 F3600 X119.381 Y92.354
G1 F1800 X120.218 Y94.69 E26.36678
G1 X120.701 Y96.215 E26.44658
G1 X121.135 Y97.788 E26.52799
G1 X121.549 Y99.368 E26.60948
G1 X121.9 Y100.964 E26.69101
G1 X122.204 Y102.656 E26.77677
G1 X122.495 Y103.351 E26.81436
G1 X122.866 Y103.975 E26.85058
G1 X123.323 Y104.539 E26.8868
G1 X123.852 Y105.03 E26.92281
G1 X124.243 Y105.314 E26.94692
G1 X124.724 Y105.616 E26.97525
G1 X125.223 Y105.979 E27.00604
G1 X125.709 Y106.409 E27.03841
G1 X126.139 Y106.87 E27.06986
G1 X126.521 Y107.366 E27.1011
G1 X126.864 Y107.912 E27.13327
G1 X127.144 Y108.471 E27.16446
G1 X127.374 Y109.061 E27.19605
G1 X127.546 Y109.667 E27.22748
G1 X127.614 Y110.096 E27.24915
G1 X127.548 Y110.733 E27.2811
G1 X127.412 Y111.401 E27.31511
G1 X127.212 Y112.052 E27.34908
G1 X126.947 Y112.684 E27.38328
G1 X126.624 Y113.281 E27.41714
G1 X126.25 Y113.836 E27.45053
G1 X125.812 Y114.362 E27.48468
G1 X125.698 Y114.446 E27.49174
G1 X124.886 Y114.879 E27.53765
G1 X124.106 Y115.398 E27.58439
G1 X123.383 Y115.986 E27.63089
G1 X123.038 Y116.309 E27.65447
G1 X122.583 Y116.78 E27.68714
G1 X122.319 Y118.865 E27.79199
G1 X121.994 Y120.731 E27.88649
G1 X121.587 Y122.558 E27.97987
G1 X121.092 Y124.381 E28.07411
G1 X120.248 Y126.99 E28.21092
G1 X142.518 Y126.99 E29.32197
G1 X142.542 Y116.554 E29.84263
G1 X142.121 Y116.022 E29.87648
G1 X141.616 Y115.653 E29.90768
G1 X141.159 Y115.479 E29.93208
G1 X140.4 Y115.207 E29.9723
G1 X139.875 Y114.944 E30.0016
G1 X139.358 Y114.615 E30.03217
G1 X138.896 Y114.256 E30.06136
G1 X138.455 Y113.84 E30.0916
G1 X138.049 Y113.374 E30.12244
G1 X137.706 Y112.895 E30.15183
G1 X137.404 Y112.372 E30.18196
G1 X137.155 Y111.823 E30.21204
G1 X136.957 Y111.245 E30.24252
G1 X136.819 Y110.663 E30.27236
G1 X136.74 Y110.068 E30.30231
G1 X136.819 Y109.42 E30.33487
G1 X136.959 Y108.834 E30.36493
G1 X137.157 Y108.258 E30.39532
G1 X137.404 Y107.715 E30.42508
G1 X137.709 Y107.188 E30.45546
G1 X138.049 Y106.713 E30.4846
G1 X138.456 Y106.246 E30.51551
G1 X138.896 Y105.831 E30.54568
G1 X139.358 Y105.472 E30.57487
G1 X139.876 Y105.143 E30.60549
G1 X140.413 Y104.874 E30.63545
G1 X141.015 Y104.642 E30.66764
G1 X141.516 Y104.483 E30.69386
G1 X142.048 Y104.135 E30.72558
G1 X142.542 Y103.538 E30.76424
G1 X142.516 Y92.354 E31.32221
G1 X119.381 Y92.354 E32.47642
G0 F3600 X143.174 Y92.354
G1 F1800 X143.199 Y103.547 E33.03484
G1 X143.156 Y103.723 E33.04388
G1 X142.964 Y104.066 E33.06349
G1 X142.615 Y104.494 E33.09105
G1 X142.188 Y104.849 E33.11875
G1 X141.722 Y105.105 E33.14528
G1 X141.125 Y105.298 E33.17658
G1 X140.612 Y105.504 E33.20416
G1 X140.129 Y105.755 E33.23131
G1 X139.669 Y106.056 E33.25874
G1 X139.241 Y106.4 E33.28614
G1 X138.847 Y106.787 E33.31369
G1 X138.496 Y107.206 E33.34096
G1 X138.185 Y107.664 E33.36858
G1 X137.925 Y108.142 E33.39572
G1 X137.71 Y108.65 E33.42325
G1 X137.547 Y109.171 E33.45048
G1 X137.437 Y109.703 E33.47758
G1 X137.392 Y110.049 E33.49499
G1 X137.486 Y110.654 E33.52554
G1 X137.623 Y111.182 E33.55275
G1 X137.812 Y111.696 E33.58007
G1 X138.05 Y112.191 E33.60747
G1 X138.339 Y112.662 E33.63504
G1 X138.668 Y113.096 E33.66221
G1 X139.044 Y113.503 E33.68986
G1 X139.451 Y113.864 E33.717
G1 X139.898 Y114.189 E33.74457
G1 X140.369 Y114.465 E33.77181
G1 X140.872 Y114.696 E33.79942
G1 X141.436 Y114.874 E33.82893
G1 X141.96 Y115.099 E33.85738
G1 X142.423 Y115.416 E33.88537
G1 X142.8 Y115.801 E33.91226
G1 X143.101 Y116.255 E33.93943
G1 X143.199 Y116.513 E33.9532
G1 X143.175 Y126.99 E34.4759
G1 X172.689 Y126.99 E35.94836
G1 X172.665 Y116.535 E36.46997
G1 X172.707 Y116.368 E36.47856
G1 X172.976 Y115.915 E36.50484
G1 X173.347 Y115.5 E36.53261
G1 X173.793 Y115.165 E36.56044
G1 X174.284 Y114.924 E36.58773
G1 X174.993 Y114.695 E36.6249
G1 X175.498 Y114.463 E36.65263
G1 X175.973 Y114.184 E36.68011
G1 X176.414 Y113.864 E36.70729
G1 X176.824 Y113.5 E36.73465
G1 X177.196 Y113.096 E36.76205
G1 X177.527 Y112.659 E36.7894
G1 X177.814 Y112.191 E36.81679
G1 X178.052 Y111.696 E36.84419
G1 X178.242 Y111.177 E36.87176
G1 X178.379 Y110.649 E36.89898
G1 X178.473 Y110.044 E36.92952
G1 X178.378 Y109.435 E36.96027
G1 X178.241 Y108.905 E36.98758
G1 X178.052 Y108.392 E37.01486
G1 X177.814 Y107.897 E37.04226
G1 X177.527 Y107.428 E37.06969
G1 X177.196 Y106.991 E37.09704
G1 X176.824 Y106.587 E37.12444
G1 X176.414 Y106.223 E37.15179
G1 X175.969 Y105.901 E37.1792
G1 X175.495 Y105.623 E37.20661
G1 X174.992 Y105.391 E37.23425
G1 X174.421 Y105.212 E37.2641
G1 X173.898 Y104.985 E37.29255
G1 X173.449 Y104.675 E37.31977
G1 X173.061 Y104.281 E37.34736
G1 X172.761 Y103.829 E37.37442
G1 X172.665 Y103.578 E37.38783
G1 X172.691 Y92.354 E37.9478
G1 X143.174 Y92.354 E39.42041
G0 F3600 X172.704 Y86.124
G1 F1800 X172.711 Y84.457 E39.50357
G1 X172.741 Y84.314 E39.51086
G1 X173.002 Y83.698 E39.54424
G1 X173.336 Y83.083 E39.57916
G1 X173.734 Y82.5 E39.61437
G1 X174.194 Y81.951 E39.65011
G1 X174.685 Y81.469 E39.68443
G1 X175.235 Y81.028 E39.71961
G1 X175.518 Y80.833 E39.73675
G1 X176.142 Y80.469 E39.77279
G1 X176.72 Y80.213 E39.80433
G1 X177.264 Y79.904 E39.83554
G1 X177.765 Y79.55 E39.86615
