;FLAVOR:Marlin
;TIME:190
;Filament used: 0.0620366m
;Layer height: 0.1
;MINX:110.95
;MINY:107.807
;MINZ:0.3
;MAXX:142.427
;MAXY:119.311
;MAXZ:3.3
;Generated with Cura_SteamEngine 4.13.1
M140 S60
M105
M190 S60
M104 S210
M105
M109 S210
M82 ;absolute extrusion mode
; Aquila X2 Custom Start G-code
G92 E0 ; Reset Extruder
G28 ; Home all axes
G1 Z2.0 F3000 ; Move Z Axis up little to prevent scratching of Heat Bed
G1 X0.1 Y20 Z0.3 F5000.0 ; Move to start position
G1 X0.1 Y200.0 Z0.3 F1500.0 E15 ; Draw the first line
G1 X0.4 Y200.0 Z0.3 F5000.0 ; Move to side a little
G1 X0.4 Y20 Z0.3 F1500.0 E30 ; Draw the second line
G92 E0 ; Reset Extruder
G1 Z2.0 F3000 ; Move Z Axis up little to prevent scratching of Heat Bed
G1 X5 Y20 Z0.3 F5000.0 ; Move over to prevent blob squish
G92 E0
G92 E0
G1 F2400 E-3
;LAYER_COUNT:31
;LAYER:0
M107
;MESH:PTFE_CLIP.STL(1)
G0 F3600 X116.45 Y111.553 Z0.3
;TYPE:WALL-INNER
G1 F2400 E0
G1 F1800 X116.922 Y112.01 E0.03278
G1 X117.26 Y112.46 E0.06086
G1 X117.535 Y113.007 E0.0914
G1 X117.676 Y113.479 E0.11598
G1 X117.746 Y114.03 E0.14369
G1 X117.72 Y114.583 E0.17131
G1 X117.621 Y115.052 E0.19522
G1 X117.463 Y115.478 E0.21789
G1 X117.158 Y116.007 E0.24835
G1 X116.9 Y116.318 E0.26851
G1 X117.141 Y115.95 E0.27097
G1 X117.45 Y115.39 E0.27845
G1 X117.644 Y114.76 E0.29922
G1 X117.702 Y114.107 E0.31265
G1 X117.623 Y113.456 E0.32031
G1 X117.431 Y112.88 E0.33397
G1 X117.077 Y112.271 E0.35863
G1 X116.628 Y111.784 E0.38697
G1 X116.044 Y111.38 E0.42239
G1 X115.338 Y111.104 E0.46021
G1 X114.74 Y111.01 E0.49041
G1 X114.077 Y111.038 E0.52352
G1 X113.35 Y111.241 E0.56118
G1 X112.722 Y111.588 E0.59697
G1 X112.193 Y112.063 E0.63244
G1 X111.837 Y112.553 E0.66266
G1 X111.566 Y113.142 E0.69501
G1 X111.42 Y113.786 E0.72795
G1 X111.41 Y114.446 E0.76088
G1 X111.554 Y115.136 E0.79605
G1 X111.798 Y115.694 E0.82643
G1 X112.168 Y116.212 E0.85819
G1 X112.2 Y116.314 E0.86352
G1 X111.972 Y116.05 E0.87328
G1 X111.683 Y115.575 E0.8917
G1 X111.468 Y115.014 E0.90467
G1 X111.378 Y114.574
G1 X111.351 Y114.098 E0.91882
G1 X111.422 Y113.484 E0.94009
G1 X111.605 Y112.909 E0.9602
G1 X111.903 Y112.36 E0.9774
G1 X112.173 Y112.015 E0.98075
G1 X112.65 Y111.556 E0.98477
G1 X112.65 Y108.207 E1.15185
G1 X116.45 Y108.207 E1.34144
G1 X116.45 Y111.553 E1.50837
G0 F3600 X116.85 Y111.384
;TYPE:WALL-OUTER
G1 F1800 X117.227 Y111.749 E1.53455
G1 X117.601 Y112.246 E1.56558
G1 X117.907 Y112.856 E1.59963
G1 X118.069 Y113.399 E1.6279
G1 X118.147 Y114.015 E1.65888
G1 X118.119 Y114.628 E1.68949
G1 X118.005 Y115.169 E1.71707
G1 X117.826 Y115.65 E1.74268
G1 X117.488 Y116.237 E1.77647
G1 X117.132 Y116.665 E1.80425
G1 X116.655 Y117.077 E1.83569
G1 X116.543 Y117.074 E1.84128
G1 X116.5 Y116.998 E1.84564
G1 X116.5 Y116.142 E1.88834
G1 X116.804 Y115.733 E1.91377
G1 X117.08 Y115.233 E1.94226
G1 X117.249 Y114.683 E1.97097
G1 X117.3 Y114.113 E1.99952
G1 X117.231 Y113.544 E2.02811
G1 X117.065 Y113.046 E2.0543
G1 X116.753 Y112.51 E2.08525
G1 X116.364 Y112.088 E2.11388
G1 X115.855 Y111.735 E2.14478
G1 X115.233 Y111.492 E2.1781
G1 X114.717 Y111.411 E2.20416
G1 X114.14 Y111.436 E2.23297
G1 X113.502 Y111.614 E2.26602
G1 X112.955 Y111.916 E2.29719
G1 X112.492 Y112.332 E2.32824
G1 X112.184 Y112.756 E2.35439
G1 X111.947 Y113.271 E2.38267
G1 X111.819 Y113.834 E2.41148
G1 X111.811 Y114.408 E2.44012
G1 X111.937 Y115.014 E2.471
G1 X112.148 Y115.495 E2.4972
G1 X112.504 Y115.994 E2.52778
G1 X112.6 Y116.142 E2.53658
G1 X112.6 Y117.004 E2.57959
G1 X112.533 Y117.087 E2.58491
G1 X112.436 Y117.071 E2.58982
G1 X112.012 Y116.709 E2.61763
G1 X111.646 Y116.284 E2.64561
G1 X111.325 Y115.756 E2.67644
G1 X111.082 Y115.123 E2.71027
G1 X110.981 Y114.629 E2.73542
G1 X110.95 Y114.086 E2.76256
G1 X111.03 Y113.399 E2.79706
G1 X111.237 Y112.748 E2.83114
G1 X111.565 Y112.144 E2.86543
G1 X111.875 Y111.747 E2.89056
G1 X112.25 Y111.386 E2.91653
G1 X112.25 Y107.807 E3.09509
G1 X116.85 Y107.807 E3.32459
G1 X116.85 Y111.384 E3.50304
G0 F3600 X116.993 Y111.523
G0 X116.785 Y111.737
G0 X116.06 Y110.967
;TYPE:SKIN
G1 F1800 X115.441 Y110.726 E3.53618
G1 X114.762 Y110.618 E3.57048
G1 X114.015 Y110.65 E3.60779
G1 X113.202 Y110.878 E3.64991
G1 X113.04 Y110.967 E3.65913
G1 X113.04 Y108.597 E3.77737
G1 X116.06 Y108.597 E3.92804
G1 X116.06 Y110.967 E4.04628
G0 F3600 X115.879 Y109.091
G1 F1800 X115.565 Y108.777 E4.06844
G0 F3600 X114.999 Y108.777
G1 F1800 X115.879 Y109.656 E4.13049
G0 F3600 X115.879 Y110.222
G1 F1800 X114.433 Y108.777 E4.23248
G0 F3600 X113.868 Y108.777
G1 F1800 X115.742 Y110.65 E4.36466
G0 F3600 X114.998 Y110.473
G1 F1800 X113.302 Y108.777 E4.48432
G0 F3600 X113.219 Y109.259
G1 F1800 X114.411 Y110.451 E4.56843
G0 F3600 X113.89 Y110.496
G1 F1800 X113.219 Y109.824 E4.6158
G0 F3600 X113.219 Y110.39
G1 F1800 X113.449 Y110.621 E4.63207
G1 F2400 E1.63207
;MESH:PTFE_CLIP.STL
G0 F3600 X116.632 Y111.476
G0 X117.711 Y111.008
G0 X135.665 Y111.476
G0 X136.75 Y111.476
G0 X140.73 Y113.77
;TYPE:WALL-INNER
G1 F2400 E4.63207
G1 F1800 X141.243 Y114.274 E4.66795
G1 X141.507 Y114.625 E4.68986
G1 X141.772 Y115.12 E4.71787
G1 X141.943 Y115.64 E4.74518
G1 X142.026 Y116.249 E4.77584
G1 X142.001 Y116.796 E4.80316
G1 X141.899 Y117.279 E4.82779
G1 X141.745 Y117.694 E4.84987
G1 X141.531 Y118.089 E4.87229
G1 X141.181 Y118.536 E4.90061
G1 X141.181 Y118.48 E4.90341
G1 X141.479 Y118.083 E4.90519
G1 X141.751 Y117.558 E4.91227
G1 X141.934 Y116.926 E4.93754
G1 X141.981 Y116.271 E4.95049
G1 X141.89 Y115.62 E4.95537
G1 X141.668 Y115.004 E4.9659
G1 X141.355 Y114.488 E4.98229
G1 X140.948 Y114.04 E5.00155
G1 X140.418 Y113.652 E5.03239
G1 X139.774 Y113.367 E5.06752
G1 X139.179 Y113.242 E5.09785
G1 X138.526 Y113.238 E5.13043
G1 X137.933 Y113.353 E5.16057
G1 X137.372 Y113.58 E5.19076
G1 X136.791 Y113.971 E5.2257
G1 X136.335 Y114.449 E5.25866
G1 X136.011 Y114.965 E5.28906
G1 X135.767 Y115.63 E5.3244
G1 X135.677 Y116.329 E5.35956
G1 X135.748 Y117.04 E5.39521
G1 X135.952 Y117.662 E5.42786
G1 X136.302 Y118.256 E5.46226
G1 X136.48 Y118.533 E5.47869
G1 X136.253 Y118.27 E5.48022
G1 X135.963 Y117.792 E5.48032
G1 X135.762 Y117.28 E5.49392
G1 X135.658 Y116.792 E5.51419
G1 X135.631 Y116.317 E5.52385
G1 X135.703 Y115.701 E5.52762
G1 X135.866 Y115.172 E5.54207
G1 X136.062 Y114.77 E5.55955
G1 X136.337 Y114.372 E5.56911
G1 X136.93 Y113.765 E5.59219
G1 X136.93 Y110.425 E5.75882
G1 X140.73 Y110.425 E5.9484
G1 X140.73 Y113.77 E6.11529
G0 F3600 X141.13 Y113.602
;TYPE:WALL-OUTER
G1 F1800 X141.547 Y114.012 E6.14446
G1 X141.847 Y114.412 E6.16941
G1 X142.14 Y114.96 E6.20041
G1 X142.334 Y115.548 E6.2313
G1 X142.427 Y116.235 E6.26589
G1 X142.399 Y116.847 E6.29645
G1 X142.286 Y117.387 E6.32398
G1 X142.11 Y117.86 E6.34915
G1 X141.869 Y118.305 E6.3744
G1 X141.533 Y118.753 E6.40234
G1 X141.089 Y119.178 E6.433
G1 X140.917 Y119.305 E6.44367
G1 X140.804 Y119.276 E6.44949
G1 X140.78 Y119.216 E6.45272
G1 X140.781 Y118.346 E6.49612
G1 X141.139 Y117.869 E6.52587
G1 X141.378 Y117.409 E6.55174
G1 X141.538 Y116.855 E6.58051
G1 X141.579 Y116.284 E6.60907
G1 X141.5 Y115.717 E6.63763
G1 X141.305 Y115.177 E6.66627
G1 X141.033 Y114.728 E6.69246
G1 X140.679 Y114.339 E6.7187
G1 X140.217 Y114 E6.74729
G1 X139.651 Y113.75 E6.77816
G1 X139.136 Y113.642 E6.80441
G1 X138.563 Y113.638 E6.833
G1 X138.047 Y113.738 E6.85922
G1 X137.561 Y113.935 E6.88539
G1 X137.05 Y114.279 E6.91612
G1 X136.652 Y114.696 E6.94488
G1 X136.372 Y115.142 E6.97115
G1 X136.158 Y115.725 E7.00213
G1 X136.08 Y116.335 E7.03281
G1 X136.142 Y116.957 E7.064
G1 X136.319 Y117.496 E7.0923
G1 X136.636 Y118.035 E7.1235
G1 X136.88 Y118.363 E7.14389
G1 X136.88 Y119.212 E7.18625
G1 X136.811 Y119.306 E7.19207
G1 X136.725 Y119.295 E7.19639
G1 X136.298 Y118.934 E7.22429
G1 X135.927 Y118.504 E7.25262
G1 X135.605 Y117.974 E7.28356
G1 X135.378 Y117.395 E7.31459
G1 X135.261 Y116.846 E7.3426
G1 X135.23 Y116.305 E7.36963
G1 X135.31 Y115.617 E7.40419
G1 X135.493 Y115.024 E7.43515
G1 X135.716 Y114.568 E7.46047
G1 X136.029 Y114.114 E7.48798
G1 X136.53 Y113.602 E7.52372
G1 X136.53 Y110.025 E7.70218
G1 X141.13 Y110.025 E7.93168
G1 X141.13 Y113.602 E8.11013
G0 F3600 X141.272 Y113.742
G0 X141.061 Y113.955
G0 X140.34 Y113.191
;TYPE:SKIN
G1 F1800 X139.895 Y112.994 E8.13441
G1 X139.22 Y112.852 E8.16882
G1 X138.489 Y112.848 E8.20529
G1 X137.822 Y112.977 E8.23919
G1 X137.32 Y113.18 E8.2662
G1 X137.32 Y110.815 E8.38419
G1 X140.34 Y110.815 E8.53486
G1 X140.34 Y113.191 E8.6534
G0 F3600 X140.159 Y111.309
G1 F1800 X139.845 Y110.995 E8.67556
G0 F3600 X139.279 Y110.995
G1 F1800 X140.159 Y111.875 E8.73764
G0 F3600 X140.159 Y112.441
G1 F1800 X138.713 Y110.995 E8.83967
G0 F3600 X138.148 Y110.995
G1 F1800 X139.994 Y112.841 E8.96991
G0 F3600 X139.264 Y112.677
G1 F1800 X137.582 Y110.995 E9.08859
G0 F3600 X137.499 Y111.477
G1 F1800 X138.69 Y112.668 E9.17262
G0 F3600 X138.179 Y112.724
G1 F1800 X137.499 Y112.043 E9.22063
G0 F3600 X137.499 Y112.608
G1 F1800 X137.715 Y112.825 E9.23591
G1 F2400 E6.23591
;MESH:NONMESH
G0 F600 X137.715 Y112.825 Z0.4
G0 F3600 X136.75 Y111.553
G0 X135.665 Y111.553
G0 X118.416 Y111.922
G0 X117.412 Y112.362
G0 X116.45 Y111.553
;TIME_ELAPSED:12.545652
;LAYER:1
M106 S255
;TYPE:WALL-INNER
;MESH:PTFE_CLIP.STL(1)
G1 F2400 E9.23591
G1 F2700 X116.93 Y112.019 E9.24703
G1 X117.262 Y112.461 E9.25623
G1 X117.533 Y113.003 E9.2663
G1 X117.698 Y113.592 E9.27647
G1 X117.748 Y114.192 E9.28649
G1 X117.688 Y114.78 E9.29632
G1 X117.549 Y115.268 E9.30476
G1 X117.339 Y115.723 E9.31309
G1 X117.058 Y116.142 E9.32148
G1 X116.9 Y116.31 E9.32531
G1 X117.146 Y115.945 E9.32857
G1 X117.455 Y115.381 E9.3342
G1 X117.634 Y114.807 E9.33757
G1 X117.7 Y114.223 E9.33946
G1 X117.663 Y113.657 E9.34137
G1 X117.475 Y112.979 E9.3438
G1 X117.165 Y112.396 E9.34669
G1 X116.745 Y111.895 E9.35275
G1 X116.238 Y111.494 E9.35891
G1 X115.702 Y111.224 E9.36889
G1 X115.16 Y111.064 E9.37829
G1 X114.455 Y111.005 E9.39006
G1 X113.755 Y111.107 E9.40182
G1 X113.188 Y111.313 E9.41185
G1 X112.68 Y111.62 E9.42172
G1 X112.184 Y112.071 E9.43287
G1 X111.779 Y112.653 E9.44466
G1 X111.512 Y113.312 E9.45649
G1 X111.399 Y114.051 E9.46892
G1 X111.44 Y114.668 E9.4792
G1 X111.594 Y115.252 E9.48925
G1 X111.857 Y115.797 E9.49931
G1 X112.2 Y116.241 E9.50864
G1 X112.2 Y116.315 E9.50987
G1 X111.973 Y116.052 E9.51281
G1 X111.686 Y115.58 E9.52059
G1 X111.47 Y115.015 E9.52885
G1 X111.361 Y114.404 E9.53732
G1 X111.358 Y113.935 E9.54219
G1 X111.42 Y113.495 E9.54372
G1 X111.601 Y112.919 E9.55146
G1 X111.862 Y112.423 E9.55941
G1 X112.167 Y112.023 E9.56279
G1 X112.65 Y111.556 E9.56473
G1 X112.65 Y108.207 E9.62042
G1 X116.45 Y108.207 E9.68361
G1 X116.45 Y111.553 E9.73926
G0 F5400 X116.85 Y111.384
;TYPE:WALL-OUTER
G1 F1800 X117.23 Y111.753 E9.74807
G1 X117.604 Y112.251 E9.75842
G1 X117.907 Y112.856 E9.76968
G1 X118.094 Y113.523 E9.7812
G1 X118.15 Y114.194 E9.79239
G1 X118.082 Y114.856 E9.80346
G1 X117.926 Y115.407 E9.81298
G1 X117.689 Y115.919 E9.82237
G1 X117.373 Y116.391 E9.83181
G1 X116.946 Y116.844 E9.84217
G1 X116.618 Y117.091 E9.84899
G1 X116.515 Y117.045 E9.85087
G1 X116.5 Y116.978 E9.85201
G1 X116.5 Y116.137 E9.866
G1 X116.809 Y115.727 E9.87454
G1 X117.085 Y115.224 E9.88408
G1 X117.241 Y114.724 E9.89279
G1 X117.299 Y114.213 E9.90134
G1 X117.267 Y113.724 E9.90949
G1 X117.101 Y113.128 E9.91978
G1 X116.831 Y112.621 E9.92933
G1 X116.465 Y112.183 E9.93882
G1 X116.022 Y111.833 E9.94821
G1 X115.554 Y111.597 E9.95693
G1 X115.086 Y111.459 E9.96504
G1 X114.467 Y111.407 E9.97537
G1 X113.853 Y111.497 E9.98569
G1 X113.361 Y111.676 E9.9944
G1 X112.92 Y111.942 E10.00296
G1 X112.487 Y112.336 E10.0127
G1 X112.133 Y112.845 E10.02301
G1 X111.9 Y113.419 E10.03331
G1 X111.801 Y114.068 E10.04423
G1 X111.837 Y114.603 E10.05315
G1 X111.971 Y115.113 E10.06192
G1 X112.199 Y115.585 E10.07063
G1 X112.583 Y116.082 E10.08108
G1 X112.6 Y116.145 E10.08216
G1 X112.6 Y116.993 E10.09627
G1 X112.561 Y117.073 E10.09775
G1 X112.444 Y117.076 E10.09969
G1 X112.012 Y116.709 E10.10912
G1 X111.647 Y116.286 E10.11841
G1 X111.325 Y115.756 E10.12872
G1 X111.083 Y115.124 E10.13998
G1 X110.961 Y114.442 E10.1515
G1 X110.958 Y113.908 E10.16038
G1 X111.029 Y113.406 E10.16881
G1 X111.23 Y112.763 E10.18002
G1 X111.521 Y112.211 E10.19039
G1 X111.87 Y111.753 E10.19997
G1 X112.25 Y111.386 E10.20875
G1 X112.25 Y107.807 E10.26827
G1 X116.85 Y107.807 E10.34477
G1 X116.85 Y111.384 E10.40426
G0 F5400 X116.993 Y111.523
G0 X116.784 Y111.737
G0 X116.06 Y110.967
;TYPE:SKIN
G1 F1800 X115.846 Y110.86 E10.40824
G1 X115.232 Y110.678 E10.41889
G1 X114.443 Y110.613 E10.43205
G1 X113.659 Y110.727 E10.44523
G1 X113.04 Y110.952 E10.45618
G1 X113.04 Y108.597 E10.49534
G1 X116.06 Y108.597 E10.54557
G1 X116.06 Y110.967 E10.58498
G0 F5400 X115.657 Y110.616
G1 F1800 X115.879 Y110.394 E10.5902
G0 F5400 X115.879 Y109.829
G1 F1800 X115.213 Y110.495 E10.60586
G0 F5400 X114.689 Y110.452
G1 F1800 X115.879 Y109.263 E10.63384
G0 F5400 X115.8 Y108.777
G1 F1800 X114.094 Y110.482 E10.67395
G0 F5400 X113.369 Y110.641
G1 F1800 X115.234 Y108.777 E10.7178
G0 F5400 X114.668 Y108.777
G1 F1800 X113.219 Y110.226 E10.75188
G0 F5400 X113.219 Y109.66
G1 F1800 X114.102 Y108.777 E10.77264
G0 F5400 X113.537 Y108.777
G1 F1800 X113.219 Y109.095 E10.78012
G1 F2400 E7.78012
;MESH:PTFE_CLIP.STL
G0 F5400 X116.632 Y111.476
G0 X117.711 Y111.009
G0 X135.665 Y111.476
G0 X136.75 Y111.476
G0 X140.73 Y113.77
;TYPE:WALL-INNER
G1 F2400 E10.78012
G1 F2700 X141.243 Y114.274 E10.79208
G1 X141.511 Y114.631 E10.79951
G1 X141.749 Y115.068 E10.80778
G1 X141.943 Y115.642 E10.81786
G1 X142.026 Y116.252 E10.8281
G1 X142.01 Y116.724 E10.83595
G1 X141.897 Y117.281 E10.8454
G1 X141.679 Y117.831 E10.85524
G1 X141.375 Y118.312 E10.8647
G1 X141.181 Y118.53 E10.86956
G1 X141.181 Y118.481
G1 X141.455 Y118.122 E10.87392
G1 X141.756 Y117.547 E10.88173
G1 X141.943 Y116.878 E10.8905
G1 X141.981 Y116.263 E10.89514
G1 X141.902 Y115.666 E10.89636
G1 X141.714 Y115.102 E10.89767
G1 X141.353 Y114.485 E10.90085
G1 X140.943 Y114.035 E10.90781
G1 X140.417 Y113.652 E10.91805
G1 X139.928 Y113.42 E10.92705
G1 X139.344 Y113.266 E10.9371
G1 X138.627 Y113.228 E10.94904
G1 X137.931 Y113.353 E10.9608
G1 X137.415 Y113.558 E10.97003
G1 X136.905 Y113.879 E10.98005
G1 X136.439 Y114.321 E10.99073
G1 X136.065 Y114.86 E11.00164
G1 X135.808 Y115.476 E11.01274
G1 X135.693 Y116.07 E11.02281
G1 X135.697 Y116.726 E11.03371
G1 X135.838 Y117.368 E11.04465
G1 X136.135 Y118.012 E11.05644
G1 X136.48 Y118.459 E11.06583
G1 X136.48 Y118.537 E11.06713
G1 X136.253 Y118.27 E11.07014
G1 X135.963 Y117.792 E11.07806
G1 X135.763 Y117.281 E11.08276
G1 X135.658 Y116.792 E11.08282
G1 X135.631 Y116.319 E11.08488
G1 X135.671 Y115.869 E11.08977
G1 X135.805 Y115.333 E11.09505
G1 X135.978 Y114.925 E11.0953
G1 X136.233 Y114.505 E11.09956
G1 X136.525 Y114.156 E11.10553
G1 X136.93 Y113.775 E11.10939
G1 X136.93 Y110.425 E11.1651
G1 X140.73 Y110.425 E11.2283
G1 X140.73 Y113.77 E11.28392
G0 F5400 X141.13 Y113.602
;TYPE:WALL-OUTER
G1 F1800 X141.547 Y114.012 E11.29365
G1 X141.847 Y114.412 E11.30196
G1 X142.118 Y114.909 E11.31138
G1 X142.334 Y115.548 E11.3226
G1 X142.427 Y116.235 E11.33413
G1 X142.409 Y116.77 E11.34303
G1 X142.282 Y117.395 E11.35363
G1 X142.037 Y118.013 E11.36469
G1 X141.695 Y118.554 E11.37533
G1 X141.323 Y118.973 E11.38465
G1 X140.937 Y119.293 E11.39299
G1 X140.827 Y119.296 E11.39482
G1 X140.78 Y119.208 E11.39648
G1 X140.781 Y118.346 E11.41081
G1 X141.116 Y117.906 E11.42001
G1 X141.382 Y117.399 E11.42953
G1 X141.546 Y116.811 E11.43968
G1 X141.579 Y116.277 E11.44858
G1 X141.51 Y115.756 E11.45732
G1 X141.348 Y115.268 E11.46587
G1 X141.029 Y114.723 E11.47637
G1 X140.675 Y114.334 E11.48512
G1 X140.212 Y113.997 E11.49464
G1 X139.79 Y113.797 E11.50241
G1 X139.282 Y113.663 E11.51115
G1 X138.652 Y113.63 E11.52164
G1 X138.041 Y113.74 E11.53196
G1 X137.597 Y113.916 E11.5399
G1 X137.152 Y114.196 E11.54865
G1 X136.744 Y114.583 E11.558
G1 X136.418 Y115.053 E11.56751
G1 X136.193 Y115.592 E11.57723
G1 X136.093 Y116.107 E11.58595
G1 X136.097 Y116.681 E11.5955
G1 X136.219 Y117.24 E11.60501
G1 X136.479 Y117.803 E11.61532
G1 X136.86 Y118.297 E11.6257
G1 X136.88 Y118.364 E11.62686
G1 X136.88 Y119.216 E11.64103
G1 X136.811 Y119.306 E11.64292
G1 X136.725 Y119.295 E11.64436
G1 X136.258 Y118.894 E11.65459
