;FLAVOR:Marlin
;TIME:1070
;Filament used: 0.974088m
;Layer height: 0.15
;MINX:70.515
;MINY:54.528
;MINZ:0.3
;MAXX:163.818
;MAXY:171.12
;MAXZ:8
;Generated with Cura_SteamEngine 5.3.0
M140 S60
M105
M190 S60
M104 S210
M105
M109 S210
M82 ;absolute extrusion mode
; Aquila X2 Custom Start G-code
G92 E0 ; Reset Extruder
G28 ; Home all axes
M420 S1
G1 Z2.0 F3000 ; Move Z Axis up little to prevent scratching of Heat Bed
G1 X0.1 Y20 Z0.3 F5000.0 ; Move to start position
G1 X0.1 Y200.0 Z0.3 F1500.0 E15 ; Draw the first line
G1 X0.4 Y200.0 Z0.3 F5000.0 ; Move to side a little
G1 X0.4 Y20 Z0.3 F1500.0 E30 ; Draw the second line
G92 E0 ; Reset Extruder
G1 Z2.0 F3000 ; Move Z Axis up little to prevent scratching of Heat Bed
G1 X5 Y20 Z0.3 F5000.0 ; Move over to prevent blob squish
G92 E0
G92 E0
G1 F2400 E-5
;LAYER_COUNT:19
;LAYER:0
M107
;MESH:Washer-Body.stl(3)
G0 F3600 X83.449 Y59.835 Z0.3
;TYPE:WALL-INNER
G1 F2400 E0
G1 F1800 X84.014 Y60.681 E0.05075
G1 X84.252 Y61.236 E0.08088
G1 X84.424 Y61.818 E0.11116
G1 X84.52 Y62.423 E0.14172
G1 X84.523 Y63.216 E0.18128
G1 X84.424 Y63.856 E0.21359
G1 X84.187 Y64.612 E0.25312
G1 X83.804 Y65.335 E0.29394
G1 X83.45 Y65.827 E0.32418
G1 X82.737 Y66.511 E0.37347
G1 X82.047 Y66.955 E0.41441
G1 X81.473 Y67.208 E0.4457
G1 X80.851 Y67.383 E0.47794
G1 X80.064 Y67.485 E0.51753
G1 X79.254 Y67.445 E0.55799
G1 X78.344 Y67.227 E0.60468
G1 X77.555 Y66.861 E0.64807
G1 X77.017 Y66.5 E0.68039
G1 X76.352 Y65.865 E0.72627
G1 X75.855 Y65.168 E0.76897
G1 X75.561 Y64.56 E0.80267
G1 X75.299 Y63.636 E0.85058
G1 X75.23 Y62.836 E0.89064
G1 X75.292 Y62.06 E0.92948
G1 X75.449 Y61.427 E0.96202
G1 X75.662 Y60.864 E0.99205
G1 X76.277 Y59.844 E1.05147
G1 X77.053 Y59.142 E1.10368
G1 X77.553 Y58.807 E1.1337
G1 X78.145 Y58.515 E1.16664
G1 X79.028 Y58.257 E1.21253
G1 X79.691 Y58.186 E1.2458
G1 X80.458 Y58.213 E1.28409
G1 X81.282 Y58.392 E1.32616
G1 X82.022 Y58.699 E1.36613
G1 X82.74 Y59.154 E1.40853
G1 X83.449 Y59.835 E1.45758
G0 F3600 X83.137 Y60.089
G1 F1800 X83.639 Y60.837 E1.50252
G1 X83.876 Y61.372 E1.53172
G1 X84.032 Y61.903 E1.55933
G1 X84.12 Y62.455 E1.58721
G1 X84.123 Y63.142 E1.62149
G1 X84.039 Y63.729 E1.65107
G1 X83.817 Y64.455 E1.68895
G1 X83.467 Y65.12 E1.72644
G1 X83.115 Y65.595 E1.75594
G1 X82.489 Y66.196 E1.79923
G1 X81.883 Y66.585 E1.83516
G1 X81.341 Y66.83 E1.86483
G1 X80.778 Y66.989 E1.89402
G1 X80.087 Y67.079 E1.92878
G1 X79.316 Y67.049 E1.96728
G1 X78.465 Y66.845 E2.01094
G1 X77.751 Y66.509 E2.05031
G1 X77.275 Y66.192 E2.07884
G1 X76.637 Y65.585 E2.12277
G1 X76.228 Y65.002 E2.1583
G1 X75.938 Y64.422 E2.19065
G1 X75.698 Y63.597 E2.23352
G1 X75.629 Y62.847 E2.2711
G1 X75.697 Y62.086 E2.30921
G1 X75.83 Y61.551 E2.33672
G1 X76.047 Y60.999 E2.36631
G1 X76.586 Y60.109 E2.41822
G1 X77.294 Y59.461 E2.4661
G1 X77.753 Y59.153 E2.49368
G1 X78.278 Y58.895 E2.52286
G1 X79.112 Y58.65 E2.56623
G1 X79.704 Y58.586 E2.59594
G1 X80.439 Y58.618 E2.63264
G1 X81.132 Y58.769 E2.66803
G1 X81.838 Y59.055 E2.70603
G1 X82.487 Y59.465 E2.74433
G1 X83.137 Y60.089 E2.78928
G0 F3600 X83.725 Y61.426
G0 X83.959 Y62.478
G0 X83.875 Y63.728
G0 X83.339 Y65.023
G0 X82.382 Y66.074
G0 X80.768 Y66.829
G0 X79.349 Y66.891
G0 X78.499 Y66.685
G0 X76.736 Y65.54
G0 X76.943 Y65.325
G1 F1800 X76.544 Y64.752 E2.82412
G1 X76.325 Y64.305 E2.84895
G1 X76.092 Y63.522 E2.88971
G1 X76.034 Y62.857 E2.92301
G1 X76.083 Y62.208 E2.95548
G1 X76.21 Y61.675 E2.98282
G1 X76.401 Y61.186 E3.00901
G1 X76.9 Y60.362 E3.05707
G1 X77.509 Y59.801 E3.09838
G1 X77.954 Y59.499 E3.12521
G1 X78.434 Y59.264 E3.15187
G1 X79.218 Y59.04 E3.19255
G1 X79.721 Y58.984 E3.2178
G1 X80.384 Y59.014 E3.25091
G1 X81.025 Y59.155 E3.28366
G1 X81.654 Y59.411 E3.31754
G1 X82.219 Y59.769 E3.35091
G1 X82.83 Y60.348 E3.3929
G1 X83.291 Y61.036 E3.43422
G1 X83.5 Y61.509 E3.46002
G1 X83.632 Y61.951 E3.48303
G1 X83.72 Y62.519 E3.51171
G1 X83.722 Y63.132 E3.54229
G1 X83.646 Y63.652 E3.56851
G1 X83.432 Y64.328 E3.60389
G1 X83.13 Y64.904 E3.63633
G1 X82.82 Y65.325 E3.66242
G1 X82.221 Y65.893 E3.7036
G1 X81.678 Y66.24 E3.73575
G1 X81.23 Y66.441 E3.76025
G1 X80.704 Y66.596 E3.7876
G1 X80.066 Y66.68 E3.81971
G1 X79.384 Y66.654 E3.85376
G1 X78.576 Y66.458 E3.89524
G1 X77.972 Y66.174 E3.92854
G1 X77.551 Y65.896 E3.95371
G1 X76.943 Y65.325 E3.99532
G1 F2400 E-1.00468
G0 F3600 X76.736 Y65.54
G0 X77.846 Y66.381
G0 X79.187 Y66.851
G0 X82.118 Y67.099
G0 X83.172 Y68.942
G0 X84.611 Y68.78
G0 X84.802 Y69.01
G1 F2400 E3.99532
G1 F1800 X84.837 Y69.017 E3.9971
G1 X85.541 Y68.345 E4.04566
G1 X85.976 Y67.869 E4.07783
G1 X86.392 Y67.308 E4.11267
G1 X86.68 Y66.858 E4.13933
G1 X86.934 Y66.391 E4.16585
G1 X87.217 Y65.78 E4.19944
G1 X87.421 Y65.186 E4.23077
G1 X87.574 Y64.636 E4.25926
G1 X87.679 Y64.104 E4.28631
G1 X87.764 Y63.442 E4.31961
G1 X87.782 Y62.777 E4.3528
G1 X87.753 Y62.1 E4.3866
G1 X87.656 Y61.428 E4.42048
G1 X87.542 Y60.905 E4.44718
G1 X87.395 Y60.387 E4.47405
G1 X87.213 Y59.885 E4.50069
G1 X86.94 Y59.27 E4.53426
G1 X86.599 Y58.673 E4.56856
G1 X86.312 Y58.245 E4.59427
G1 X85.918 Y57.728 E4.6267
G1 X85.442 Y57.221 E4.66139
G1 X84.956 Y56.771 E4.69444
G1 X84.43 Y56.374 E4.72731
G1 X83.853 Y55.999 E4.76165
G1 X83.267 Y55.696 E4.79456
G1 X82.762 Y55.476 E4.82204
G1 X82.263 Y55.3 E4.84844
G1 X81.746 Y55.156 E4.87521
G1 X81.234 Y55.05 E4.9013
G1 X80.552 Y54.956 E4.93565
G1 X79.883 Y54.934 E4.96904
G1 X79.351 Y54.952 E4.9956
G1 X78.812 Y55.007 E5.02263
G1 X78.144 Y55.121 E5.05644
G1 X77.503 Y55.3 E5.08964
G1 X77.017 Y55.472 E5.11536
G1 X76.512 Y55.69 E5.1428
G1 X75.923 Y55.993 E5.17585
G1 X75.346 Y56.366 E5.21012
G1 X74.93 Y56.681 E5.23616
G1 X74.422 Y57.118 E5.26959
G1 X73.859 Y57.716 E5.31056
G1 X73.368 Y58.356 E5.35081
G1 X73.018 Y58.926 E5.38418
G1 X72.71 Y59.511 E5.41716
G1 X72.457 Y60.141 E5.45103
G1 X72.218 Y60.874 E5.4895
G1 X72.064 Y61.71 E5.53191
G1 X72.007 Y62.233 E5.55815
G1 X71.984 Y62.77 E5.58497
G1 X72.001 Y63.431 E5.61796
G1 X72.087 Y64.104 E5.65181
G1 X72.185 Y64.611 E5.67757
G1 X72.395 Y65.397 E5.71816
G1 X72.759 Y66.262 E5.76498
G1 X73.086 Y66.857 E5.79885
G1 X73.367 Y67.297 E5.8249
G1 X73.697 Y67.745 E5.85266
G1 X74.031 Y68.139 E5.87843
G1 X74.427 Y68.545 E5.90672
G1 X74.898 Y68.972 E5.93844
G1 X75.445 Y69.368 E5.97213
G1 X75.912 Y69.661 E5.99964
G1 X76.373 Y69.909 E6.02575
G1 X76.867 Y70.132 E6.05279
G1 X77.377 Y70.323 E6.07996
G1 X78.021 Y70.516 E6.1135
G1 X78.663 Y70.637 E6.1461
G1 X79.216 Y70.703 E6.17388
G1 X79.875 Y70.739 E6.20681
G1 X80.55 Y70.703 E6.24053
G1 X81.09 Y70.639 E6.26766
G1 X81.744 Y70.518 E6.30084
G1 X82.513 Y70.286 E6.34092
G1 X83.127 Y70.034 E6.37403
G1 X83.617 Y69.793 E6.40127
G1 X84.175 Y69.473 E6.43336
G1 X84.802 Y69.01 E6.47225
G0 F3600 X84.572 Y68.682
G1 F1800 X84.6 Y68.689 E6.47369
G1 X85.255 Y68.065 E6.51882
G1 X85.667 Y67.615 E6.54926
G1 X86.062 Y67.081 E6.5824
G1 X86.335 Y66.654 E6.60768
G1 X86.577 Y66.211 E6.63287
G1 X86.845 Y65.631 E6.66474
G1 X87.039 Y65.068 E6.69445
G1 X87.184 Y64.544 E6.72158
G1 X87.284 Y64.039 E6.74726
G1 X87.365 Y63.411 E6.77885
G1 X87.381 Y62.78 E6.81034
G1 X87.355 Y62.138 E6.8424
G1 X87.262 Y61.5 E6.87457
G1 X87.154 Y61.002 E6.89999
G1 X87.014 Y60.51 E6.92551
G1 X86.841 Y60.034 E6.95078
G1 X86.583 Y59.451 E6.98258
G1 X86.15 Y58.692 E7.02618
G1 X85.613 Y57.987 E7.07039
G1 X85.16 Y57.505 E7.10339
G1 X84.698 Y57.078 E7.13478
G1 X84.2 Y56.702 E7.16591
G1 X83.652 Y56.345 E7.19854
G1 X83.095 Y56.057 E7.22982
G1 X82.615 Y55.849 E7.25592
G1 X82.142 Y55.682 E7.28095
G1 X81.418 Y55.48 E7.31845
G1 X80.518 Y55.356 E7.36377
G1 X79.883 Y55.334 E7.39547
G1 X79.379 Y55.351 E7.42063
G1 X78.866 Y55.404 E7.44636
G1 X78.232 Y55.512 E7.47845
G1 X77.378 Y55.751 E7.52269
G1 X76.683 Y56.052 E7.56048
G1 X76.123 Y56.34 E7.59189
G1 X75.379 Y56.821 E7.63609
G1 X74.699 Y57.407 E7.68088
G1 X74.164 Y57.975 E7.71981
G1 X73.698 Y58.583 E7.75803
G1 X73.366 Y59.124 E7.78969
G1 X73.073 Y59.679 E7.821
G1 X72.833 Y60.278 E7.8532
G1 X72.608 Y60.965 E7.88926
G1 X72.419 Y61.992 E7.94136
G1 X72.385 Y62.773 E7.98036
G1 X72.401 Y63.401 E8.0117
G1 X72.514 Y64.293 E8.05656
G1 X72.775 Y65.267 E8.10687
G1 X73.12 Y66.088 E8.1513
G1 X73.547 Y66.865 E8.19553
G1 X74.157 Y67.696 E8.24696
G1 X74.705 Y68.257 E8.28609
G1 X75.15 Y68.66 E8.31604
G1 X75.669 Y69.036 E8.34801
G1 X76.335 Y69.454 E8.38724
G1 X77.02 Y69.762 E8.42471
G1 X77.505 Y69.944 E8.45056
G1 X78.115 Y70.127 E8.48233
G1 X78.724 Y70.241 E8.51324
G1 X79.251 Y70.305 E8.53973
G1 X79.875 Y70.338 E8.5709
G1 X80.516 Y70.305 E8.60292
G1 X81.03 Y70.243 E8.62875
G1 X81.65 Y70.129 E8.6602
G1 X82.379 Y69.909 E8.69819
G1 X82.963 Y69.669 E8.72969
G1 X83.429 Y69.44 E8.7556
G1 X83.955 Y69.138 E8.78586
G1 X84.572 Y68.682 E8.82413
G0 F3600 X84.343 Y68.354
G1 F1800 X84.367 Y68.359 E8.82536
G1 X84.969 Y67.785 E8.86685
G1 X85.357 Y67.36 E8.89557
G1 X85.733 Y66.854 E8.92702
G1 X86.219 Y66.031 E8.9747
G1 X86.474 Y65.481 E9.00495
G1 X86.656 Y64.949 E9.033
G1 X86.856 Y64.232 E9.07013
G1 X86.965 Y63.38 E9.11299
G1 X86.981 Y62.784 E9.14273
G1 X86.956 Y62.175 E9.17314
G1 X86.868 Y61.571 E9.20359
G1 X86.586 Y60.445 E9.2615
G1 X86.225 Y59.632 E9.30588
G1 X85.818 Y58.916 E9.34697
G1 X85.308 Y58.246 E9.38898
G1 X84.878 Y57.789 E9.42029
G1 X84.441 Y57.386 E9.44995
G1 X83.97 Y57.029 E9.47943
G1 X83.45 Y56.691 E9.51037
G1 X82.923 Y56.419 E9.53996
G1 X82.022 Y56.064 E9.58827
G1 X81.098 Y55.839 E9.63572
G1 X80.484 Y55.755 E9.66664
G1 X79.883 Y55.735 E9.69664
G1 X79.139 Y55.764 E9.73379
G1 X78.319 Y55.903 E9.77528
G1 X77.744 Y56.063 E9.80506
G1 X76.854 Y56.414 E9.85279
G1 X76.324 Y56.686 E9.88251
G1 X75.623 Y57.14 E9.92417
G1 X74.976 Y57.696 E9.96673
G1 X74.469 Y58.235 E10.00365
G1 X74.028 Y58.81 E10.0398
G1 X73.714 Y59.322 E10.06977
G1 X73.437 Y59.847 E10.09938
G1 X73.209 Y60.415 E10.12992
G1 X72.999 Y61.059 E10.16371
G1 X72.856 Y61.826 E10.20264
G1 X72.785 Y62.776 E10.25017
G1 X72.8 Y63.37 E10.27981
G1 X72.907 Y64.213 E10.32221
G1 X73.154 Y65.138 E10.36997
G1 X73.481 Y65.914 E10.41198
G1 X73.889 Y66.656 E10.45423
G1 X74.46 Y67.432 E10.50229
G1 X74.982 Y67.969 E10.53966
G1 X75.402 Y68.349 E10.56791
G1 X75.893 Y68.704 E10.59814
G1 X76.728 Y69.192 E10.64639
G1 X77.633 Y69.565 E10.69523
G1 X78.21 Y69.738 E10.72528
G1 X78.784 Y69.845 E10.75441
G1 X79.285 Y69.906 E10.77959
G1 X79.876 Y69.937 E10.80912
G1 X80.699 Y69.895 E10.85023
G1 X81.555 Y69.739 E10.89364
G1 X82.245 Y69.531 E10.92959
G1 X83.028 Y69.209 E10.97183
G1 X83.736 Y68.802 E11.01258
G1 X84.343 Y68.354 E11.05021
G0 F3600 X85.031 Y69.338
;TYPE:WALL-OUTER
G1 F1800 X85.07 Y69.346 E11.0522
G1 X85.827 Y68.625 E11.10436
G1 X86.285 Y68.124 E11.13822
G1 X86.722 Y67.535 E11.17481
G1 X87.024 Y67.062 E11.20281
G1 X87.292 Y66.571 E11.23072
G1 X87.589 Y65.93 E11.26596
G1 X87.803 Y65.305 E11.29892
G1 X87.964 Y64.728 E11.32881
G1 X88.074 Y64.168 E11.35728
G1 X88.164 Y63.473 E11.39224
G1 X88.182 Y62.774 E11.42713
G1 X88.152 Y62.063 E11.46263
G1 X88.05 Y61.357 E11.49822
G1 X87.93 Y60.808 E11.52626
G1 X87.776 Y60.264 E11.55446
G1 X87.584 Y59.735 E11.58254
G1 X87.298 Y59.09 E11.61774
G1 X86.939 Y58.462 E11.65383
G1 X86.638 Y58.012 E11.68084
G1 X86.224 Y57.469 E11.7149
G1 X85.724 Y56.937 E11.75133
G1 X85.213 Y56.464 E11.78607
G1 X84.66 Y56.046 E11.82065
G1 X84.055 Y55.653 E11.85664
G1 X83.439 Y55.334 E11.89125
G1 X82.908 Y55.104 E11.92012
G1 X82.383 Y54.918 E11.94791
G1 X81.84 Y54.767 E11.97603
G1 X81.302 Y54.656 E12.00344
G1 X80.586 Y54.557 E12.0395
G1 X79.883 Y54.534 E12.07459
G1 X79.324 Y54.552 E12.10249
G1 X78.758 Y54.611 E12.13088
G1 X78.056 Y54.73 E12.1664
G1 X77.383 Y54.918 E12.20127
G1 X76.871 Y55.099 E12.22836
G1 X76.341 Y55.328 E12.25716
G1 X75.722 Y55.646 E12.29188
G1 X75.116 Y56.038 E12.32789
G1 X74.678 Y56.369 E12.35528
G1 X74.145 Y56.828 E12.39037
G1 X73.554 Y57.456 E12.4334
G1 X73.038 Y58.129 E12.47571
G1 X72.67 Y58.728 E12.51078
G1 X72.346 Y59.343 E12.54546
G1 X72.081 Y60.005 E12.58103
G1 X71.906 Y60.541 E12.60916
G1 X71.779 Y61.051 E12.63539
G1 X71.668 Y61.652 E12.66588
G1 X71.608 Y62.203 E12.69353
G1 X71.584 Y62.766 E12.72164
G1 X71.602 Y63.462 E12.75638
G1 X71.692 Y64.168 E12.79188
G1 X71.795 Y64.701 E12.81897
G1 X72.016 Y65.527 E12.86163
G1 X72.399 Y66.436 E12.91084
G1 X72.742 Y67.061 E12.94641
G1 X73.037 Y67.523 E12.97375
G1 X73.383 Y67.993 E13.00287
G1 X73.735 Y68.409 E13.03006
G1 X74.149 Y68.833 E13.05962
G1 X74.646 Y69.283 E13.09307
G1 X75.221 Y69.7 E13.12851
G1 X75.71 Y70.007 E13.15731
G1 X76.195 Y70.268 E13.18479
G1 X76.715 Y70.502 E13.21324
G1 X77.249 Y70.703 E13.24171
G1 X77.926 Y70.906 E13.27697
G1 X78.602 Y71.033 E13.31128
G1 X79.182 Y71.102 E13.34042
G1 X79.875 Y71.139 E13.37505
G1 X80.584 Y71.102 E13.41047
G1 X81.15 Y71.035 E13.4389
G1 X81.838 Y70.907 E13.47382
G1 X82.647 Y70.664 E13.51596
G1 X83.291 Y70.399 E13.5507
G1 X83.805 Y70.147 E13.57926
G1 X84.394 Y69.809 E13.61314
G1 X85.031 Y69.338 E13.65267
G0 F3600 X85.07 Y69.346
G0 X85.186 Y69.235
G1 F2400 E8.65267
G0 F3600 X84.727 Y68.684
G0 X82.94 Y69.052
G0 X82.079 Y67.115
G0 X79.41 Y66.954
G0 X79.44 Y66.255
G1 F2400 E13.65267
G1 F1800 X78.711 Y66.079 E13.69008
G1 X78.15 Y65.815 E13.72101
G1 X77.785 Y65.572 E13.74289
G1 X77.257 Y65.071 E13.7792
G1 X76.895 Y64.56 E13.81045
G1 X76.686 Y64.129 E13.83434
G1 X76.488 Y63.446 E13.86982
G1 X76.434 Y62.858 E13.89928
G1 X76.481 Y62.248 E13.9298
G1 X76.59 Y61.799 E13.95285
G1 X76.75 Y61.381 E13.97518
G1 X77.226 Y60.605 E14.0206
G1 X77.767 Y60.107 E14.05729
G1 X78.155 Y59.845 E14.08064
G1 X78.587 Y59.636 E14.10459
G1 X79.285 Y59.434 E14.14084
G1 X79.719 Y59.386 E14.16262
G1 X80.329 Y59.411 E14.19308
G1 X80.93 Y59.545 E14.2238
G1 X81.47 Y59.767 E14.25293
G1 X81.978 Y60.089 E14.28294
G1 X82.515 Y60.6 E14.31992
G1 X82.943 Y61.234 E14.35808
G1 X83.124 Y61.646 E14.38053
G1 X83.25 Y62.073 E14.40275
G1 X83.32 Y62.525 E14.42556
G1 X83.322 Y63.121 E14.4553
G1 X83.251 Y63.584 E14.47867
G1 X83.073 Y64.148 E14.50817
G1 X82.8 Y64.675 E14.53779
G1 X82.532 Y65.046 E14.56062
G1 X81.995 Y65.562 E14.59777
G1 X81.473 Y65.896 E14.62869
G1 X81.078 Y66.071 E14.65025
G1 X80.646 Y66.199 E14.67272
G1 X80.061 Y66.279 E14.70218
G1 X79.44 Y66.255 E14.73319
G0 F3600 X79.246 Y66.209
G1 F2400 E9.73319
G0 F3600 X79.081 Y66.888
G0 X79.969 Y67.642
G0 X80.08 Y69.747
G0 X79.876 Y69.556
;TYPE:SKIN
G1 F2400 E14.73319
G1 F1800 X79.078 Y69.513 E14.77306
G1 X78.303 Y69.369 E14.81238
G1 X77.762 Y69.206 E14.84057
G1 X76.896 Y68.849 E14.8873
G1 X76.123 Y68.401 E14.93188
G1 X75.644 Y68.055 E14.96136
G1 X75.263 Y67.71 E14.987
G1 X74.726 Y67.162 E15.02528
G1 X74.098 Y66.249 E15.08056
G1 X73.821 Y65.743 E15.10934
G1 X73.515 Y65.016 E15.1487
G1 X73.283 Y64.15 E15.19342
G1 X73.179 Y63.336 E15.23436
G1 X73.166 Y62.786 E15.26181
G1 X73.234 Y61.872 E15.30754
G1 X73.365 Y61.172 E15.34307
G1 X73.566 Y60.548 E15.37577
G1 X73.781 Y60.011 E15.40463
G1 X74.032 Y59.531 E15.43166
G1 X74.34 Y59.029 E15.46104
G1 X74.756 Y58.485 E15.49521
G1 X75.24 Y57.972 E15.53039
G1 X75.84 Y57.452 E15.57
G1 X76.512 Y57.019 E15.60989
G1 X77.011 Y56.762 E15.63789
G1 X77.867 Y56.424 E15.68381
G1 X78.399 Y56.275 E15.71137
G1 X79.183 Y56.141 E15.75105
G1 X79.886 Y56.116 E15.78614
G1 X80.447 Y56.134 E15.81415
G1 X81.301 Y56.254 E15.85717
G1 X82.513 Y56.635 E15.92056
G1 X83.261 Y57.024 E15.96262
G1 X83.749 Y57.339 E15.9916
G1 X84.193 Y57.675 E16.01938
G1 X84.606 Y58.058 E16.04748
G1 X85.02 Y58.497 E16.07758
G1 X85.494 Y59.118 E16.11656
G1 X85.883 Y59.799 E16.15568
G1 X86.118 Y60.323 E16.18434
G1 X86.337 Y60.93 E16.21653
G1 X86.493 Y61.635 E16.25255
G1 X86.576 Y62.215 E16.28178
G1 X86.6 Y62.784 E16.3102
G1 X86.585 Y63.345 E16.3382
G1 X86.48 Y64.162 E16.37929
G1 X86.287 Y64.846 E16.41475
G1 X86.12 Y65.339 E16.44072
G1 X85.882 Y65.852 E16.46893
G1 X85.415 Y66.644 E16.5148
G1 X85.061 Y67.12 E16.5444
G1 X84.698 Y67.515 E16.57116
G1 X84.224 Y67.968 E16.60387
G1 X83.525 Y68.485 E16.64725
G1 X82.857 Y68.868 E16.68566
G1 X82.113 Y69.174 E16.7258
G1 X81.462 Y69.371 E16.75973
G1 X80.687 Y69.513 E16.79904
G1 X79.876 Y69.556 E16.83956
G1 F2400 E11.83956
G0 F3600 X79.86 Y69.855
G0 X79.059 Y69.713
G0 X79.23 Y67.605
G0 X78.276 Y67.291
G0 X78.157 Y67.568
G1 F2400 E16.83956
G1 F1800 X79.179 Y67.819 E16.89206
G1 X80.08 Y67.865 E16.93707
G1 X80.917 Y67.757 E16.97917
G1 X81.614 Y67.563 E17.01527
