;FLAVOR:Marlin
;TIME:379
;Filament used: 0.340977m
;Layer height: 0.15
;MINX:70.514
;MINY:54.533
;MINZ:0.3
;MAXX:163.813
;MAXY:171.114
;MAXZ:6
;Generated with Cura_SteamEngine 5.3.0
M140 S60
M105
M190 S60
M104 S210
M105
M109 S210
M82 ;absolute extrusion mode
; Aquila X2 Custom Start G-code
G92 E0 ; Reset Extruder
G28 ; Home all axes
M420 S1
G1 Z2.0 F3000 ; Move Z Axis up little to prevent scratching of Heat Bed
G1 X0.1 Y20 Z0.3 F5000.0 ; Move to start position
G1 X0.1 Y200.0 Z0.3 F1500.0 E15 ; Draw the first line
G1 X0.4 Y200.0 Z0.3 F5000.0 ; Move to side a little
G1 X0.4 Y20 Z0.3 F1500.0 E30 ; Draw the second line
G92 E0 ; Reset Extruder
G1 Z2.0 F3000 ; Move Z Axis up little to prevent scratching of Heat Bed
G1 X5 Y20 Z0.3 F5000.0 ; Move over to prevent blob squish
G92 E0
G92 E0
G1 F2400 E-5
;LAYER_COUNT:6
;LAYER:0
M107
;MESH:Washer-Body.stl(3)
G0 F3600 X79.032 Y67.408 Z0.3
;TYPE:WALL-INNER
G1 F2400 E0
G1 F1800 X78.109 Y67.134 E0.04803
G1 X77.567 Y66.865 E0.07822
G1 X77.043 Y66.518 E0.10958
G1 X76.295 Y65.838 E0.16001
G1 X75.7 Y64.873 E0.21657
G1 X75.449 Y64.239 E0.25059
G1 X75.304 Y63.666 E0.28008
G1 X75.228 Y62.839 E0.32151
G1 X75.303 Y62.006 E0.36324
G1 X75.566 Y61.091 E0.41074
G1 X75.849 Y60.51 E0.44298
G1 X76.204 Y59.981 E0.47476
G1 X76.874 Y59.248 E0.52431
G1 X77.71 Y58.715 E0.57377
G1 X78.317 Y58.453 E0.60675
G1 X78.875 Y58.289 E0.63577
G1 X79.624 Y58.184 E0.6735
G1 X80.507 Y58.216 E0.71759
G1 X81.455 Y58.447 E0.76627
G1 X82.011 Y58.694 E0.79662
G1 X82.718 Y59.138 E0.83827
G1 X83.471 Y59.86 E0.89032
G1 X84.001 Y60.659 E0.93815
G1 X84.255 Y61.241 E0.96983
G1 X84.465 Y62.01 E1.0096
G1 X84.539 Y62.814 E1.04988
G1 X84.469 Y63.649 E1.09169
G1 X84.254 Y64.428 E1.132
G1 X84.014 Y64.981 E1.16208
G1 X83.576 Y65.668 E1.20273
G1 X83.058 Y66.232 E1.24093
G1 X82.559 Y66.636 E1.27296
G1 X82.032 Y66.958 E1.30378
G1 X81.291 Y67.271 E1.34391
G1 X80.675 Y67.42 E1.37553
G1 X79.904 Y67.488 E1.41414
G1 X79.032 Y67.408 E1.45783
G1 F2400 E-3.54217
G0 F3600 X81.123 Y66.731
G0 X82.672 Y65.826
G0 X83.509 Y64.729
G0 X83.914 Y63.541
G0 X83.909 Y62.097
G0 X82.821 Y59.013
G0 X84.183 Y57.411
G0 X84.481 Y56.91
G1 F2400 E1.45783
G1 F1800 X84.481 Y56.899 E1.45838
G1 X83.971 Y56.537 E1.48958
G1 X83.202 Y56.095 E1.53383
G1 X82.309 Y55.729 E1.58198
G1 X81.641 Y55.542 E1.61659
G1 X80.995 Y55.409 E1.64949
G1 X80.378 Y55.35 E1.68041
G1 X79.39 Y55.35 E1.72971
G1 X78.642 Y55.425 E1.76721
G1 X77.807 Y55.621 E1.81
G1 X77.272 Y55.805 E1.83823
G1 X76.56 Y56.096 E1.8766
G1 X75.803 Y56.532 E1.92018
G1 X75.194 Y56.984 E1.95802
G1 X74.809 Y57.304 E1.983
G1 X74.159 Y57.964 E2.02921
G1 X73.481 Y58.923 E2.08781
G1 X73.168 Y59.481 E2.11973
G1 X72.873 Y60.157 E2.15652
G1 X72.678 Y60.755 E2.1879
G1 X72.525 Y61.357 E2.21889
G1 X72.412 Y62.124 E2.25757
G1 X72.373 Y62.967 E2.29967
G1 X72.435 Y63.694 E2.33608
G1 X72.527 Y64.311 E2.3672
G1 X72.677 Y64.91 E2.39801
G1 X73.016 Y65.843 E2.44753
G1 X73.284 Y66.406 E2.47864
G1 X73.666 Y67.035 E2.51535
G1 X74.04 Y67.532 E2.54639
G1 X74.828 Y68.388 E2.60443
G1 X75.602 Y69.009 E2.65394
G1 X76.318 Y69.429 E2.69535
G1 X76.864 Y69.702 E2.72581
G1 X77.575 Y69.973 E2.76377
G1 X78.286 Y70.164 E2.8005
G1 X78.89 Y70.264 E2.83104
G1 X79.516 Y70.328 E2.86244
G1 X80.251 Y70.328 E2.89911
G1 X80.997 Y70.252 E2.93652
G1 X81.607 Y70.13 E2.96755
G1 X82.192 Y69.973 E2.99777
G1 X82.902 Y69.703 E3.03567
G1 X83.689 Y69.307 E3.07962
G1 X84.377 Y68.833 E3.1213
G1 X84.771 Y68.525 E3.14625
G1 X85.322 Y68.001 E3.18419
G1 X85.803 Y67.441 E3.22102
G1 X86.235 Y66.826 E3.25851
G1 X86.6 Y66.177 E3.29566
G1 X86.942 Y65.401 E3.33797
G1 X87.153 Y64.669 E3.37598
G1 X87.266 Y64.146 E3.40267
G1 X87.35 Y63.568 E3.43181
G1 X87.387 Y62.828 E3.46878
G1 X87.357 Y62.21 E3.49964
G1 X87.283 Y61.592 E3.5307
G1 X87.151 Y60.989 E3.56149
G1 X86.846 Y60.046 E3.61094
G1 X86.6 Y59.485 E3.6415
G1 X86.235 Y58.839 E3.67852
G1 X85.803 Y58.222 E3.7161
G1 X85.327 Y57.669 E3.7525
G1 X84.868 Y57.231 E3.78415
G1 X84.481 Y56.91 E3.80924
G0 F3600 X86.115 Y59.728
G0 X86.626 Y61.121
G0 X86.817 Y62.255
G0 X86.811 Y63.515
G0 X86.436 Y65.204
G0 X85.777 Y66.538
G0 X84.931 Y67.628
G0 X84.257 Y68.269
G0 X83.39 Y68.853
G0 X82.025 Y69.458
G0 X80.916 Y69.717
G0 X79.543 Y69.787
G0 X75.406 Y68.973
G0 X75.223 Y69.208
G1 F1800 X75.225 Y69.221 E3.80989
G1 X75.667 Y69.511 E3.83627
G1 X76.127 Y69.781 E3.86288
G1 X76.703 Y70.069 E3.895
G1 X77.451 Y70.354 E3.93494
G1 X78.201 Y70.556 E3.97369
G1 X78.838 Y70.661 E4.0059
G1 X79.496 Y70.728 E4.0389
G1 X80.271 Y70.728 E4.07756
G1 X81.056 Y70.648 E4.11693
G1 X81.698 Y70.52 E4.14959
G1 X82.315 Y70.354 E4.18147
G1 X83.063 Y70.069 E4.2214
G1 X83.638 Y69.781 E4.25348
G1 X84.093 Y69.515 E4.27978
G1 X84.595 Y69.169 E4.3102
G1 X84.609 Y69.172 E4.31091
G1 X85.036 Y68.826 E4.33833
G1 X85.612 Y68.277 E4.37803
G1 X86.119 Y67.687 E4.41684
G1 X86.574 Y67.04 E4.4563
G1 X86.959 Y66.356 E4.49546
G1 X87.323 Y65.527 E4.54063
G1 X87.541 Y64.767 E4.58008
G1 X87.66 Y64.217 E4.60815
G1 X87.749 Y63.607 E4.63891
G1 X87.788 Y62.828 E4.67782
G1 X87.755 Y62.177 E4.71034
G1 X87.678 Y61.525 E4.74309
G1 X87.539 Y60.891 E4.77548
G1 X87.395 Y60.387 E4.80163
G1 X87.218 Y59.898 E4.82757
G1 X86.958 Y59.306 E4.85983
G1 X86.574 Y58.625 E4.89883
G1 X86.119 Y57.976 E4.93838
G1 X85.618 Y57.393 E4.97673
G1 X85.134 Y56.932 E5.01007
G1 X84.745 Y56.609 E5.0353
G1 X84.744 Y56.596 E5.03595
G1 X84.187 Y56.199 E5.07008
G1 X83.64 Y55.885 E5.10154
G1 X83.178 Y55.653 E5.12733
G1 X82.439 Y55.35 E5.16718
G1 X81.735 Y55.153 E5.20365
G1 X81.054 Y55.013 E5.23834
G1 X80.404 Y54.951 E5.27092
G1 X79.883 Y54.933 E5.29692
G1 X79.363 Y54.951 E5.32288
G1 X78.838 Y55.003 E5.3492
G1 X78.328 Y55.088 E5.375
G1 X77.696 Y55.236 E5.40738
G1 X77.131 Y55.431 E5.4372
G1 X76.588 Y55.653 E5.46647
G1 X76.125 Y55.885 E5.4923
G1 X75.583 Y56.197 E5.52351
G1 X74.967 Y56.654 E5.56177
G1 X74.952 Y56.651 E5.56253
G1 X74.535 Y57.012 E5.59005
G1 X74.069 Y57.486 E5.62321
G1 X73.729 Y57.88 E5.64918
G1 X73.418 Y58.294 E5.67501
G1 X73.14 Y58.715 E5.70018
G1 X72.809 Y59.303 E5.73384
G1 X72.498 Y60.014 E5.77256
G1 X72.293 Y60.644 E5.80561
G1 X72.133 Y61.279 E5.83829
G1 X72.013 Y62.085 E5.87894
G1 X71.985 Y62.705 E5.9099
G1 X71.993 Y63.22 E5.9356
G1 X72.038 Y63.74 E5.96164
G1 X72.134 Y64.389 E5.99437
G1 X72.292 Y65.02 E6.02682
G1 X72.454 Y65.517 E6.0529
G1 X72.649 Y66.003 E6.07903
G1 X72.932 Y66.596 E6.11181
G1 X73.334 Y67.259 E6.15049
G1 X73.728 Y67.784 E6.18324
G1 X74.069 Y68.179 E6.20927
G1 X74.436 Y68.552 E6.23538
G1 X74.825 Y68.899 E6.26139
G1 X75.223 Y69.208 E6.28653
G1 F2400 E1.28653
G0 F3600 X75.406 Y68.973
G0 X76.594 Y68.918
G0 X77.538 Y67.03
G0 X79.881 Y66.982
G0 X79.906 Y66.684
G1 F2400 E6.28653
G1 F1800 X79.218 Y66.623 E6.32098
G1 X78.476 Y66.413 E6.35946
G1 X78.004 Y66.192 E6.38546
G1 X77.533 Y65.886 E6.41348
G1 X76.912 Y65.313 E6.45564
G1 X76.405 Y64.484 E6.50412
G1 X76.222 Y64.026 E6.52872
G1 X76.092 Y63.51 E6.55527
G1 X76.034 Y62.803 E6.59066
G1 X76.093 Y62.146 E6.62357
G1 X76.311 Y61.397 E6.66249
G1 X76.545 Y60.911 E6.6894
G1 X76.849 Y60.459 E6.71658
G1 X77.386 Y59.874 E6.75619
G1 X78.086 Y59.425 E6.79768
G1 X78.559 Y59.216 E6.82348
G1 X79.074 Y59.069 E6.8502
G1 X79.659 Y58.988 E6.87967
G1 X80.4 Y59.013 E6.91666
G1 X81.222 Y59.22 E6.95895
G1 X81.68 Y59.425 E6.98398
G1 X82.245 Y59.79 E7.01754
G1 X82.829 Y60.35 E7.05791
G1 X83.283 Y61.021 E7.09833
G1 X83.502 Y61.513 E7.12519
G1 X83.666 Y62.116 E7.15637
G1 X83.733 Y62.842 E7.19274
G1 X83.673 Y63.527 E7.22705
G1 X83.502 Y64.153 E7.25943
G1 X83.292 Y64.626 E7.28524
G1 X82.956 Y65.153 E7.31643
G1 X82.506 Y65.652 E7.34995
G1 X82.104 Y65.978 E7.37577
G1 X81.706 Y66.224 E7.39911
G1 X81.013 Y66.515 E7.43661
G1 X80.57 Y66.622 E7.45935
G1 X79.906 Y66.684 E7.49262
G0 F3600 X79.113 Y67.015
G1 F1800 X78.288 Y66.771 E7.53554
G1 X77.769 Y66.52 E7.5643
G1 X77.288 Y66.202 E7.59307
G1 X76.619 Y65.592 E7.63824
G1 X76.057 Y64.689 E7.6913
G1 X75.829 Y64.115 E7.72212
G1 X75.696 Y63.568 E7.7502
G1 X75.629 Y62.835 E7.78692
G1 X75.697 Y62.08 E7.82474
G1 X75.944 Y61.229 E7.86895
G1 X76.197 Y60.715 E7.89753
G1 X76.523 Y60.222 E7.92702
G1 X77.137 Y59.554 E7.97229
G1 X77.935 Y59.052 E8.01932
G1 X78.417 Y58.842 E8.04555
G1 X78.927 Y58.69 E8.0721
G1 X79.679 Y58.583 E8.11
G1 X80.453 Y58.615 E8.14865
G1 X81.318 Y58.825 E8.19305
G1 X81.832 Y59.052 E8.22109
G1 X82.474 Y59.457 E8.25896
G1 X83.155 Y60.109 E8.30599
G1 X83.631 Y60.824 E8.34885
G1 X83.878 Y61.377 E8.37906
G1 X84.068 Y62.069 E8.41486
G1 X84.137 Y62.815 E8.45224
G1 X84.073 Y63.578 E8.49044
G1 X83.878 Y64.29 E8.52727
G1 X83.641 Y64.822 E8.55633
G1 X83.26 Y65.421 E8.59174
G1 X82.782 Y65.942 E8.62702
G1 X82.332 Y66.307 E8.65593
G1 X81.852 Y66.6 E8.68398
G1 X81.212 Y66.87 E8.71864
G1 X80.649 Y67.015 E8.74764
G1 X79.909 Y67.086 E8.78473
G1 X79.113 Y67.015 E8.8246
G1 F2400 E3.8246
G0 F3600 X79.903 Y67.648
G0 X79.903 Y69.748
G0 X80.231 Y69.928
G1 F2400 E8.8246
G1 F1800 X80.938 Y69.856 E8.86006
G1 X81.516 Y69.741 E8.88946
G1 X82.069 Y69.592 E8.91803
G1 X82.741 Y69.336 E8.95391
G1 X83.48 Y68.966 E8.99514
G1 X84.159 Y68.498 E9.03628
G1 X84.507 Y68.224 E9.05838
G1 X85.032 Y67.725 E9.09452
G1 X85.487 Y67.195 E9.12936
G1 X85.896 Y66.613 E9.16485
G1 X86.242 Y65.998 E9.20006
G1 X86.566 Y65.259 E9.24032
G1 X86.765 Y64.571 E9.27605
G1 X86.872 Y64.075 E9.30136
G1 X86.951 Y63.529 E9.32889
G1 X86.987 Y62.828 E9.3639
G1 X86.958 Y62.244 E9.39308
G1 X86.888 Y61.658 E9.42252
G1 X86.709 Y60.842 E9.4642
G1 X86.475 Y60.195 E9.49852
G1 X86.242 Y59.664 E9.52745
G1 X85.896 Y59.052 E9.56253
G1 X85.487 Y58.468 E9.5981
G1 X85.037 Y57.945 E9.63252
G1 X84.602 Y57.53 E9.66251
G1 X84.217 Y57.202 E9.68775
G1 X83.755 Y56.874 E9.71602
G1 X83.032 Y56.459 E9.75761
G1 X82.179 Y56.108 E9.80362
G1 X81.546 Y55.931 E9.83642
G1 X80.935 Y55.805 E9.86754
G1 X80.352 Y55.749 E9.89676
G1 X79.416 Y55.749 E9.94346
G1 X78.486 Y55.873 E9.99027
G1 X77.918 Y56.006 E10.01937
G1 X77.085 Y56.299 E10.06342
G1 X76.504 Y56.59 E10.09584
G1 X76.022 Y56.867 E10.12358
G1 X75.421 Y57.313 E10.16092
G1 X75.083 Y57.596 E10.18291
G1 X74.501 Y58.188 E10.22433
G1 X73.924 Y58.952 E10.27209
G1 X73.526 Y59.66 E10.31261
G1 X73.247 Y60.299 E10.3474
G1 X73.062 Y60.866 E10.37715
G1 X72.918 Y61.435 E10.40644
G1 X72.811 Y62.163 E10.44315
G1 X72.773 Y62.962 E10.48305
G1 X72.832 Y63.647 E10.51736
G1 X72.919 Y64.233 E10.54691
G1 X73.046 Y64.745 E10.57323
G1 X73.276 Y65.456 E10.61051
G1 X73.636 Y66.216 E10.65247
G1 X73.997 Y66.81 E10.68715
G1 X74.319 Y67.24 E10.71395
G1 X74.658 Y67.636 E10.73995
G1 X75.337 Y68.284 E10.78678
G1 X75.728 Y68.594 E10.81167
G1 X76.509 Y69.077 E10.85749
G1 X77.025 Y69.336 E10.88629
G1 X77.698 Y69.591 E10.9222
G1 X78.371 Y69.773 E10.95698
G1 X78.943 Y69.867 E10.9859
G1 X79.536 Y69.928 E11.01564
G1 X80.231 Y69.928 E11.05031
G1 F2400 E6.05031
G0 F3600 X79.741 Y67.634
G0 X79.225 Y66.928
G0 X79.283 Y66.229
;TYPE:WALL-OUTER
G1 F2400 E11.05031
G1 F1800 X78.588 Y66.029 E11.08639
G1 X78.165 Y65.824 E11.10985
G1 X77.779 Y65.57 E11.1329
G1 X77.234 Y65.069 E11.16983
G1 X76.766 Y64.312 E11.21423
G1 X76.59 Y63.867 E11.23811
G1 X76.49 Y63.465 E11.25878
G1 X76.434 Y62.813 E11.29142
G1 X76.486 Y62.235 E11.32038
G1 X76.689 Y61.527 E11.35712
G1 X76.894 Y61.107 E11.38044
G1 X77.143 Y60.732 E11.4029
G1 X77.658 Y60.173 E11.44082
G1 X78.284 Y59.773 E11.47788
G1 X78.707 Y59.588 E11.50091
G1 X79.129 Y59.465 E11.52284
G1 X79.699 Y59.386 E11.55155
G1 X80.329 Y59.41 E11.58301
G1 X81.074 Y59.593 E11.62128
G1 X81.482 Y59.773 E11.64353
G1 X81.978 Y60.089 E11.67287
G1 X82.512 Y60.597 E11.70964
G1 X82.934 Y61.217 E11.74706
G1 X83.126 Y61.649 E11.77064
G1 X83.275 Y62.202 E11.79921
G1 X83.332 Y62.792 E11.82879
G1 X83.284 Y63.428 E11.86061
G1 X83.126 Y64.016 E11.89098
G1 X82.943 Y64.43 E11.91356
G1 X82.628 Y64.923 E11.94275
G1 X82.23 Y65.362 E11.97232
G1 X81.89 Y65.639 E11.99419
G1 X81.492 Y65.884 E12.01751
G1 X80.928 Y66.122 E12.04805
G1 X80.492 Y66.23 E12.07046
G1 X79.887 Y66.281 E12.10075
G1 X79.283 Y66.229 E12.131
G0 F3600 X79.091 Y66.174
G1 F2400 E7.131
G0 F3600 X78.894 Y66.847
G0 X82.139 Y67.086
G0 X83.37 Y68.819
G0 X84.385 Y68.953
G0 X84.813 Y69.505
G1 F2400 E12.131
G1 F1800 X84.829 Y69.508 E12.13181
G1 X85.3 Y69.126 E12.16207
G1 X85.902 Y68.553 E12.20353
G1 X86.435 Y67.933 E12.24432
G1 X86.913 Y67.254 E12.28575
G1 X87.317 Y66.535 E12.32689
G1 X87.592 Y65.91 E12.36096
G1 X87.765 Y65.434 E12.38623
G1 X87.929 Y64.865 E12.41577
G1 X88.054 Y64.288 E12.44522
G1 X88.147 Y63.645 E12.47764
G1 X88.188 Y62.828 E12.51845
G1 X88.154 Y62.143 E12.55267
G1 X88.073 Y61.459 E12.58703
G1 X87.927 Y60.793 E12.62105
G1 X87.776 Y60.264 E12.64849
G1 X87.59 Y59.749 E12.67581
G1 X87.316 Y59.127 E12.70972
G1 X86.913 Y58.411 E12.75071
G1 X86.435 Y57.73 E12.79222
G1 X85.908 Y57.117 E12.83255
G1 X85.4 Y56.633 E12.86756
G1 X85.009 Y56.308 E12.89292
G1 X85.008 Y56.292 E12.89372
G1 X84.403 Y55.862 E12.93075
G1 X83.83 Y55.533 E12.96372
G1 X83.344 Y55.289 E12.99085
G1 X82.569 Y54.971 E13.03264
G1 X81.829 Y54.764 E13.07098
G1 X81.114 Y54.617 E13.10739
G1 X80.43 Y54.551 E13.14168
G1 X79.883 Y54.533 E13.16898
G1 X79.337 Y54.551 E13.19624
G1 X78.785 Y54.606 E13.22391
G1 X78.249 Y54.696 E13.25103
G1 X77.585 Y54.852 E13.28506
G1 X76.99 Y55.056 E13.31644
G1 X76.422 Y55.289 E13.34707
G1 X75.935 Y55.533 E13.37424
G1 X75.363 Y55.862 E13.40716
G1 X74.74 Y56.324 E13.44586
G1 X74.721 Y56.321 E13.44682
G1 X74.261 Y56.72 E13.4772
G1 X73.775 Y57.214 E13.51177
G1 X73.417 Y57.629 E13.53912
G1 X73.091 Y58.064 E13.56624
G1 X72.798 Y58.506 E13.59269
G1 X72.451 Y59.124 E13.62805
G1 X72.124 Y59.872 E13.66878
G1 X71.908 Y60.533 E13.70347
G1 X71.74 Y61.201 E13.73784
G1 X71.615 Y62.047 E13.7805
G1 X71.585 Y62.699 E13.81307
G1 X71.593 Y63.24 E13.84006
G1 X71.64 Y63.786 E13.8674
G1 X71.741 Y64.467 E13.90175
G1 X71.908 Y65.131 E13.93591
G1 X72.078 Y65.653 E13.9633
G1 X72.283 Y66.164 E13.99076
G1 X72.58 Y66.786 E14.02515
G1 X73.002 Y67.483 E14.0658
G1 X73.416 Y68.035 E14.10023
G1 X73.775 Y68.45 E14.1276
G1 X74.16 Y68.842 E14.15502
G1 X74.569 Y69.207 E14.18236
G1 X74.971 Y69.518 E14.20772
G1 X74.973 Y69.534 E14.20853
G1 X75.456 Y69.851 E14.23735
G1 X75.936 Y70.133 E14.26512
G1 X76.542 Y70.436 E14.29893
G1 X77.327 Y70.735 E14.34083
G1 X78.116 Y70.948 E14.38161
G1 X78.785 Y71.058 E14.41543
G1 X79.476 Y71.128 E14.45008
G1 X80.291 Y71.128 E14.49074
G1 X81.116 Y71.044 E14.53211
G1 X81.79 Y70.91 E14.5664
G1 X82.439 Y70.735 E14.59993
G1 X83.225 Y70.436 E14.64189
G1 X83.829 Y70.133 E14.6756
G1 X84.308 Y69.853 E14.70328
G1 X84.813 Y69.505 E14.73388
G0 F3600 X84.829 Y69.508
G0 X84.972 Y69.393
G1 F2400 E9.73388
G0 F3600 X84.539 Y68.834
G0 X83.37 Y68.819
G0 X82.139 Y67.086
G0 X79.165 Y66.863
G0 X76.232 Y65.889
G0 X75.992 Y66.073
;TYPE:SKIN
G1 F2400 E14.73388
G1 F1800 X76.808 Y66.818 E14.78901
G1 X77.367 Y67.19 E14.8225
G1 X77.968 Y67.49 E14.85602
G1 X78.957 Y67.781 E14.90745
G1 X79.884 Y67.867 E14.9539
G1 X80.755 Y67.794 E14.9975
G1 X81.416 Y67.632 E15.03146
G1 X82.229 Y67.287 E15.07552
G1 X82.818 Y66.924 E15.11004
G1 X83.318 Y66.512 E15.14236
G1 X83.884 Y65.896 E15.18409
G1 X84.348 Y65.164 E15.22733
G1 X84.619 Y64.542 E15.26118
G1 X84.844 Y63.71 E15.30418
G1 X84.92 Y62.801 E15.34969
G1 X84.837 Y61.93 E15.39334
G1 X84.617 Y61.119 E15.43526
G1 X84.337 Y60.477 E15.47021
G1 X83.764 Y59.615 E15.52185
G1 X82.95 Y58.833 E15.57816
G1 X82.246 Y58.385 E15.61979
G1 X81.587 Y58.088 E15.65586
G1 X80.559 Y57.838 E15.70864
G1 X79.591 Y57.804 E15.75696
G1 X78.793 Y57.917 E15.79717
G1 X78.197 Y58.092 E15.82816
G1 X77.561 Y58.363 E15.86265
G1 X76.622 Y58.963 E15.91825
G1 X75.896 Y59.751 E15.9717
G1 X75.518 Y60.329 E16.00616
G1 X75.218 Y60.938 E16.04003
G1 X74.929 Y61.939 E16.09201
G1 X74.849 Y62.859 E16.13808
G1 X74.935 Y63.759 E16.18318
G1 X75.085 Y64.351 E16.21365
G1 X75.358 Y65.039 E16.25058
G1 X75.992 Y66.073 E16.31109
G1 F2400 E11.31109
G0 F3600 X76.232 Y65.889
G0 X78.996 Y67.565
G0 X79.545 Y69.748
G0 X80.206 Y69.548
G1 F2400 E16.31109
G1 F1800 X79.56 Y69.548 E16.34332
G1 X79.042 Y69.499 E16.36928
G1 X78.453 Y69.403 E16.39905
G1 X77.822 Y69.231 E16.43168
G1 X77.175 Y68.985 E16.46621
G1 X76.696 Y68.746 E16.49292
G1 X75.955 Y68.287 E16.53641
G1 X75.587 Y67.995 E16.55984
G1 X74.797 Y67.243 E16.61426
