;FLAVOR:Marlin
;TIME:695
;Filament used: 0.633041m
;Layer height: 0.15
;MINX:70.514
;MINY:54.528
;MINZ:0.3
;MAXX:163.809
;MAXY:171.12
;MAXZ:7
;Generated with Cura_SteamEngine 5.3.0
M140 S60
M105
M190 S60
M104 S210
M105
M109 S210
M82 ;absolute extrusion mode
; Aquila X2 Custom Start G-code
G92 E0 ; Reset Extruder
G28 ; Home all axes
M420 S1
G1 Z2.0 F3000 ; Move Z Axis up little to prevent scratching of Heat Bed
G1 X0.1 Y20 Z0.3 F5000.0 ; Move to start position
G1 X0.1 Y200.0 Z0.3 F1500.0 E15 ; Draw the first line
G1 X0.4 Y200.0 Z0.3 F5000.0 ; Move to side a little
G1 X0.4 Y20 Z0.3 F1500.0 E30 ; Draw the second line
G92 E0 ; Reset Extruder
G1 Z2.0 F3000 ; Move Z Axis up little to prevent scratching of Heat Bed
G1 X5 Y20 Z0.3 F5000.0 ; Move over to prevent blob squish
G92 E0
G92 E0
G1 F2400 E-5
;LAYER_COUNT:12
;LAYER:0
M107
;MESH:Washer-Body.stl(3)
G0 F3600 X77.035 Y66.521 Z0.3
;TYPE:WALL-INNER
G1 F2400 E0
G1 F1800 X76.317 Y65.824 E0.04992
G1 X75.839 Y65.141 E0.09151
G1 X75.416 Y64.182 E0.14381
G1 X75.346 Y63.907 E0.15796
G1 X75.237 Y63.047 E0.20121
G1 X75.245 Y62.426 E0.2322
G1 X75.344 Y61.818 E0.26293
G1 X75.564 Y61.1 E0.30039
G1 X75.878 Y60.462 E0.33587
G1 X76.433 Y59.709 E0.38254
G1 X77.043 Y59.143 E0.42406
G1 X77.86 Y58.641 E0.4719
G1 X78.522 Y58.383 E0.50734
G1 X79.443 Y58.196 E0.55423
G1 X80.298 Y58.197 E0.59688
G1 X80.9 Y58.291 E0.62728
G1 X81.661 Y58.53 E0.66708
G1 X82.217 Y58.809 E0.69811
G1 X82.733 Y59.153 E0.72905
G1 X83.448 Y59.833 E0.77828
G1 X84.005 Y60.669 E0.8284
G1 X84.327 Y61.44 E0.87008
G1 X84.519 Y62.405 E0.91917
G1 X84.522 Y63.255 E0.96158
G1 X84.321 Y64.242 E1.01183
G1 X83.927 Y65.194 E1.06323
G1 X83.217 Y66.078 E1.1198
G1 X82.725 Y66.515 E1.15263
G1 X82.05 Y66.953 E1.19277
G1 X81.49 Y67.204 E1.22339
G1 X80.531 Y67.444 E1.27271
G1 X79.714 Y67.484 E1.31352
G1 X78.89 Y67.38 E1.35496
G1 X78.347 Y67.221 E1.38318
G1 X77.727 Y66.956 E1.41682
G1 X77.035 Y66.521 E1.4576
G1 F2400 E-3.5424
G0 F3600 X75.696 Y65.217
G0 X73.676 Y65.903
G0 X72.696 Y64.99
G1 F2400 E1.4576
G1 F1800 X72.69 Y64.998 E1.4581
G1 X72.91 Y65.594 E1.4898
G1 X73.156 Y66.161 E1.52063
G1 X73.462 Y66.707 E1.55186
G1 X73.813 Y67.244 E1.58386
G1 X74.372 Y67.936 E1.62825
G1 X75.021 Y68.549 E1.67278
G1 X75.724 Y69.088 E1.71698
G1 X76.476 Y69.519 E1.76022
G1 X77.165 Y69.827 E1.79787
G1 X78.016 Y70.109 E1.8426
G1 X79.003 Y70.292 E1.89268
G1 X79.883 Y70.337 E1.93664
G1 X80.509 Y70.306 E1.96791
G1 X81.016 Y70.245 E1.99339
G1 X81.744 Y70.111 E2.03032
G1 X82.471 Y69.869 E2.06855
G1 X82.945 Y69.677 E2.09406
G1 X83.396 Y69.459 E2.11905
G1 X84.038 Y69.09 E2.15599
G1 X84.745 Y68.548 E2.20044
G1 X85.195 Y68.124 E2.23129
G1 X85.717 Y67.562 E2.26955
G1 X86.232 Y66.833 E2.31408
G1 X86.536 Y66.291 E2.34509
G1 X86.756 Y65.83 E2.37057
G1 X86.986 Y65.253 E2.40156
G1 X87.229 Y64.402 E2.44571
G1 X87.353 Y63.527 E2.4898
G1 X87.387 Y62.774 E2.52741
G1 X87.35 Y62.14 E2.55909
G1 X87.271 Y61.515 E2.59052
G1 X87.128 Y60.9 E2.62202
G1 X86.982 Y60.417 E2.6472
G1 X86.758 Y59.823 E2.67887
G1 X86.481 Y59.272 E2.70964
G1 X86.223 Y58.83 E2.73517
G1 X85.876 Y58.317 E2.76607
G1 X85.477 Y57.841 E2.79706
G1 X84.947 Y57.286 E2.83534
G1 X84.352 Y56.813 E2.87326
G1 X83.933 Y56.522 E2.89872
G1 X83.399 Y56.204 E2.92972
G1 X82.821 Y55.934 E2.96155
G1 X82.353 Y55.753 E2.98658
G1 X81.76 Y55.568 E3.01758
G1 X81.158 Y55.444 E3.04824
G1 X80.613 Y55.369 E3.07569
G1 X79.996 Y55.331 E3.10653
G1 X79.383 Y55.351 E3.13713
G1 X78.633 Y55.426 E3.17473
G1 X77.887 Y55.605 E3.213
G1 X77.169 Y55.829 E3.25053
G1 X76.379 Y56.198 E3.29403
G1 X75.826 Y56.526 E3.32611
G1 X75.305 Y56.888 E3.35776
G1 X74.736 Y57.37 E3.39496
G1 X74.132 Y58.001 E3.43854
G1 X73.61 Y58.719 E3.48283
G1 X73.157 Y59.49 E3.52744
G1 X72.824 Y60.288 E3.57058
G1 X72.636 Y60.905 E3.60276
G1 X72.524 Y61.397 E3.62793
G1 X72.435 Y61.937 E3.65524
G1 X72.373 Y63.106 E3.71364
G1 X72.461 Y63.903 E3.75365
G1 X72.554 Y64.429 E3.7803
G1 X72.696 Y64.99 E3.80917
G0 F3600 X72.308 Y65.088
G1 F1800 X72.301 Y65.099 E3.80982
G1 X72.539 Y65.743 E3.84407
G1 X72.797 Y66.339 E3.87647
G1 X73.12 Y66.915 E3.90942
G1 X73.489 Y67.48 E3.94308
G1 X73.912 Y68.003 E3.97664
G1 X74.257 Y68.377 E4.00203
G1 X74.761 Y68.853 E4.03661
G1 X75.286 Y69.256 E4.06963
G1 X75.722 Y69.548 E4.09581
G1 X76.295 Y69.876 E4.12875
G1 X77.02 Y70.2 E4.16837
G1 X77.923 Y70.499 E4.21583
G1 X78.712 Y70.645 E4.25586
G1 X79.223 Y70.704 E4.28152
G1 X79.883 Y70.738 E4.31449
G1 X80.543 Y70.704 E4.34746
G1 X81.076 Y70.641 E4.37424
G1 X81.836 Y70.502 E4.41279
G1 X82.609 Y70.245 E4.45343
G1 X83.108 Y70.043 E4.48029
G1 X83.583 Y69.813 E4.50662
G1 X84.044 Y69.548 E4.53314
G1 X84.48 Y69.256 E4.55932
G1 X85.005 Y68.853 E4.59234
G1 X85.479 Y68.406 E4.62485
G1 X85.855 Y68.002 E4.65238
G1 X86.184 Y67.595 E4.67849
G1 X86.57 Y67.047 E4.71193
G1 X86.892 Y66.475 E4.74468
G1 X87.123 Y65.99 E4.77148
G1 X87.365 Y65.383 E4.80408
G1 X87.55 Y64.736 E4.83766
G1 X87.658 Y64.223 E4.86381
G1 X87.752 Y63.564 E4.89702
G1 X87.788 Y62.772 E4.93658
G1 X87.749 Y62.103 E4.97001
G1 X87.665 Y61.444 E5.00315
G1 X87.515 Y60.797 E5.03629
G1 X87.361 Y60.288 E5.06282
G1 X87.125 Y59.663 E5.09615
G1 X86.833 Y59.081 E5.12863
G1 X86.561 Y58.617 E5.15547
G1 X86.196 Y58.076 E5.18803
G1 X85.775 Y57.574 E5.22071
G1 X85.394 Y57.175 E5.24824
G1 X85.022 Y56.835 E5.27338
G1 X84.591 Y56.492 E5.30086
G1 X84.15 Y56.185 E5.32767
G1 X83.587 Y55.85 E5.36035
G1 X82.979 Y55.566 E5.39383
G1 X82.485 Y55.375 E5.42026
G1 X81.86 Y55.18 E5.45292
G1 X81.226 Y55.05 E5.48521
G1 X80.653 Y54.971 E5.51407
G1 X80.002 Y54.93 E5.54661
G1 X79.356 Y54.952 E5.57886
G1 X78.822 Y55.005 E5.60563
G1 X78.304 Y55.094 E5.63185
G1 X77.781 Y55.219 E5.65868
G1 X77.274 Y55.377 E5.68517
G1 X76.787 Y55.566 E5.71123
G1 X76.191 Y55.844 E5.74404
G1 X75.61 Y56.19 E5.77778
G1 X75.061 Y56.571 E5.81112
G1 X74.462 Y57.078 E5.85027
G1 X73.984 Y57.577 E5.88475
G1 X73.661 Y57.968 E5.91005
G1 X73.274 Y58.499 E5.94283
G1 X72.934 Y59.081 E5.97646
G1 X72.699 Y59.549 E6.00258
G1 X72.448 Y60.152 E6.03517
G1 X72.249 Y60.802 E6.06909
G1 X72.131 Y61.32 E6.09559
G1 X72.038 Y61.888 E6.12431
G1 X71.996 Y62.39 E6.14944
G1 X71.984 Y62.901 E6.17494
G1 X72.006 Y63.426 E6.20115
G1 X72.065 Y63.959 E6.22791
G1 X72.162 Y64.513 E6.25597
G1 X72.308 Y65.088 E6.28556
G1 F2400 E1.28556
G0 F3600 X72.6 Y65.016
G0 X73.676 Y65.903
G0 X75.696 Y65.217
G0 X77.997 Y66.464
G0 X79.018 Y66.833
G0 X80.438 Y66.889
G0 X81.276 Y66.68
G0 X82.376 Y66.076
G0 X83.455 Y64.982
G0 X83.222 Y64.795
G1 F2400 E6.28556
G1 F1800 X82.63 Y65.532 E6.33273
G1 X82.237 Y65.88 E6.35892
G1 X81.674 Y66.242 E6.39231
G1 X81.204 Y66.454 E6.41803
G1 X80.392 Y66.651 E6.45972
G1 X79.717 Y66.68 E6.49343
G1 X79.08 Y66.599 E6.52546
G1 X78.598 Y66.461 E6.55047
G1 X78.119 Y66.255 E6.57649
G1 X77.537 Y65.889 E6.61079
G1 X76.949 Y65.325 E6.65144
G1 X76.541 Y64.75 E6.68661
G1 X76.146 Y63.857 E6.73533
G1 X76.036 Y63.013 E6.77779
G1 X76.046 Y62.499 E6.80344
G1 X76.124 Y61.996 E6.82883
G1 X76.322 Y61.368 E6.86169
G1 X76.583 Y60.853 E6.89049
G1 X77.047 Y60.228 E6.92933
G1 X77.529 Y59.784 E6.96202
G1 X78.246 Y59.348 E7.00389
G1 X78.719 Y59.163 E7.02923
G1 X79.527 Y58.998 E7.07037
G1 X80.247 Y58.999 E7.10629
G1 X80.697 Y59.069 E7.12901
G1 X81.334 Y59.265 E7.16226
G1 X81.807 Y59.497 E7.18854
G1 X82.229 Y59.78 E7.21389
G1 X82.83 Y60.347 E7.25512
G1 X83.286 Y61.031 E7.29613
G1 X83.555 Y61.672 E7.33081
G1 X83.716 Y62.462 E7.37103
G1 X83.722 Y63.17 E7.40636
G1 X83.56 Y63.976 E7.44737
G1 X83.222 Y64.795 E7.49158
G0 F3600 X83.455 Y64.982
G0 X82.797 Y65.705
G0 X81.791 Y66.453
G0 X80.438 Y66.889
G0 X79.018 Y66.833
G0 X77.286 Y66.207
G1 F1800 X76.64 Y65.584 E7.53635
G1 X76.191 Y64.949 E7.57515
G1 X75.756 Y63.961 E7.62901
G1 X75.636 Y63.03 E7.67584
G1 X75.644 Y62.529 E7.70084
G1 X75.734 Y61.907 E7.73219
G1 X75.953 Y61.213 E7.7685
G1 X76.204 Y60.702 E7.7969
G1 X76.722 Y59.985 E7.84103
G1 X77.285 Y59.467 E7.8792
G1 X78.043 Y58.998 E7.92367
G1 X78.631 Y58.769 E7.95515
G1 X79.483 Y58.596 E7.99853
G1 X80.228 Y58.596 E8.0357
G1 X80.778 Y58.677 E8.06343
G1 X81.478 Y58.892 E8.09996
G1 X82.012 Y59.153 E8.12962
G1 X82.478 Y59.467 E8.15765
G1 X83.134 Y60.091 E8.20282
G1 X83.649 Y60.852 E8.24866
G1 X83.938 Y61.556 E8.28663
G1 X84.12 Y62.445 E8.3319
G1 X84.122 Y63.213 E8.37022
G1 X83.938 Y64.121 E8.41644
G1 X83.564 Y65.005 E8.46433
G1 X82.924 Y65.805 E8.51544
G1 X82.481 Y66.197 E8.54495
G1 X81.885 Y66.583 E8.58038
G1 X81.322 Y66.834 E8.61113
G1 X80.473 Y67.046 E8.65479
G1 X79.698 Y67.085 E8.6935
G1 X78.958 Y66.982 E8.73078
G1 X78.472 Y66.841 E8.75602
G1 X77.94 Y66.613 E8.7849
G1 X77.286 Y66.207 E8.8233
G1 F2400 E3.8233
G0 F3600 X79.712 Y67.645
G0 X79.596 Y69.76
G0 X79.883 Y69.937
G1 F2400 E8.8233
G1 F1800 X80.703 Y69.895 E8.86427
G1 X81.451 Y69.758 E8.90221
G1 X82.332 Y69.494 E8.94809
G1 X83.209 Y69.105 E8.99596
G1 X83.813 Y68.758 E9.03071
G1 X84.485 Y68.243 E9.07295
G1 X84.911 Y67.842 E9.10214
G1 X85.546 Y67.112 E9.15041
G1 X85.893 Y66.619 E9.18048
G1 X86.301 Y65.892 E9.22208
G1 X86.607 Y65.124 E9.26332
G1 X86.836 Y64.322 E9.30493
G1 X86.954 Y63.489 E9.3469
G1 X86.986 Y62.777 E9.38246
G1 X86.952 Y62.177 E9.41244
G1 X86.876 Y61.586 E9.44217
G1 X86.685 Y60.761 E9.48442
G1 X86.391 Y59.984 E9.52587
G1 X86.019 Y59.242 E9.56728
G1 X85.556 Y58.558 E9.60849
G1 X84.977 Y57.868 E9.65342
G1 X83.959 Y57.003 E9.72007
G1 X83.212 Y56.558 E9.76345
G1 X82.453 Y56.204 E9.80523
G1 X81.661 Y55.956 E9.84664
G1 X81.091 Y55.839 E9.87567
G1 X80.574 Y55.768 E9.9017
G1 X79.99 Y55.731 E9.9309
G1 X79.409 Y55.751 E9.9599
G1 X78.889 Y55.805 E9.98598
G1 X77.993 Y55.991 E10.03164
G1 X77.102 Y56.302 E10.07872
G1 X76.566 Y56.552 E10.10823
G1 X76.043 Y56.863 E10.13858
G1 X75.549 Y57.206 E10.16859
G1 X75.011 Y57.661 E10.20374
G1 X74.438 Y58.259 E10.24506
G1 X73.945 Y58.938 E10.28692
G1 X73.516 Y59.671 E10.3293
G1 X73.201 Y60.424 E10.37002
G1 X72.959 Y61.218 E10.41143
G1 X72.833 Y61.986 E10.45026
G1 X72.785 Y62.893 E10.49557
G1 X72.813 Y63.588 E10.53027
G1 X72.945 Y64.345 E10.56861
G1 X73.084 Y64.892 E10.59677
G1 X73.08 Y64.898 E10.59713
G1 X73.282 Y65.446 E10.62627
G1 X73.515 Y65.983 E10.65547
G1 X73.805 Y66.5 E10.68504
G1 X74.137 Y67.009 E10.71536
G1 X74.685 Y67.679 E10.75855
G1 X75.281 Y68.244 E10.79952
G1 X75.959 Y68.763 E10.84212
G1 X76.658 Y69.161 E10.88225
G1 X77.31 Y69.454 E10.91791
G1 X78.126 Y69.723 E10.96077
G1 X79.049 Y69.893 E11.0076
G1 X79.883 Y69.937 E11.04926
G1 F2400 E6.04926
G0 F3600 X81.411 Y69.583
G0 X81.542 Y67.356
G0 X83.53 Y64.841
G0 X82.883 Y64.574
;TYPE:WALL-OUTER
G1 F2400 E11.04926
G1 F1800 X82.337 Y65.259 E11.09297
G1 X82.004 Y65.554 E11.11516
G1 X81.475 Y65.895 E11.14656
G1 X81.082 Y66.07 E11.16802
G1 X80.355 Y66.252 E11.20541
G1 X79.737 Y66.28 E11.23628
G1 X79.133 Y66.201 E11.26667
G1 X78.707 Y66.075 E11.28883
G1 X78.281 Y65.888 E11.31204
G1 X77.793 Y65.58 E11.34083
G1 X77.24 Y65.049 E11.37908
G1 X76.892 Y64.552 E11.40935
G1 X76.542 Y63.765 E11.45232
G1 X76.437 Y63.014 E11.49015
G1 X76.445 Y62.532 E11.5142
G1 X76.514 Y62.085 E11.53677
G1 X76.691 Y61.522 E11.56621
G1 X76.895 Y61.106 E11.58933
G1 X77.329 Y60.512 E11.62603
G1 X77.765 Y60.108 E11.65568
G1 X78.396 Y59.72 E11.69264
G1 X78.858 Y59.539 E11.7174
G1 X79.567 Y59.396 E11.75348
G1 X80.196 Y59.397 E11.78486
G1 X80.616 Y59.461 E11.80606
G1 X81.189 Y59.639 E11.83599
G1 X81.602 Y59.841 E11.85893
G1 X81.979 Y60.093 E11.88155
G1 X82.511 Y60.596 E11.91808
G1 X82.942 Y61.236 E11.95657
G1 X83.171 Y61.788 E11.98639
G1 X83.32 Y62.519 E12.02361
G1 X83.322 Y63.126 E12.05389
G1 X83.175 Y63.866 E12.09153
G1 X82.883 Y64.574 E12.12974
G0 F3600 X82.759 Y64.73
G1 F2400 E7.12974
G0 F3600 X83.305 Y65.168
G0 X82.376 Y66.076
G0 X81.276 Y66.68
G0 X80.438 Y66.889
G0 X79.018 Y66.833
G0 X77.997 Y66.464
G0 X75.261 Y64.225
G0 X73.224 Y64.727
G0 X71.92 Y65.186
G1 F2400 E12.12974
G1 F1800 X71.912 Y65.199 E12.1305
G1 X72.167 Y65.892 E12.16734
G1 X72.438 Y66.517 E12.20133
G1 X72.778 Y67.122 E12.23595
G1 X73.165 Y67.716 E12.27132
G1 X73.609 Y68.265 E12.30655
G1 X73.973 Y68.659 E12.33331
G1 X74.501 Y69.158 E12.36955
G1 X75.052 Y69.581 E12.40421
G1 X75.511 Y69.888 E12.43176
G1 X76.113 Y70.233 E12.46638
G1 X76.875 Y70.574 E12.50803
G1 X77.543 Y70.795 E12.54313
G1 X78.051 Y70.93 E12.56935
G1 X78.652 Y71.041 E12.59984
G1 X79.19 Y71.103 E12.62686
G1 X79.883 Y71.138 E12.66148
G1 X80.577 Y71.103 E12.69615
G1 X81.136 Y71.037 E12.72423
G1 X81.715 Y70.93 E12.75361
G1 X82.223 Y70.795 E12.77983
G1 X82.747 Y70.621 E12.80738
G1 X83.27 Y70.409 E12.83553
G1 X83.77 Y70.167 E12.86324
G1 X84.255 Y69.888 E12.89116
G1 X84.714 Y69.581 E12.91871
G1 X85.265 Y69.158 E12.95336
G1 X85.763 Y68.688 E12.98753
G1 X86.157 Y68.264 E13.0164
G1 X86.504 Y67.836 E13.04389
G1 X86.909 Y67.261 E13.07898
G1 X87.247 Y66.659 E13.11343
G1 X87.49 Y66.15 E13.14156
G1 X87.744 Y65.512 E13.17582
G1 X87.938 Y64.832 E13.2111
G1 X88.052 Y64.293 E13.23859
G1 X88.151 Y63.601 E13.27346
G1 X88.188 Y62.769 E13.31501
G1 X88.147 Y62.066 E13.35015
G1 X88.059 Y61.374 E13.38495
G1 X87.901 Y60.693 E13.41983
G1 X87.74 Y60.16 E13.4476
G1 X87.492 Y59.502 E13.48269
G1 X87.185 Y58.89 E13.51685
G1 X86.9 Y58.403 E13.545
G1 X86.516 Y57.835 E13.5792
G1 X86.073 Y57.307 E13.61359
G1 X85.674 Y56.889 E13.64242
G1 X85.282 Y56.531 E13.6689
G1 X84.83 Y56.17 E13.69776
G1 X84.366 Y55.849 E13.72591
G1 X83.775 Y55.496 E13.76026
G1 X83.136 Y55.198 E13.79543
G1 X82.617 Y54.997 E13.8232
G1 X81.96 Y54.792 E13.85754
G1 X81.294 Y54.655 E13.89146
G1 X80.693 Y54.573 E13.92172
G1 X80.008 Y54.53 E13.95596
G1 X79.329 Y54.552 E13.98986
G1 X78.768 Y54.609 E14.01799
G1 X78.224 Y54.702 E14.04552
G1 X77.675 Y54.833 E14.07368
G1 X77.142 Y54.999 E14.10153
G1 X76.63 Y55.198 E14.12894
G1 X76.004 Y55.49 E14.1634
G1 X75.393 Y55.853 E14.19886
G1 X74.817 Y56.253 E14.23384
G1 X74.188 Y56.786 E14.27497
G1 X73.685 Y57.311 E14.31125
G1 X73.345 Y57.723 E14.3379
G1 X72.939 Y58.279 E14.37225
G1 X72.582 Y58.89 E14.40755
G1 X72.335 Y59.383 E14.43506
G1 X72.071 Y60.016 E14.46928
G1 X71.862 Y60.699 E14.50491
G1 X71.738 Y61.243 E14.53275
G1 X71.64 Y61.839 E14.56288
G1 X71.596 Y62.369 E14.58942
G1 X71.584 Y62.905 E14.61616
G1 X71.607 Y63.456 E14.64368
G1 X71.669 Y64.016 E14.67179
G1 X71.771 Y64.597 E14.70122
G1 X71.92 Y65.186 E14.73153
G0 F3600 X71.912 Y65.199
G0 X71.975 Y65.372
G0 X72.64 Y65.135
G0 X74.787 Y67.585
G0 X75.373 Y68.136
G0 X76.029 Y68.642
G0 X77.361 Y69.323
G0 X79.868 Y69.855
G0 X79.884 Y69.556
;TYPE:SKIN
G1 F1800 X79.073 Y69.512 E14.77205
G1 X78.178 Y69.337 E14.81754
G1 X77.443 Y69.097 E14.85612
G1 X76.826 Y68.82 E14.88986
G1 X76.165 Y68.442 E14.92785
G1 X75.531 Y67.955 E14.96774
G1 X74.959 Y67.416 E15.00695
G1 X74.448 Y66.787 E15.04738
G1 X74.128 Y66.3 E15.07645
G1 X73.853 Y65.81 E15.10448
G1 X73.643 Y65.322 E15.13099
G1 X73.45 Y64.799 E15.1588
G1 X73.318 Y64.263 E15.18634
G1 X73.184 Y63.329 E15.23341
G1 X73.166 Y62.896 E15.25504
G1 X73.212 Y62.024 E15.2986
G1 X73.327 Y61.315 E15.33444
G1 X73.558 Y60.556 E15.37402
G1 X73.854 Y59.847 E15.41235
G1 X74.248 Y59.166 E15.4516
G1 X74.727 Y58.509 E15.49216
G1 X75.276 Y57.935 E15.53179
G1 X75.778 Y57.51 E15.56461
G1 X76.246 Y57.186 E15.593
G1 X76.748 Y56.887 E15.62215
G1 X77.248 Y56.654 E15.64968
G1 X78.095 Y56.359 E15.69442
G1 X79.15 Y56.141 E15.74817
G1 X79.983 Y56.112 E15.78975
G1 X80.775 Y56.162 E15.82934
G1 X81.566 Y56.327 E15.86966
G1 X82.305 Y56.556 E15.90825
G1 X83.029 Y56.893 E15.9481
G1 X83.747 Y57.321 E15.9898
G1 X84.707 Y58.139 E16.05272
G1 X85.25 Y58.784 E16.09479
G1 X85.688 Y59.432 E16.13381
G1 X86.041 Y60.134 E16.17301
G1 X86.318 Y60.866 E16.21206
G1 X86.5 Y61.649 E16.25216
G1 X86.576 Y62.24 E16.28189
G1 X86.605 Y62.775 E16.30862
G1 X86.575 Y63.45 E16.34233
G1 X86.461 Y64.251 E16.38269
G1 X86.247 Y64.995 E16.42132
G1 X85.952 Y65.734 E16.46101
G1 X85.572 Y66.413 E16.49983
G1 X85.247 Y66.875 E16.52802
G1 X84.641 Y67.572 E16.57409
G1 X84.234 Y67.955 E16.60198
G1 X83.795 Y68.292 E16.62959
G1 X83.029 Y68.77 E16.67463
G1 X82.205 Y69.136 E16.71962
G1 X81.363 Y69.389 E16.76348
G1 X80.444 Y69.527 E16.80984
G1 X79.884 Y69.556 E16.83782
G1 F2400 E11.83782
G0 F3600 X79.868 Y69.855
G0 X79.045 Y69.751
G0 X78.081 Y69.523
G0 X77.651 Y67.098
G0 X76.981 Y66.582
G0 X76.798 Y66.822
G1 F2400 E16.83782
