;FLAVOR:Marlin
;TIME:4648
;Filament used: 4.87882m
;Layer height: 0.2
;MINX:57.033
;MINY:29.973
;MINZ:0.3
;MAXX:162.967
;MAXY:111.295
;MAXZ:5.1
;Generated with Cura_SteamEngine 4.13.1
M140 S60
M105
M190 S60
M104 S210
M105
M109 S210
M82 ;absolute extrusion mode
; Aquila X2 Custom Start G-code
G92 E0 ; Reset Extruder
G28 ; Home all axes
G1 Z2.0 F3000 ; Move Z Axis up little to prevent scratching of Heat Bed
G1 X0.1 Y20 Z0.3 F5000.0 ; Move to start position
G1 X0.1 Y200.0 Z0.3 F1500.0 E15 ; Draw the first line
G1 X0.4 Y200.0 Z0.3 F5000.0 ; Move to side a little
G1 X0.4 Y20 Z0.3 F1500.0 E30 ; Draw the second line
G92 E0 ; Reset Extruder
G1 Z2.0 F3000 ; Move Z Axis up little to prevent scratching of Heat Bed
G1 X5 Y20 Z0.3 F5000.0 ; Move over to prevent blob squish
G92 E0
G92 E0
G1 F2400 E-3
;LAYER_COUNT:25
;LAYER:0
M107
G0 F3600 X91.015 Y38.7 Z0.3
;TYPE:SUPPORT
G1 F2400 E0
G1 F1800 X91.251 Y38.172 E0.02885
G1 X91.506 Y37.734 E0.05414
G1 X91.82 Y37.297 E0.08099
G1 X92.145 Y36.926 E0.10559
G1 X92.552 Y36.545 E0.13341
G1 X92.984 Y36.216 E0.1605
G1 X93.444 Y35.936 E0.18736
G1 X93.915 Y35.709 E0.21345
G1 X94.396 Y35.532 E0.23902
G1 X94.923 Y35.397 E0.26616
G1 X95.441 Y35.314 E0.29233
G1 X96.002 Y35.286 E0.32036
G1 X96.531 Y35.311 E0.34678
G1 X97.06 Y35.392 E0.37348
G1 X97.559 Y35.518 E0.39915
G1 X98.071 Y35.703 E0.42631
G1 X98.552 Y35.934 E0.45294
G1 X99.014 Y36.216 E0.47994
G1 X99.439 Y36.537 E0.50651
G1 X99.834 Y36.904 E0.53341
G1 X100.178 Y37.295 E0.55939
G1 X100.472 Y37.703 E0.58448
G1 X100.773 Y38.217 E0.6142
G1 X100.969 Y38.653 E0.63805
G1 X101.139 Y39.149 E0.66421
G1 X101.273 Y39.728 E0.69386
G1 X101.33 Y40.181 E0.71664
G1 X101.347 Y40.74 E0.74454
G1 X101.308 Y41.284 E0.77175
G1 X101.222 Y41.786 E0.79716
G1 X101.067 Y42.347 E0.82619
G1 X100.894 Y42.789 E0.84987
G1 X100.635 Y43.302 E0.87854
G1 X100.362 Y43.728 E0.90379
G1 X100.024 Y44.158 E0.93107
G1 X99.658 Y44.536 E0.95732
G1 X99.248 Y44.883 E0.98412
G1 X98.778 Y45.206 E1.01257
G1 X98.358 Y45.435 E1.03644
G1 X97.847 Y45.654 E1.06418
G1 X97.322 Y45.818 E1.09162
G1 X96.796 Y45.924 E1.11839
G1 X96.297 Y45.974 E1.14341
G1 X95.758 Y45.977 E1.1703
G1 X95.197 Y45.922 E1.19842
G1 X94.685 Y45.819 E1.22448
G1 X94.201 Y45.669 E1.24976
G1 X93.695 Y45.458 E1.27711
G1 X93.197 Y45.19 E1.30532
G1 X92.801 Y44.921 E1.32921
G1 X92.36 Y44.553 E1.35786
G1 X91.992 Y44.175 E1.38418
G1 X91.68 Y43.785 E1.4091
G1 X91.368 Y43.306 E1.43762
G1 X91.135 Y42.852 E1.46308
G1 X90.931 Y42.339 E1.49062
G1 X90.791 Y41.842 E1.51638
G1 X90.692 Y41.285 E1.5446
G1 X90.654 Y40.8 E1.56888
G1 X90.666 Y40.226 E1.59752
G1 X90.727 Y39.734 E1.62225
G1 X90.849 Y39.195 E1.64982
G1 X91.015 Y38.7 E1.67587
G0 F3600 X96.531 Y35.311
G1 F1800 X97.062 Y35.393 E1.70268
G1 X97.561 Y35.519 E1.72835
G1 X98.072 Y35.703 E1.75545
G1 X98.55 Y35.933 E1.78191
G1 X99.01 Y36.213 E1.80878
G1 X99.442 Y36.54 E1.83581
G1 X99.837 Y36.907 E1.86271
G1 X100.174 Y37.289 E1.88813
G1 X100.469 Y37.699 E1.91332
G1 X100.778 Y38.226 E1.9438
G1 X100.968 Y38.65 E1.96698
G1 X101.139 Y39.147 E1.99321
G1 X101.275 Y39.738 E2.02346
G1 X101.33 Y40.171 E2.04524
G1 X101.347 Y40.75 E2.07414
G1 X101.309 Y41.28 E2.10065
G1 X101.222 Y41.784 E2.12616
G1 X101.066 Y42.35 E2.15545
G1 X100.898 Y42.781 E2.17853
G1 X100.632 Y43.307 E2.20794
G1 X100.364 Y43.725 E2.23271
G1 X100.025 Y44.158 E2.26015
G1 X99.658 Y44.536 E2.28643
G1 X99.247 Y44.884 E2.3133
G1 X98.782 Y45.204 E2.34146
G1 X98.355 Y45.436 E2.3657
G1 X97.846 Y45.654 E2.39333
G1 X97.321 Y45.818 E2.42077
G1 X96.796 Y45.924 E2.44749
G1 X96.297 Y45.974 E2.47251
G1 X95.758 Y45.977 E2.4994
G1 X95.195 Y45.922 E2.52762
G1 X94.685 Y45.819 E2.55358
G1 X94.206 Y45.67 E2.57861
G1 X93.692 Y45.456 E2.60639
G1 X93.192 Y45.187 E2.63471
G1 X92.807 Y44.926 E2.65792
G1 X92.359 Y44.552 E2.68703
G1 X91.991 Y44.174 E2.71335
G1 X91.682 Y43.788 E2.73802
G1 X91.367 Y43.303 E2.76687
G1 X91.137 Y42.855 E2.792
G1 X90.931 Y42.338 E2.81976
G1 X90.791 Y41.839 E2.84562
G1 X90.691 Y41.28 E2.87395
G1 X90.654 Y40.804 E2.89777
G1 X90.666 Y40.222 E2.92681
G1 X90.726 Y39.738 E2.95114
G1 X90.846 Y39.205 E2.9784
G1 X91.015 Y38.7 E3.00497
G1 X91.252 Y38.171 E3.03389
G1 X91.511 Y37.726 E3.05958
G1 X91.82 Y37.296 E3.08599
G1 X92.142 Y36.929 E3.11035
G1 X92.555 Y36.542 E3.13859
G1 X92.981 Y36.217 E3.16532
G1 X93.446 Y35.935 E3.19245
G1 X93.912 Y35.711 E3.21825
G1 X94.395 Y35.533 E3.24393
G1 X94.931 Y35.395 E3.27154
G1 X95.435 Y35.315 E3.297
G1 X96.003 Y35.286 E3.32538
G1 X96.531 Y35.311 E3.35175
G0 F3600 X96.005 Y37.916
G1 F1800 X95.715 Y37.931 E3.36624
G1 X95.182 Y38.044 E3.39342
G1 X94.701 Y38.247 E3.41946
G1 X94.264 Y38.543 E3.4458
G1 X93.881 Y38.932 E3.47303
G1 X93.596 Y39.367 E3.49898
G1 X93.384 Y39.902 E3.52769
G1 X93.288 Y40.434 E3.55466
G1 X93.303 Y40.966 E3.58121
G1 X93.424 Y41.494 E3.60824
G1 X93.644 Y41.985 E3.63508
G1 X93.962 Y42.432 E3.66245
G1 X94.384 Y42.819 E3.69101
G1 X94.836 Y43.086 E3.7172
G1 X95.325 Y43.266 E3.7432
G1 X95.887 Y43.348 E3.77154
G1 X96.408 Y43.322 E3.79756
G1 X96.922 Y43.191 E3.82402
G1 X97.42 Y42.953 E3.85156
G1 X97.868 Y42.608 E3.87977
G1 X98.223 Y42.197 E3.90687
G1 X98.495 Y41.707 E3.93483
G1 X98.654 Y41.215 E3.96062
G1 X98.716 Y40.699 E3.98655
G1 X98.685 Y40.196 E4.01169
G1 X98.518 Y39.609 E4.04214
G1 X98.272 Y39.146 E4.0683
G1 X97.946 Y38.736 E4.09443
G1 X97.522 Y38.384 E4.12192
G1 X97.049 Y38.128 E4.14876
G1 X96.556 Y37.975 E4.17451
G1 X96.005 Y37.916 E4.20216
G0 F3600 X96.012 Y40.589
G1 F1800 X96.045 Y40.642 E4.20527
G1 X95.993 Y40.679 E4.20846
G1 X95.953 Y40.635 E4.21142
G1 X96.012 Y40.589 E4.21515
G0 F3600 X118.653 Y40.778
G1 F1800 X118.666 Y40.226 E4.2427
G1 X118.731 Y39.71 E4.26865
G1 X118.847 Y39.201 E4.29469
G1 X119.03 Y38.657 E4.32333
G1 X119.236 Y38.2 E4.34834
G1 X119.508 Y37.731 E4.37539
G1 X119.819 Y37.3 E4.4019
G1 X120.172 Y36.898 E4.42859
G1 X120.566 Y36.532 E4.45542
G1 X120.985 Y36.215 E4.48163
G1 X121.444 Y35.936 E4.50843
G1 X121.924 Y35.704 E4.53503
G1 X122.414 Y35.526 E4.56104
G1 X122.942 Y35.392 E4.58822
G1 X123.469 Y35.312 E4.61481
G1 X124 Y35.285 E4.64134
G1 X124.531 Y35.312 E4.66786
G1 X125.058 Y35.392 E4.69446
G1 X125.582 Y35.525 E4.72143
G1 X126.085 Y35.709 E4.74815
G1 X126.552 Y35.933 E4.77399
G1 X126.99 Y36.2 E4.79958
G1 X127.433 Y36.534 E4.82726
G1 X127.838 Y36.909 E4.8548
G1 X128.181 Y37.3 E4.88075
G1 X128.492 Y37.731 E4.90726
G1 X128.764 Y38.2 E4.93431
G1 X128.97 Y38.657 E4.95932
G1 X129.153 Y39.201 E4.98795
G1 X129.269 Y39.71 E5.014
G1 X129.334 Y40.226 E5.03995
G1 X129.347 Y40.727 E5.06495
G1 X129.308 Y41.281 E5.09266
G1 X129.214 Y41.828 E5.12035
G1 X129.07 Y42.34 E5.14688
G1 X128.877 Y42.83 E5.17316
G1 X128.636 Y43.301 E5.19955
G1 X128.342 Y43.756 E5.22658
G1 X128.024 Y44.156 E5.25207
G1 X127.642 Y44.55 E5.27945
G1 X127.231 Y44.896 E5.30625
G1 X126.8 Y45.19 E5.33228
G1 X126.306 Y45.459 E5.36035
G1 X125.832 Y45.659 E5.38601
G1 X125.317 Y45.819 E5.41292
G1 X124.805 Y45.922 E5.43897
G1 X124.262 Y45.976 E5.4662
G1 X123.738 Y45.976 E5.49234
G1 X123.195 Y45.922 E5.51956
G1 X122.683 Y45.819 E5.54562
G1 X122.168 Y45.659 E5.57252
G1 X121.69 Y45.457 E5.59841
G1 X121.232 Y45.208 E5.62442
G1 X120.758 Y44.887 E5.65298
G1 X120.363 Y44.556 E5.67869
G1 X119.992 Y44.174 E5.70526
G1 X119.662 Y43.761 E5.73164
G1 X119.364 Y43.301 E5.75898
G1 X119.123 Y42.83 E5.78538
G1 X118.934 Y42.35 E5.81111
G1 X118.784 Y41.814 E5.83888
G1 X118.691 Y41.282 E5.86582
G1 X118.653 Y40.778 E5.89104
G0 F3600 X124.531 Y35.312
G1 F1800 X125.06 Y35.393 E5.91774
G1 X125.58 Y35.525 E5.94451
G1 X126.094 Y35.713 E5.97181
G1 X126.547 Y35.93 E5.99687
G1 X126.992 Y36.201 E6.02286
G1 X127.43 Y36.532 E6.05025
G1 X127.841 Y36.912 E6.07818
G1 X128.181 Y37.299 E6.10388
G1 X128.492 Y37.731 E6.13044
G1 X128.765 Y38.201 E6.15755
G1 X128.966 Y38.648 E6.18201
G1 X129.156 Y39.211 E6.21165
G1 X129.27 Y39.713 E6.23733
G1 X129.334 Y40.221 E6.26288
G1 X129.347 Y40.717 E6.28763
G1 X129.307 Y41.287 E6.31614
G1 X129.215 Y41.823 E6.34327
G1 X129.07 Y42.341 E6.37011
G1 X128.877 Y42.829 E6.39629
G1 X128.637 Y43.298 E6.42257
G1 X128.341 Y43.758 E6.44986
G1 X128.024 Y44.155 E6.47521
G1 X127.643 Y44.549 E6.50255
G1 X127.23 Y44.897 E6.5295
G1 X126.804 Y45.187 E6.55521
G1 X126.3 Y45.461 E6.58383
G1 X125.833 Y45.659 E6.60914
G1 X125.317 Y45.819 E6.63609
G1 X124.807 Y45.922 E6.66205
G1 X124.262 Y45.976 E6.68937
G1 X123.738 Y45.976 E6.71551
G1 X123.193 Y45.922 E6.74283
G1 X122.683 Y45.819 E6.76879
G1 X122.167 Y45.659 E6.79574
G1 X121.696 Y45.459 E6.82127
G1 X121.23 Y45.206 E6.84773
G1 X120.749 Y44.881 E6.87669
G1 X120.363 Y44.556 E6.90186
G1 X119.995 Y44.178 E6.92818
G1 X119.664 Y43.764 E6.95463
G1 X119.363 Y43.298 E6.98231
G1 X119.122 Y42.829 E7.00861
G1 X118.934 Y42.35 E7.03428
G1 X118.783 Y41.809 E7.06231
G1 X118.69 Y41.279 E7.08915
G1 X118.653 Y40.783 E7.11397
G1 X118.666 Y40.221 E7.14201
G1 X118.73 Y39.713 E7.16756
G1 X118.844 Y39.211 E7.19324
G1 X119.034 Y38.648 E7.22288
G1 X119.235 Y38.201 E7.24734
G1 X119.508 Y37.731 E7.27445
G1 X119.819 Y37.299 E7.30101
G1 X120.168 Y36.901 E7.32742
G1 X120.571 Y36.528 E7.35481
G1 X120.983 Y36.216 E7.3806
G1 X121.446 Y35.935 E7.40762
G1 X121.924 Y35.704 E7.4341
G1 X122.412 Y35.527 E7.46
G1 X122.94 Y35.393 E7.48718
G1 X123.469 Y35.312 E7.51388
G1 X124 Y35.286 E7.5404
G1 X124.531 Y35.312 E7.56693
G0 F3600 X124.519 Y37.969
G1 F1800 X124.006 Y37.917 E7.59265
G1 X123.726 Y37.931 E7.60664
G1 X123.188 Y38.041 E7.63403
G1 X122.694 Y38.251 E7.66081
G1 X122.256 Y38.548 E7.68722
G1 X121.861 Y38.958 E7.71562
G1 X121.579 Y39.397 E7.74165
G1 X121.376 Y39.921 E7.76969
G1 X121.29 Y40.415 E7.7947
G1 X121.302 Y40.958 E7.8218
G1 X121.427 Y41.503 E7.8497
G1 X121.642 Y41.982 E7.87589
G1 X121.97 Y42.44 E7.904
G1 X122.346 Y42.789 E7.92959
G1 X122.853 Y43.096 E7.95916
G1 X123.329 Y43.267 E7.98439
G1 X123.875 Y43.348 E8.01193
G1 X124.415 Y43.32 E8.03891
G1 X124.917 Y43.193 E8.06474
G1 X125.434 Y42.941 E8.09344
G1 X125.843 Y42.63 E8.11907
G1 X126.212 Y42.212 E8.14689
G1 X126.476 Y41.755 E8.17322
G1 X126.648 Y41.246 E8.20002
G1 X126.717 Y40.662 E8.22936
G1 X126.676 Y40.149 E8.25504
G1 X126.521 Y39.619 E8.28259
G1 X126.279 Y39.156 E8.30865
G1 X125.957 Y38.751 E8.33446
G1 X125.512 Y38.375 E8.36353
G1 X125.083 Y38.142 E8.38789
G1 X124.519 Y37.969 E8.41732
G0 F3600 X123.997 Y40.588
G1 F1800 X124.046 Y40.627 E8.42044
G1 X123.992 Y40.68 E8.42422
G1 X123.952 Y40.628 E8.42749
G1 X123.997 Y40.588 E8.43049
G1 F2400 E5.43049
G0 F3600 X123.997 Y57.885
G0 X115.653 Y57.953
G0 X115.653 Y61.647
G0 X123.997 Y61.714
G0 X123.998 Y79.552
G0 X115.653 Y79.62
G0 X115.653 Y83.314
G0 X123.998 Y83.381
G0 X124 Y95.285
G1 F2400 E8.43049
G1 F1800 X124.531 Y95.312 E8.45702
G1 X125.058 Y95.392 E8.48361
G1 X125.582 Y95.525 E8.51058
G1 X126.085 Y95.709 E8.53731
G1 X126.552 Y95.933 E8.56315
G1 X126.99 Y96.2 E8.58874
G1 X127.433 Y96.534 E8.61642
G1 X127.838 Y96.909 E8.64395
G1 X128.181 Y97.3 E8.6699
G1 X128.492 Y97.731 E8.69642
G1 X128.764 Y98.2 E8.72347
G1 X128.97 Y98.657 E8.74848
G1 X129.153 Y99.201 E8.77711
G1 X129.269 Y99.71 E8.80316
G1 X129.334 Y100.226 E8.8291
G1 X129.347 Y100.727 E8.85411
G1 X129.308 Y101.281 E8.88181
G1 X129.214 Y101.828 E8.9095
G1 X129.07 Y102.34 E8.93604
G1 X128.877 Y102.83 E8.96231
G1 X128.636 Y103.301 E8.98871
G1 X128.342 Y103.756 E9.01574
G1 X128.024 Y104.156 E9.04123
G1 X127.642 Y104.55 E9.06861
G1 X127.231 Y104.896 E9.09541
G1 X126.8 Y105.19 E9.12144
G1 X126.306 Y105.459 E9.1495
G1 X125.832 Y105.659 E9.17517
G1 X125.317 Y105.819 E9.20208
G1 X124.805 Y105.922 E9.22813
G1 X124.262 Y105.976 E9.25536
G1 X123.738 Y105.976 E9.2815
G1 X123.195 Y105.922 E9.30872
G1 X122.683 Y105.819 E9.33478
G1 X122.168 Y105.659 E9.36168
G1 X121.69 Y105.457 E9.38757
G1 X121.232 Y105.208 E9.41358
G1 X120.758 Y104.887 E9.44214
G1 X120.363 Y104.556 E9.46785
G1 X119.992 Y104.174 E9.49442
G1 X119.662 Y103.761 E9.52079
G1 X119.364 Y103.301 E9.54814
G1 X119.123 Y102.83 E9.57453
G1 X118.934 Y102.35 E9.60027
G1 X118.784 Y101.814 E9.62804
G1 X118.691 Y101.282 E9.65498
G1 X118.653 Y100.778 E9.6802
G1 X118.666 Y100.226 E9.70775
G1 X118.731 Y99.71 E9.73369
G1 X118.847 Y99.201 E9.75974
G1 X119.03 Y98.657 E9.78837
G1 X119.236 Y98.2 E9.81338
G1 X119.508 Y97.731 E9.84043
G1 X119.819 Y97.3 E9.86695
G1 X120.172 Y96.898 E9.89364
G1 X120.566 Y96.532 E9.92047
G1 X120.985 Y96.215 E9.94668
G1 X121.444 Y95.936 E9.97348
G1 X121.924 Y95.704 E10.00007
G1 X122.414 Y95.526 E10.02608
G1 X122.942 Y95.392 E10.05326
G1 X123.469 Y95.312 E10.07985
G1 X124 Y95.285 E10.10638
G0 F3600 X124.531 Y95.312
G1 F1800 X125.06 Y95.393 E10.13308
G1 X125.58 Y95.525 E10.15985
G1 X126.094 Y95.713 E10.18715
G1 X126.547 Y95.93 E10.21221
G1 X126.992 Y96.201 E10.2382
G1 X127.43 Y96.532 E10.26559
G1 X127.841 Y96.912 E10.29352
G1 X128.181 Y97.299 E10.31922
G1 X128.492 Y97.731 E10.34578
G1 X128.765 Y98.201 E10.37289
G1 X128.966 Y98.648 E10.39735
G1 X129.156 Y99.211 E10.42699
G1 X129.27 Y99.713 E10.45267
G1 X129.334 Y100.221 E10.47822
G1 X129.347 Y100.717 E10.50297
G1 X129.307 Y101.287 E10.53148
G1 X129.215 Y101.823 E10.55861
G1 X129.07 Y102.341 E10.58545
G1 X128.877 Y102.829 E10.61163
G1 X128.637 Y103.298 E10.63791
G1 X128.341 Y103.758 E10.6652
G1 X128.024 Y104.155 E10.69055
G1 X127.643 Y104.549 E10.71789
G1 X127.23 Y104.897 E10.74484
G1 X126.804 Y105.187 E10.77055
G1 X126.3 Y105.461 E10.79917
G1 X125.833 Y105.659 E10.82447
G1 X125.317 Y105.819 E10.85143
G1 X124.807 Y105.922 E10.87738
G1 X124.262 Y105.976 E10.90471
G1 X123.738 Y105.976 E10.93085
G1 X123.193 Y105.922 E10.95817
G1 X122.683 Y105.819 E10.98413
G1 X122.167 Y105.659 E11.01108
G1 X121.696 Y105.459 E11.03661
G1 X121.23 Y105.206 E11.06307
G1 X120.749 Y104.881 E11.09203
G1 X120.363 Y104.556 E11.1172
G1 X119.995 Y104.178 E11.14352
G1 X119.664 Y103.764 E11.16997
G1 X119.363 Y103.298 E11.19764
G1 X119.122 Y102.829 E11.22395
G1 X118.934 Y102.35 E11.24962
G1 X118.783 Y101.809 E11.27765
G1 X118.69 Y101.279 E11.30449
G1 X118.653 Y100.783 E11.32931
G1 X118.666 Y100.221 E11.35735
G1 X118.73 Y99.713 E11.3829
G1 X118.844 Y99.211 E11.40858
G1 X119.034 Y98.648 E11.43822
G1 X119.235 Y98.201 E11.46268
G1 X119.508 Y97.731 E11.48979
G1 X119.819 Y97.299 E11.51635
G1 X120.168 Y96.901 E11.54276
G1 X120.571 Y96.528 E11.57015
G1 X120.983 Y96.216 E11.59594
G1 X121.446 Y95.935 E11.62296
G1 X121.924 Y95.704 E11.64944
G1 X122.412 Y95.527 E11.67534
G1 X122.94 Y95.393 E11.70252
G1 X123.469 Y95.312 E11.72922
G1 X124 Y95.286 E11.75574
G1 X124.531 Y95.312 E11.78227
G0 F3600 X124.519 Y97.969
G1 F1800 X124.006 Y97.917 E11.80799
G1 X123.726 Y97.931 E11.82198
G1 X123.188 Y98.041 E11.84937
G1 X122.694 Y98.251 E11.87615
G1 X122.256 Y98.548 E11.90256
G1 X121.861 Y98.958 E11.93096
G1 X121.579 Y99.397 E11.95699
G1 X121.376 Y99.921 E11.98503
G1 X121.29 Y100.415 E12.01004
G1 X121.302 Y100.958 E12.03714
G1 X121.427 Y101.503 E12.06504
G1 X121.642 Y101.982 E12.09123
G1 X121.97 Y102.44 E12.11934
G1 X122.346 Y102.789 E12.14493
G1 X122.853 Y103.096 E12.1745
G1 X123.329 Y103.267 E12.19973
G1 X123.875 Y103.348 E12.22727
G1 X124.415 Y103.32 E12.25425
G1 X124.917 Y103.193 E12.28008
G1 X125.434 Y102.941 E12.30878
G1 X125.843 Y102.63 E12.33441
G1 X126.212 Y102.212 E12.36223
G1 X126.476 Y101.755 E12.38856
G1 X126.648 Y101.246 E12.41536
G1 X126.717 Y100.662 E12.4447
G1 X126.676 Y100.149 E12.47038
G1 X126.521 Y99.619 E12.49793
G1 X126.279 Y99.156 E12.52399
G1 X125.957 Y98.751 E12.5498
G1 X125.512 Y98.375 E12.57887
G1 X125.083 Y98.142 E12.60323
G1 X124.519 Y97.969 E12.63266
G0 F3600 X123.997 Y100.588
G1 F1800 X124.046 Y100.627 E12.63578
G1 X123.992 Y100.68 E12.63956
G1 X123.952 Y100.628 E12.64283
G1 X123.997 Y100.588 E12.64583
G0 F3600 X101.347 Y100.74
G1 F1800 X101.308 Y101.284 E12.67304
G1 X101.222 Y101.786 E12.69845
G1 X101.067 Y102.347 E12.72749
G1 X100.894 Y102.789 E12.75117
G1 X100.635 Y103.302 E12.77984
G1 X100.362 Y103.728 E12.80508
G1 X100.024 Y104.158 E12.83237
G1 X99.658 Y104.536 E12.85862
G1 X99.248 Y104.883 E12.88542
G1 X98.778 Y105.206 E12.91387
G1 X98.358 Y105.435 E12.93774
G1 X97.847 Y105.654 E12.96547
G1 X97.322 Y105.818 E12.99291
G1 X96.796 Y105.924 E13.01968
G1 X96.297 Y105.974 E13.0447
G1 X95.758 Y105.977 E13.07159
G1 X95.197 Y105.922 E13.09972
G1 X94.685 Y105.819 E13.12577
