;FLAVOR:Marlin
;TIME:3001
;Filament used: 3.24288m
;Layer height: 0.2
;MINX:69.335
;MINY:34.976
;MINZ:0.3
;MAXX:149.8
;MAXY:86.243
;MAXZ:8.1
;Generated with Cura_SteamEngine 4.13.1
M140 S60
M105
M190 S60
M104 S210
M105
M109 S210
M82 ;absolute extrusion mode
; Aquila X2 Custom Start G-code
G92 E0 ; Reset Extruder
G28 ; Home all axes
G1 Z2.0 F3000 ; Move Z Axis up little to prevent scratching of Heat Bed
G1 X0.1 Y20 Z0.3 F5000.0 ; Move to start position
G1 X0.1 Y200.0 Z0.3 F1500.0 E15 ; Draw the first line
G1 X0.4 Y200.0 Z0.3 F5000.0 ; Move to side a little
G1 X0.4 Y20 Z0.3 F1500.0 E30 ; Draw the second line
G92 E0 ; Reset Extruder
G1 Z2.0 F3000 ; Move Z Axis up little to prevent scratching of Heat Bed
G1 X5 Y20 Z0.3 F5000.0 ; Move over to prevent blob squish
G92 E0
G92 E0
G1 F2400 E-3
;LAYER_COUNT:40
;LAYER:0
M107
G0 F3600 X70.2 Y64.659 Z0.3
;TYPE:SUPPORT
G1 F2400 E0
G1 F1800 X76.864 Y64.668 E0.33247
G1 X97.079 Y64.668 E1.341
G1 X96.95 Y64.743 E1.34844
G1 X96.866 Y64.743 E1.35263
G1 X96.467 Y65.142 E1.38079
G1 X96.467 Y82.744 E2.25895
G1 X96.866 Y83.143 E2.2871
G1 X96.95 Y83.143 E2.2913
G1 X97.08 Y83.218 E2.29878
G1 X76.863 Y83.218 E3.30741
G1 X70.2 Y83.226 E3.63983
G1 X70.2 Y64.659 E4.56614
G0 F3600 X74.816 Y70.338
G1 F1800 X74.225 Y71.683 E4.63944
G1 X74.055 Y72.193 E4.66626
G1 X73.92 Y72.734 E4.69408
G1 X73.836 Y73.305 E4.72287
G1 X73.801 Y73.837 E4.74947
G1 X73.821 Y74.479 E4.78151
G1 X73.885 Y74.973 E4.80637
G1 X74.015 Y75.571 E4.8369
G1 X74.187 Y76.098 E4.86455
G1 X74.492 Y76.789 E4.90224
G1 X74.763 Y77.257 E4.92922
G1 X75.042 Y77.663 E4.9538
G1 X75.663 Y78.368 E5.00067
G1 X76.189 Y78.831 E5.03563
G1 X76.893 Y79.308 E5.07805
G1 X77.486 Y79.609 E5.11123
G1 X78.017 Y79.814 E5.13963
G1 X78.661 Y79.994 E5.17299
G1 X79.275 Y80.098 E5.20406
G1 X81.148 Y80.23 E5.29773
G1 X82.868 Y79.438 E5.39221
G1 X83.308 Y79.18 E5.41765
G1 X83.802 Y78.842 E5.44752
G1 X84.318 Y78.394 E5.48161
G1 X84.717 Y77.957 E5.51113
G1 X85.084 Y77.488 E5.54084
G1 X85.475 Y76.849 E5.57822
G1 X85.822 Y76.076 E5.62049
G1 X85.97 Y75.617 E5.64455
G1 X86.098 Y75.07 E5.67258
G1 X86.172 Y74.516 E5.70046
G1 X86.198 Y73.922 E5.73012
G1 X86.165 Y73.307 E5.76085
G1 X86.083 Y72.738 E5.78953
G1 X85.95 Y72.199 E5.81723
G1 X85.768 Y71.673 E5.845
G1 X85.453 Y70.991 E5.88248
G1 X85.195 Y70.561 E5.90749
G1 X84.782 Y69.997 E5.94237
G1 X84.442 Y69.623 E5.96759
G1 X83.938 Y69.152 E6.002
G1 X83.521 Y68.846 E6.02781
G1 X83.257 Y68.666 E6.04375
G1 X82.669 Y68.348 E6.0771
G1 X82.058 Y68.094 E6.11011
G1 X81.32 Y67.886 E6.14836
G1 X80.739 Y67.789 E6.17775
G1 X80.116 Y67.744 E6.20891
G1 X79.505 Y67.762 E6.23941
G1 X78.931 Y67.834 E6.26827
G1 X78.321 Y67.975 E6.29951
G1 X77.938 Y68.094 E6.31952
G1 X77.348 Y68.339 E6.35139
G1 X76.772 Y68.65 E6.38405
G1 X76.376 Y68.917 E6.40787
G1 X75.89 Y69.297 E6.43865
G1 X75.41 Y69.771 E6.47231
G1 X75.156 Y70.088 E6.49257
G1 X74.816 Y70.338 E6.51363
G0 F3600 X101.255 Y64.668
G1 F1800 X118.746 Y64.668 E7.38626
G1 X118.616 Y64.743 E7.39375
G1 X118.532 Y64.743 E7.39794
G1 X118.133 Y65.142 E7.42609
G1 X118.133 Y82.744 E8.30426
G1 X118.532 Y83.143 E8.33241
G1 X118.616 Y83.143 E8.3366
G1 X118.745 Y83.217 E8.34402
G1 X101.254 Y83.218 E9.21665
G1 X101.384 Y83.143 E9.22413
G1 X101.468 Y83.143 E9.22833
G1 X101.867 Y82.744 E9.25648
G1 X101.867 Y65.142 E10.13464
G1 X101.468 Y64.743 E10.1628
G1 X101.384 Y64.743 E10.16699
G1 X101.255 Y64.668 E10.17443
G0 F3600 X122.92 Y64.668
G1 F1800 X143.137 Y64.668 E11.18306
G1 X149.8 Y64.66 E11.51548
G1 X149.8 Y83.227 E12.44179
G1 X143.135 Y83.217 E12.77431
G1 X122.921 Y83.217 E13.78279
G1 X123.05 Y83.143 E13.79021
G1 X123.134 Y83.143 E13.7944
G1 X123.533 Y82.744 E13.82255
G1 X123.533 Y65.142 E14.70072
G1 X123.134 Y64.743 E14.72887
G1 X123.05 Y64.743 E14.73306
G1 X122.92 Y64.668 E14.74055
G0 F3600 X134.439 Y71.203
G1 F1800 X134.142 Y71.911 E14.77885
G1 X133.982 Y72.462 E14.80748
G1 X133.872 Y73.002 E14.83497
G1 X133.822 Y73.536 E14.86173
G1 X133.81 Y74.179 E14.89382
G1 X133.847 Y74.711 E14.92042
G1 X133.945 Y75.278 E14.94913
G1 X134.084 Y75.805 E14.97632
G1 X134.256 Y76.283 E15.00166
G1 X134.478 Y76.761 E15.02796
G1 X134.757 Y77.254 E15.05622
G1 X135.182 Y77.845 E15.09254
G1 X135.66 Y78.373 E15.12807
G1 X136.177 Y78.823 E15.16227
G1 X136.893 Y79.304 E15.2053
G1 X137.503 Y79.618 E15.23953
G1 X138.031 Y79.82 E15.26773
G1 X138.654 Y79.993 E15.29999
G1 X139.263 Y80.098 E15.33082
G1 X139.878 Y80.141 E15.36158
G1 X140.491 Y80.123 E15.39217
G1 X141.101 Y80.042 E15.42287
G1 X141.688 Y79.91 E15.45289
G1 X142.174 Y79.759 E15.47828
G1 X142.888 Y79.429 E15.51752
G1 X143.395 Y79.127 E15.54696
G1 X143.773 Y78.865 E15.56991
G1 X144.301 Y78.406 E15.60481
G1 X144.799 Y77.868 E15.64139
G1 X145.219 Y77.295 E15.67683
G1 X145.482 Y76.844 E15.70288
G1 X145.699 Y76.386 E15.72817
G1 X145.888 Y75.884 E15.75493
G1 X146.039 Y75.344 E15.7829
G1 X146.145 Y74.753 E15.81286
G1 X146.193 Y74.245 E15.83831
G1 X146.191 Y73.574 E15.87179
G1 X146.136 Y73.046 E15.89827
G1 X146.023 Y72.473 E15.92741
G1 X145.878 Y71.967 E15.95367
G1 X145.715 Y71.552 E15.97592
G1 X145.442 Y70.964 E16.00826
G1 X145.216 Y70.593 E16.02993
G1 X144.803 Y70.028 E16.06485
G1 X144.455 Y69.629 E16.09126
G1 X143.949 Y69.156 E16.12582
G1 X143.583 Y68.892 E16.14833
G1 X143.073 Y68.557 E16.17878
G1 X142.49 Y68.266 E16.21128
G1 X141.976 Y68.07 E16.23873
G1 X141.297 Y67.882 E16.27388
G1 X140.748 Y67.785 E16.30169
G1 X140.115 Y67.744 E16.33334
G1 X139.52 Y67.762 E16.36304
G1 X138.904 Y67.839 E16.39401
G1 X138.337 Y67.97 E16.42304
G1 X137.826 Y68.128 E16.44973
G1 X137.172 Y68.423 E16.48552
G1 X136.592 Y68.762 E16.51904
G1 X136.341 Y68.941 E16.53442
G1 X135.906 Y69.284 E16.56205
G1 X135.422 Y69.762 E16.59599
G1 X135.222 Y69.995 E16.61131
G1 X134.837 Y70.509 E16.64335
G1 X134.439 Y71.203 E16.68326
G0 F3600 X149.8 Y83.227
G1 F1800 X143.135 Y83.217 E17.01578
G1 X123.409 Y83.217 E17.99992
G1 X123.307 Y82.97 E18.01325
G1 X123.533 Y82.745 E18.02916
G1 X123.533 Y80.589 E18.13672
G1 X143.131 Y80.589 E19.11447
G1 X147.172 Y80.595 E19.31608
G1 X147.172 Y67.291 E19.97982
G1 X143.135 Y67.296 E20.18122
G1 X123.533 Y67.296 E21.15917
G1 X123.533 Y65.141 E21.26669
G1 X123.306 Y64.915 E21.28267
G1 X123.408 Y64.668 E21.296
G1 X143.137 Y64.668 E22.28028
G1 X149.8 Y64.66 E22.6127
G1 X149.8 Y83.227 E23.53901
G0 F3600 X135.252 Y77.922
G1 F1800 X123.533 Y77.922 E24.12368
G1 X123.533 Y75.255 E24.25673
G1 X133.94 Y75.255 E24.77594
G1 X133.945 Y75.282 E24.77731
G1 X134.081 Y75.796 E24.80384
G1 X134.258 Y76.287 E24.82987
G1 X134.477 Y76.76 E24.85588
G1 X134.756 Y77.253 E24.88414
G1 X135.183 Y77.846 E24.9206
G1 X135.252 Y77.922 E24.92572
G0 F3600 X133.948 Y72.63
G1 F1800 X123.533 Y72.63 E25.44533
G1 X123.533 Y69.963 E25.57838
G1 X135.249 Y69.963 E26.1629
G1 X135.222 Y69.995 E26.16498
G1 X134.836 Y70.51 E26.19709
G1 X134.437 Y71.205 E26.23708
G1 X134.143 Y71.906 E26.275
G1 X133.982 Y72.461 E26.30383
G1 X133.948 Y72.63 E26.31243
G0 F3600 X118.133 Y72.63
G1 F1800 X101.867 Y72.63 E27.12395
G1 X101.867 Y69.963 E27.257
G1 X118.133 Y69.963 E28.06852
G1 X118.133 Y72.63 E28.20157
G0 F3600 X118.133 Y77.922
G1 F1800 X101.867 Y77.923 E29.01309
G1 X101.867 Y75.256 E29.14614
G1 X118.133 Y75.255 E29.95766
G1 X118.133 Y77.922 E30.09072
G0 F3600 X118.359 Y82.97
G1 F1800 X118.257 Y83.217 E30.10405
G1 X101.742 Y83.218 E30.92798
G1 X101.64 Y82.971 E30.94132
G1 X101.867 Y82.745 E30.9573
G1 X101.867 Y80.59 E31.06481
G1 X118.133 Y80.589 E31.87633
G1 X118.133 Y82.745 E31.98389
G1 X118.359 Y82.97 E31.9998
G0 F3600 X118.133 Y67.296
G1 F1800 X101.867 Y67.296 E32.81131
G1 X101.867 Y65.141 E32.91883
G1 X101.64 Y64.915 E32.93481
G1 X101.742 Y64.668 E32.94814
G1 X118.258 Y64.668 E33.77213
G1 X118.36 Y64.915 E33.78546
G1 X118.133 Y65.141 E33.80144
G1 X118.133 Y67.296 E33.90895
G0 F3600 X96.467 Y72.63
G1 F1800 X86.057 Y72.63 E34.42831
G1 X85.95 Y72.199 E34.45046
G1 X85.772 Y71.682 E34.47774
G1 X85.453 Y70.991 E34.51571
G1 X85.19 Y70.553 E34.5412
G1 X84.782 Y69.997 E34.57561
G1 X84.751 Y69.963 E34.5779
G1 X96.467 Y69.963 E35.16242
G1 X96.467 Y72.63 E35.29548
G0 F3600 X96.467 Y77.923
G1 F1800 X84.744 Y77.923 E35.88034
G1 X85.081 Y77.493 E35.90759
G1 X85.477 Y76.846 E35.94544
G1 X85.823 Y76.076 E35.98756
G1 X85.968 Y75.625 E36.01119
G1 X86.054 Y75.256 E36.03009
G1 X96.467 Y75.256 E36.5496
G1 X96.467 Y77.923 E36.68266
G0 F3600 X96.694 Y82.971
G1 F1800 X96.592 Y83.218 E36.69599
G1 X76.863 Y83.218 E37.68027
G1 X70.2 Y83.226 E38.01269
G1 X70.2 Y64.659 E38.939
G1 X76.864 Y64.668 E39.27147
G1 X96.592 Y64.668 E40.25571
G1 X96.694 Y64.915 E40.26904
G1 X96.467 Y65.141 E40.28502
G1 X96.467 Y67.296 E40.39253
G1 X76.867 Y67.296 E41.37038
G1 X72.828 Y67.291 E41.57189
G1 X72.828 Y80.595 E42.23563
G1 X76.865 Y80.59 E42.43703
G1 X96.467 Y80.59 E43.41498
G1 X96.467 Y82.745 E43.52249
G1 X96.694 Y82.971 E43.53847
G1 F2400 E40.53847
;MESH:TapeMitre-Body.stl
G0 F3600 X96.694 Y64.433
G0 X96.694 Y63.348
G0 X105.616 Y57.302
;TYPE:WALL-INNER
G1 F2400 E43.53847
G1 F1800 X105.922 Y58.043 E43.57847
G1 X121.925 Y58.043 E44.37686
G1 X141.051 Y38.917 E45.72631
G1 X140.745 Y38.176 E45.7663
G1 X124.741 Y38.176 E46.56475
G1 X105.616 Y57.302 E47.91415
G0 F3600 X122.931 Y62.043
G1 F1800 X149.4 Y62.043 E49.2347
G1 X149.4 Y63.16 E49.29043
G1 X143.136 Y63.168 E49.60294
G1 X76.865 Y63.168 E52.90921
G1 X70.6 Y63.16 E53.22177
G1 X70.6 Y62.043 E53.2775
G1 X96.916 Y62.043 E54.59041
G1 X123.581 Y35.376 E56.47184
G1 X148.07 Y35.376 E57.6936
G1 X148.552 Y35.376 E57.71765
G1 X148.212 Y35.716 E57.73053
G1 X122.625 Y61.302 E59.5358
G1 X122.931 Y62.043 E59.57579
G0 F3600 X123.199 Y61.643
;TYPE:WALL-OUTER
G1 F1800 X149.8 Y61.643 E60.90292
G1 X149.8 Y63.56 E60.99856
G1 X143.136 Y63.568 E61.33103
G1 X76.864 Y63.568 E64.63735
G1 X70.2 Y63.559 E64.96982
G1 X70.2 Y61.643 E65.06541
G1 X96.75 Y61.643 E66.39
G1 X123.415 Y34.976 E68.27143
G1 X149.036 Y34.976 E69.54967
G1 X149.518 Y34.976 E69.57371
G1 X149.178 Y35.316 E69.58659
G1 X123.097 Y61.396 E71.42671
G1 X123.199 Y61.643 E71.44005
G0 F3600 X123.399 Y61.643
G0 X123.399 Y61.943
G0 X106.034 Y57.876
G0 X106.088 Y57.396
G1 F1800 X106.19 Y57.643 E71.45338
G1 X121.759 Y57.643 E72.23012
G1 X140.579 Y38.823 E73.55797
G1 X140.477 Y38.576 E73.5713
G1 X124.907 Y38.576 E74.34809
G1 X106.088 Y57.396 E75.67591
G0 F3600 X106.164 Y57.581
G0 X105.661 Y58.433
;TYPE:SKIN
G1 F1800 X122.087 Y58.433 E76.49541
G1 X141.511 Y39.009 E77.86588
G1 X141.006 Y37.786 E77.93189
G1 X124.579 Y37.786 E78.75144
G1 X105.156 Y57.21 E80.12187
G1 X105.661 Y58.433 E80.18788
G0 F3600 X97.078 Y62.433
G1 F1800 X123.741 Y35.766 E82.06924
G1 X147.612 Y35.766 E83.26017
G1 X122.165 Y61.21 E85.05549
G1 X122.67 Y62.433 E85.1215
G1 X149.01 Y62.433 E86.43561
G1 X149.01 Y62.77 E86.45242
G1 X143.136 Y62.778 E86.74548
G1 X76.865 Y62.778 E90.05175
G1 X70.99 Y62.77 E90.34486
G1 X70.99 Y62.433 E90.36167
G1 X97.078 Y62.433 E91.6632
G0 F3600 X97.417 Y62.344
G1 F1800 X97.67 Y62.598 E91.68109
G0 F3600 X97.7 Y62.062
G1 F1800 X98.236 Y62.598 E91.71891
G0 F3600 X98.801 Y62.598
G1 F1800 X97.983 Y61.779 E91.77666
G0 F3600 X98.265 Y61.496
G1 F1800 X99.367 Y62.598 E91.85441
G0 F3600 X99.933 Y62.598
G1 F1800 X98.548 Y61.213 E91.95213
G0 F3600 X98.831 Y60.93
G1 F1800 X100.498 Y62.598 E92.06978
G0 F3600 X101.064 Y62.598
G1 F1800 X99.114 Y60.647 E92.2074
G0 F3600 X99.397 Y60.364
G1 F1800 X101.63 Y62.598 E92.36498
G0 F3600 X102.196 Y62.598
G1 F1800 X99.68 Y60.082 E92.5425
G0 F3600 X99.962 Y59.799
G1 F1800 X102.761 Y62.598 E92.73999
G0 F3600 X103.327 Y62.598
G1 F1800 X100.245 Y59.516 E92.95744
G0 F3600 X100.528 Y59.233
G1 F1800 X103.893 Y62.598 E93.19486
G0 F3600 X104.458 Y62.598
G1 F1800 X100.811 Y58.95 E93.45221
G0 F3600 X101.094 Y58.667
G1 F1800 X105.024 Y62.598 E93.72952
G0 F3600 X105.59 Y62.598
G1 F1800 X101.377 Y58.385 E94.02677
G0 F3600 X101.66 Y58.102
G1 F1800 X106.155 Y62.598 E94.34396
G0 F3600 X106.721 Y62.598
G1 F1800 X101.942 Y57.819 E94.68114
G0 F3600 X102.225 Y57.536
G1 F1800 X107.287 Y62.598 E95.03829
G0 F3600 X107.852 Y62.598
G1 F1800 X102.508 Y57.253 E95.41538
G0 F3600 X102.791 Y56.97
G1 F1800 X108.418 Y62.598 E95.81243
G0 F3600 X108.984 Y62.598
G1 F1800 X103.074 Y56.688 E96.22941
G0 F3600 X103.357 Y56.405
G1 F1800 X105.521 Y58.569 E96.38209
G1 X105.565 Y58.613
G1 X109.549 Y62.598 E96.66322
G0 F3600 X110.115 Y62.598
G1 F1800 X106.131 Y58.613 E96.94435
G0 F3600 X106.696 Y58.613
G1 F1800 X110.681 Y62.598 E97.22551
G0 F3600 X111.246 Y62.598
G1 F1800 X107.262 Y58.613 E97.50664
G0 F3600 X107.828 Y58.613
G1 F1800 X111.812 Y62.598 E97.78777
G0 F3600 X112.378 Y62.598
G1 F1800 X108.393 Y58.613 E98.06893
G0 F3600 X108.959 Y58.613
G1 F1800 X112.944 Y62.598 E98.35009
G0 F3600 X113.509 Y62.598
G1 F1800 X109.525 Y58.613 E98.63122
G0 F3600 X110.09 Y58.613
G1 F1800 X114.075 Y62.598 E98.91238
G0 F3600 X114.641 Y62.598
G1 F1800 X110.656 Y58.613 E99.19355
G0 F3600 X111.222 Y58.613
G1 F1800 X115.206 Y62.598 E99.47467
G0 F3600 X115.772 Y62.598
G1 F1800 X111.787 Y58.613 E99.75584
G0 F3600 X112.353 Y58.613
G1 F1800 X116.338 Y62.598 E100.037
G0 F3600 X116.903 Y62.598
G1 F1800 X112.919 Y58.613 E100.31813
G0 F3600 X113.484 Y58.613
G1 F1800 X117.469 Y62.598 E100.59929
G0 F3600 X118.035 Y62.598
G1 F1800 X114.05 Y58.613 E100.88046
G0 F3600 X114.616 Y58.613
G1 F1800 X118.6 Y62.598 E101.16158
G0 F3600 X119.166 Y62.598
G1 F1800 X115.182 Y58.613 E101.44271
G0 F3600 X115.747 Y58.613
G1 F1800 X119.732 Y62.598 E101.72387
G0 F3600 X120.297 Y62.598
G1 F1800 X116.313 Y58.613 E102.005
G0 F3600 X116.879 Y58.613
G1 F1800 X120.863 Y62.598 E102.28613
G0 F3600 X121.429 Y62.598
G1 F1800 X117.444 Y58.613 E102.56729
G0 F3600 X118.01 Y58.613
G1 F1800 X121.995 Y62.598 E102.84846
G0 F3600 X122.529 Y62.566
G1 F1800 X118.576 Y58.613 E103.12736
G0 F3600 X119.141 Y58.613
G1 F1800 X122.13 Y61.602 E103.33825
G0 F3600 X122.106 Y61.012
G1 F1800 X119.707 Y58.613 E103.50752
G0 F3600 X120.273 Y58.613
G1 F1800 X122.389 Y60.729 E103.65681
G0 F3600 X122.672 Y60.447
G1 F1800 X120.838 Y58.613 E103.78621
G0 F3600 X121.404 Y58.613
G1 F1800 X122.955 Y60.164 E103.89564
G0 F3600 X123.238 Y59.881
G1 F1800 X121.97 Y58.613 E103.98511
G0 F3600 X122.348 Y58.426
G1 F1800 X123.52 Y59.598 E104.0678
G0 F3600 X123.803 Y59.315
G1 F1800 X122.631 Y58.143 E104.15049
G0 F3600 X122.914 Y57.86
G1 F1800 X124.086 Y59.032 E104.23318
G0 F3600 X124.369 Y58.749
G1 F1800 X123.197 Y57.577 E104.31587
G0 F3600 X123.479 Y57.294
G1 F1800 X124.652 Y58.467 E104.39863
G0 F3600 X124.935 Y58.184
G1 F1800 X123.762 Y57.011 E104.48139
G0 F3600 X124.045 Y56.729
G1 F1800 X125.218 Y57.901 E104.56412
G0 F3600 X125.5 Y57.618
G1 F1800 X124.328 Y56.446 E104.64681
G0 F3600 X124.611 Y56.163
G1 F1800 X125.783 Y57.335 E104.7295
G0 F3600 X126.066 Y57.052
G1 F1800 X124.894 Y55.88 E104.81219
G0 F3600 X125.176 Y55.597
G1 F1800 X126.349 Y56.77 E104.89495
G0 F3600 X126.632 Y56.487
G1 F1800 X125.459 Y55.314 E104.97771
G0 F3600 X125.742 Y55.031
G1 F1800 X126.915 Y56.204 E105.06048
G0 F3600 X127.197 Y55.921
G1 F1800 X126.025 Y54.749 E105.14317
G0 F3600 X126.308 Y54.466
G1 F1800 X127.48 Y55.638 E105.22586
G0 F3600 X127.763 Y55.355
G1 F1800 X126.591 Y54.183 E105.30855
G0 F3600 X126.874 Y53.9
G1 F1800 X128.046 Y55.073 E105.39127
G0 F3600 X128.329 Y54.79
G1 F1800 X127.156 Y53.617 E105.47404
G0 F3600 X127.439 Y53.334
G1 F1800 X128.612 Y54.507 E105.5568
G0 F3600 X128.894 Y54.224
G1 F1800 X127.722 Y53.052 E105.63949
G0 F3600 X128.005 Y52.769
G1 F1800 X129.177 Y53.941 E105.72218
G0 F3600 X129.46 Y53.658
G1 F1800 X128.288 Y52.486 E105.80487
G0 F3600 X128.571 Y52.203
G1 F1800 X129.743 Y53.375 E105.88756
G0 F3600 X130.026 Y53.093
G1 F1800 X128.853 Y51.92 E105.97032
G0 F3600 X129.136 Y51.637
G1 F1800 X130.309 Y52.81 E106.05308
G0 F3600 X130.592 Y52.528
G1 F1800 X129.419 Y51.355 E106.13585
G0 F3600 X129.702 Y51.072
G1 F1800 X130.875 Y52.245 E106.21861
G0 F3600 X131.158 Y51.962
G1 F1800 X129.985 Y50.789 E106.30137
G0 F3600 X130.268 Y50.506
G1 F1800 X131.441 Y51.679 E106.38413
G0 F3600 X131.724 Y51.396
G1 F1800 X130.551 Y50.223 E106.46689
G0 F3600 X130.833 Y49.94
G1 F1800 X132.006 Y51.113 E106.54965
G0 F3600 X132.289 Y50.831
G1 F1800 X131.116 Y49.657 E106.63245
G0 F3600 X131.399 Y49.375
G1 F1800 X132.572 Y50.548 E106.71521
