;FLAVOR:Marlin
;TIME:7627
;Filament used: 6.32831m
;Layer height: 0.15
;MINX:48.51
;MINY:26.4
;MINZ:0.3
;MAXX:171.489
;MAXY:193.6
;MAXZ:3
;Generated with Cura_SteamEngine main
M140 S60
M105
M190 S60
M104 S210
M105
M109 S210
M82 ;absolute extrusion mode
; Aquila X2 Custom Start G-code
G92 E0 ; Reset Extruder
G28 ; Home all axes
M420 S1
G1 Z2.0 F3000 ; Move Z Axis up little to prevent scratching of Heat Bed
G1 X0.1 Y20 Z0.3 F5000.0 ; Move to start position
G1 X0.1 Y200.0 Z0.3 F1500.0 E15 ; Draw the first line
G1 X0.4 Y200.0 Z0.3 F5000.0 ; Move to side a little
G1 X0.4 Y20 Z0.3 F1500.0 E30 ; Draw the second line
G92 E0 ; Reset Extruder
G1 Z2.0 F3000 ; Move Z Axis up little to prevent scratching of Heat Bed
G1 X5 Y20 Z0.3 F5000.0 ; Move over to prevent blob squish
G92 E0
G92 E0
G1 F2400 E-5
;LAYER_COUNT:19
;LAYER:0
M107
G0 F3600 X52.708 Y28.319 Z0.3
G0 X51.411 Y31.864
;TYPE:SKIRT
G1 F2400 E0
G1 F1800 X52.492 Y28.809 E0.16167
G1 X52.708 Y28.319 E0.18839
G1 X52.995 Y27.865 E0.21519
G1 X53.345 Y27.459 E0.24193
G1 X53.752 Y27.11 E0.26868
G1 X54.207 Y26.826 E0.29544
G1 X54.699 Y26.611 E0.32223
G1 X55.217 Y26.473 E0.34897
G1 X55.888 Y26.4 E0.38264
G1 X66.992 Y26.4 E0.93662
G1 X67.696 Y26.41 E0.97175
G1 X68.367 Y26.47 E1.00536
G1 X71.549 Y27.399 E1.17074
G1 X74.164 Y28.079 E1.30554
G1 X76.829 Y28.694 E1.44199
G1 X79.528 Y29.235 E1.57932
G1 X82.192 Y29.692 E1.71417
G1 X84.888 Y30.077 E1.85004
G1 X87.603 Y30.386 E1.98637
G1 X90.321 Y30.617 E2.12246
G1 X93.013 Y30.77 E2.25698
G1 X95.78 Y30.849 E2.39508
G1 X98.475 Y30.849 E2.52954
G1 X101.237 Y30.772 E2.66739
G1 X103.934 Y30.619 E2.80216
G1 X106.65 Y30.389 E2.93814
G1 X109.367 Y30.08 E3.07457
G1 X112.075 Y29.695 E3.21103
G1 X114.739 Y29.24 E3.34586
G1 X117.403 Y28.707 E3.4814
G1 X120.07 Y28.093 E3.61794
G1 X122.719 Y27.403 E3.75451
G1 X125.616 Y26.558 E3.90506
G1 X126.273 Y26.419 E3.93857
G1 X127.412 Y26.4 E3.9954
G1 X137.745 Y26.4 E4.51092
G1 X138.666 Y26.415 E4.55687
G1 X139.996 Y26.585 E4.62377
G1 X142.743 Y26.898 E4.7617
G1 X145.456 Y27.128 E4.89754
G1 X148.152 Y27.281 E5.03226
G1 X150.916 Y27.359 E5.17021
G1 X153.611 Y27.359 E5.30466
G1 X156.376 Y27.281 E5.44267
G1 X159.05 Y27.129 E5.57629
G1 X162.703 Y26.802 E5.75926
G1 X163.723 Y26.691 E5.81045
G1 X164.259 Y26.673 E5.83721
G1 X164.792 Y26.735 E5.86398
G1 X165.309 Y26.875 E5.8907
G1 X165.8 Y27.09 E5.91744
G1 X166.254 Y27.377 E5.94424
G1 X166.66 Y27.727 E5.97098
G1 X167.01 Y28.134 E5.99776
G1 X167.295 Y28.588 E6.02451
G1 X167.509 Y29.079 E6.05123
G1 X167.649 Y29.597 E6.078
G1 X167.711 Y30.204 E6.10844
G1 X167.722 Y30.818 E6.13908
G1 X167.722 Y35.851 E6.39018
G1 X167.761 Y38.632 E6.52893
G1 X167.877 Y41.36 E6.66516
G1 X168.071 Y44.089 E6.80165
G1 X168.336 Y46.766 E6.93586
G1 X168.686 Y49.505 E7.07362
G1 X169.107 Y52.183 E7.20887
G1 X169.607 Y54.869 E7.34517
G1 X170.168 Y57.48 E7.47841
G1 X170.829 Y60.178 E7.617
G1 X171.116 Y61.215 E7.67068
G1 X171.362 Y62.157 E7.71925
G1 X171.459 Y62.685 E7.74603
G1 X171.489 Y63.397 E7.78158
G1 X171.489 Y73.082 E8.26477
G1 X171.478 Y73.789 E8.30005
G1 X171.419 Y74.434 E8.33236
G1 X171.182 Y75.297 E8.37701
G1 X170.483 Y77.992 E8.51591
G1 X169.872 Y80.653 E8.65213
G1 X169.332 Y83.353 E8.7895
G1 X168.879 Y86.003 E8.92362
G1 X168.497 Y88.695 E9.05927
G1 X168.189 Y91.417 E9.19594
G1 X167.96 Y94.136 E9.33207
G1 X167.809 Y96.835 E9.46694
G1 X167.723 Y100.916 E9.67059
G1 X167.722 Y130.781 E11.16056
G1 X167.761 Y133.562 E11.29931
G1 X167.877 Y136.291 E11.43559
G1 X168.071 Y139.02 E11.57208
G1 X168.336 Y141.694 E11.70614
G1 X168.683 Y144.406 E11.84255
G1 X169.112 Y147.142 E11.98071
G1 X169.602 Y149.781 E12.11462
G1 X170.172 Y152.438 E12.2502
G1 X170.829 Y155.111 E12.38752
G1 X171.117 Y156.154 E12.44151
G1 X171.362 Y157.091 E12.48983
G1 X171.459 Y157.619 E12.51661
G1 X171.489 Y158.33 E12.55211
G1 X171.489 Y167.996 E13.03435
G1 X171.479 Y168.712 E13.07008
G1 X171.421 Y169.358 E13.10243
G1 X171.025 Y170.795 E13.1768
G1 X170.321 Y173.472 E13.3149
G1 X169.692 Y176.178 E13.4535
G1 X169.159 Y178.802 E13.58708
G1 X168.693 Y181.488 E13.72309
G1 X168.299 Y184.204 E13.86001
G1 X167.987 Y186.891 E13.99497
G1 X167.703 Y190.246 E14.16295
G1 X167.625 Y190.777 E14.18972
G1 X167.469 Y191.29 E14.21647
G1 X167.239 Y191.774 E14.24321
G1 X166.939 Y192.219 E14.26998
G1 X166.576 Y192.614 E14.29675
G1 X166.159 Y192.951 E14.3235
G1 X165.696 Y193.223 E14.35029
G1 X165.199 Y193.422 E14.377
G1 X164.677 Y193.545 E14.40375
G1 X164.096 Y193.6 E14.43287
G1 X153.009 Y193.6 E14.986
G1 X152.305 Y193.59 E15.02113
G1 X151.634 Y193.53 E15.05474
G1 X148.452 Y192.601 E15.22011
G1 X145.834 Y191.92 E15.35507
G1 X143.172 Y191.306 E15.49137
G1 X140.473 Y190.765 E15.6287
G1 X137.809 Y190.308 E15.76355
G1 X135.113 Y189.923 E15.89942
G1 X132.398 Y189.614 E16.03574
G1 X129.68 Y189.383 E16.17183
G1 X126.988 Y189.23 E16.30636
G1 X124.221 Y189.151 E16.44446
G1 X121.526 Y189.151 E16.57891
G1 X118.764 Y189.228 E16.71676
G1 X116.067 Y189.381 E16.85153
G1 X113.351 Y189.611 E16.98752
G1 X110.634 Y189.92 E17.12395
G1 X107.926 Y190.305 E17.26041
G1 X105.262 Y190.76 E17.39524
G1 X102.598 Y191.293 E17.53078
G1 X99.931 Y191.907 E17.66732
G1 X97.281 Y192.597 E17.80393
G1 X94.384 Y193.442 E17.95449
G1 X93.726 Y193.581 E17.98804
G1 X92.588 Y193.6 E18.04482
G1 X82.259 Y193.6 E18.56014
G1 X81.339 Y193.586 E18.60604
G1 X79.997 Y193.414 E18.67355
G1 X77.271 Y193.103 E18.81043
G1 X74.552 Y192.872 E18.94657
G1 X71.86 Y192.719 E19.08109
G1 X69.095 Y192.641 E19.21909
G1 X66.401 Y192.641 E19.3535
G1 X63.632 Y192.719 E19.4917
G1 X60.965 Y192.87 E19.62497
G1 X57.324 Y193.195 E19.80734
G1 X56.277 Y193.309 E19.85988
G1 X55.741 Y193.327 E19.88664
G1 X55.208 Y193.265 E19.91341
G1 X54.691 Y193.125 E19.94013
G1 X54.2 Y192.909 E19.96689
G1 X53.746 Y192.623 E19.99366
G1 X53.34 Y192.273 E20.02041
G1 X52.99 Y191.866 E20.04719
G1 X52.705 Y191.412 E20.07393
G1 X52.491 Y190.921 E20.10065
G1 X52.315 Y190.269 E20.13434
G1 X52.098 Y187.592 E20.26834
G1 X51.797 Y184.837 E20.4066
G1 X51.427 Y182.162 E20.54133
G1 X50.978 Y179.477 E20.67715
G1 X50.445 Y176.76 E20.81528
G1 X49.853 Y174.142 E20.94919
G1 X49.18 Y171.509 E21.08478
G1 X48.655 Y169.647 E21.18129
G1 X48.548 Y169.121 E21.20807
G1 X48.51 Y168.336 E21.24728
G1 X48.51 Y158.651 E21.73047
G1 X48.522 Y157.932 E21.76635
G1 X48.58 Y157.292 E21.79841
G1 X48.822 Y156.414 E21.84384
G1 X49.503 Y153.797 E21.97875
G1 X50.125 Y151.088 E22.11742
G1 X50.658 Y148.43 E22.25267
G1 X51.112 Y145.776 E22.387
G1 X51.499 Y143.059 E22.52392
G1 X51.807 Y140.348 E22.66005
G1 X52.037 Y137.63 E22.79613
G1 X52.189 Y134.93 E22.93105
G1 X52.277 Y130.808 E23.13674
G1 X52.278 Y77.489 E25.79684
G1 X52.238 Y74.685 E25.93674
G1 X52.123 Y71.98 E26.07182
G1 X51.929 Y69.25 E26.20836
G1 X51.664 Y66.574 E26.34252
G1 X51.317 Y63.863 E26.47888
G1 X50.888 Y61.126 E26.61709
G1 X50.397 Y58.485 E26.75111
G1 X49.821 Y55.813 E26.88748
G1 X49.177 Y53.181 E27.02267
G1 X48.875 Y52.087 E27.07929
G1 X48.638 Y51.185 E27.12582
G1 X48.541 Y50.657 E27.1526
G1 X48.51 Y49.937 E27.18855
G1 X48.51 Y40.251 E27.67179
G1 X48.521 Y39.542 E27.70717
G1 X48.57 Y39.008 E27.73392
G1 X48.723 Y38.381 E27.76612
G1 X49.347 Y36.965 E27.84332
G1 X50.423 Y34.411 E27.98158
G1 X51.411 Y31.864 E28.11788
G1 F2400 E23.11788
G0 F3600 X48.91 Y40.257
G1 F2400 E28.11788
G1 F1800 X48.921 Y39.548 E28.15326
G1 X48.969 Y39.045 E28.17846
G1 X49.115 Y38.483 E28.20743
G1 X49.728 Y37.091 E28.28332
G1 X50.788 Y34.575 E28.41953
G1 X51.786 Y32.006 E28.55703
G1 X52.869 Y28.943 E28.71911
G1 X53.075 Y28.481 E28.74435
G1 X53.351 Y28.057 E28.76959
G1 X53.69 Y27.682 E28.79481
G1 X54.084 Y27.366 E28.82
G1 X54.523 Y27.115 E28.84523
G1 X54.996 Y26.936 E28.87047
G1 X55.491 Y26.834 E28.89568
G1 X56.122 Y26.801 E28.9272
G1 X66.986 Y26.8 E29.46921
G1 X67.69 Y26.81 E29.50434
G1 X68.298 Y26.867 E29.5348
G1 X71.441 Y27.784 E29.69815
G1 X74.074 Y28.469 E29.83388
G1 X76.74 Y29.084 E29.97038
G1 X79.453 Y29.627 E30.10842
G1 X82.139 Y30.089 E30.24439
G1 X84.853 Y30.476 E30.38116
G1 X87.56 Y30.784 E30.51708
G1 X90.265 Y31.014 E30.65252
G1 X93.013 Y31.17 E30.78984
G1 X95.769 Y31.249 E30.9274
G1 X98.487 Y31.249 E31.063
G1 X101.236 Y31.172 E31.2002
G1 X103.955 Y31.018 E31.33607
G1 X106.693 Y30.786 E31.47316
G1 X109.436 Y30.475 E31.61088
G1 X112.122 Y30.093 E31.74624
G1 X114.813 Y29.632 E31.88245
G1 X117.506 Y29.094 E32.01946
G1 X120.156 Y28.484 E32.15512
G1 X122.832 Y27.787 E32.29308
G1 X125.728 Y26.942 E32.44359
G1 X126.323 Y26.818 E32.47391
G1 X127.418 Y26.8 E32.52855
G1 X137.739 Y26.8 E33.04347
G1 X138.637 Y26.815 E33.08828
G1 X139.977 Y26.986 E33.15567
G1 X142.666 Y27.292 E33.29069
G1 X145.435 Y27.527 E33.42933
G1 X148.152 Y27.681 E33.5651
G1 X150.905 Y27.759 E33.70251
G1 X153.622 Y27.759 E33.83806
G1 X156.375 Y27.681 E33.97546
G1 X159.105 Y27.526 E34.11188
G1 X162.732 Y27.201 E34.29356
G1 X163.766 Y27.089 E34.34544
G1 X164.271 Y27.074 E34.37065
G1 X164.773 Y27.139 E34.3959
G1 X165.258 Y27.282 E34.42113
G1 X165.714 Y27.5 E34.44635
G1 X166.13 Y27.787 E34.47156
G1 X166.496 Y28.136 E34.49679
G1 X166.803 Y28.538 E34.52203
G1 X167.042 Y28.983 E34.54723
G1 X167.208 Y29.461 E34.57247
G1 X167.307 Y30.016 E34.6006
G1 X167.322 Y30.818 E34.64062
G1 X167.322 Y35.857 E34.89201
G1 X167.362 Y38.654 E35.03157
G1 X167.477 Y41.371 E35.16724
G1 X167.672 Y44.117 E35.30459
G1 X167.94 Y46.823 E35.44025
G1 X168.288 Y49.546 E35.57721
G1 X168.713 Y52.247 E35.71362
G1 X169.216 Y54.955 E35.85103
G1 X169.788 Y57.612 E35.98663
G1 X170.433 Y60.244 E36.12182
G1 X170.729 Y61.316 E36.17731
G1 X170.975 Y62.258 E36.22588
G1 X171.088 Y63.039 E36.26525
G1 X171.089 Y73.076 E36.766
G1 X171.078 Y73.783 E36.80127
G1 X171.022 Y74.366 E36.83049
G1 X170.795 Y75.196 E36.87342
G1 X170.094 Y77.899 E37.01274
G1 X169.484 Y80.558 E37.14884
G1 X168.94 Y83.279 E37.28728
G1 X168.482 Y85.952 E37.42258
G1 X168.103 Y88.631 E37.55757
G1 X167.792 Y91.374 E37.69529
G1 X167.561 Y94.113 E37.83243
G1 X167.409 Y96.834 E37.96839
G1 X167.323 Y100.888 E38.17069
G1 X167.322 Y130.787 E39.66236
G1 X167.362 Y133.585 E39.80196
G1 X167.477 Y136.302 E39.93764
G1 X167.672 Y139.048 E40.07498
G1 X167.94 Y141.751 E40.2105
G1 X168.289 Y144.482 E40.34785
G1 X168.711 Y147.171 E40.48365
G1 X169.212 Y149.866 E40.62041
G1 X169.779 Y152.513 E40.75546
G1 X170.444 Y155.217 E40.89439
G1 X170.73 Y156.256 E40.94815
G1 X170.975 Y157.193 E40.99647
G1 X171.088 Y157.973 E41.03579
G1 X171.089 Y167.991 E41.53559
G1 X171.079 Y168.707 E41.57131
G1 X171.024 Y169.295 E41.60078
G1 X170.628 Y170.731 E41.67509
G1 X169.93 Y173.386 E41.81205
G1 X169.304 Y176.081 E41.95009
G1 X168.767 Y178.726 E42.08474
G1 X168.296 Y181.434 E42.22187
G1 X167.904 Y184.137 E42.35813
G1 X167.586 Y186.877 E42.49575
G1 X167.332 Y189.826 E42.64342
G1 X167.304 Y190.218 E42.66303
G1 X167.228 Y190.718 E42.68826
G1 X167.075 Y191.2 E42.71349
G1 X166.847 Y191.651 E42.7387
G1 X166.551 Y192.061 E42.76393
G1 X166.195 Y192.419 E42.78912
G1 X165.786 Y192.717 E42.81437
G1 X165.336 Y192.947 E42.83958
G1 X164.855 Y193.103 E42.86481
G1 X164.119 Y193.2 E42.90184
G1 X153.015 Y193.2 E43.45582
G1 X152.311 Y193.19 E43.49095
G1 X151.703 Y193.133 E43.52142
G1 X148.56 Y192.216 E43.68476
G1 X145.927 Y191.531 E43.82049
G1 X143.261 Y190.916 E43.95699
G1 X140.548 Y190.373 E44.09503
G1 X137.862 Y189.911 E44.231
G1 X135.148 Y189.524 E44.36777
G1 X132.441 Y189.216 E44.5037
G1 X129.736 Y188.986 E44.63914
G1 X126.988 Y188.83 E44.77646
G1 X124.232 Y188.751 E44.91401
G1 X121.514 Y188.751 E45.04961
G1 X118.765 Y188.828 E45.18681
G1 X116.046 Y188.982 E45.32268
G1 X113.308 Y189.214 E45.45977
G1 X110.565 Y189.525 E45.5975
G1 X107.879 Y189.907 E45.73285
G1 X105.188 Y190.368 E45.86906
G1 X102.495 Y190.906 E46.00607
G1 X99.845 Y191.516 E46.14174
G1 X97.174 Y192.212 E46.27944
G1 X94.272 Y193.058 E46.43025
G1 X93.677 Y193.182 E46.46057
G1 X92.582 Y193.2 E46.51521
G1 X82.265 Y193.2 E47.02993
G1 X81.37 Y193.186 E47.07459
G1 X80.035 Y193.015 E47.14173
G1 X77.314 Y192.705 E47.27836
G1 X74.608 Y192.475 E47.41385
G1 X71.859 Y192.319 E47.55122
G1 X69.107 Y192.241 E47.68857
G1 X66.39 Y192.241 E47.82413
G1 X63.634 Y192.319 E47.96168
G1 X60.905 Y192.473 E48.09805
G1 X57.301 Y192.795 E48.27857
G1 X56.234 Y192.911 E48.33211
G1 X55.728 Y192.926 E48.35737
G1 X55.227 Y192.861 E48.38257
G1 X54.742 Y192.718 E48.4078
G1 X54.286 Y192.5 E48.43302
G1 X53.87 Y192.213 E48.45823
G1 X53.504 Y191.864 E48.48346
G1 X53.197 Y191.462 E48.5087
G1 X52.958 Y191.017 E48.5339
G1 X52.792 Y190.539 E48.55914
G1 X52.691 Y189.97 E48.58797
G1 X52.493 Y187.514 E48.7109
G1 X52.196 Y184.81 E48.84661
G1 X51.819 Y182.078 E48.98421
G1 X51.371 Y179.398 E49.11977
G1 X50.843 Y176.707 E49.25658
G1 X50.237 Y174.026 E49.39371
G1 X49.57 Y171.417 E49.52806
G1 X49.04 Y169.538 E49.62546
G1 X48.942 Y169.042 E49.65069
G1 X48.911 Y168.432 E49.68116
G1 X48.909 Y158.658 E50.16879
G1 X48.921 Y157.939 E50.20466
G1 X48.978 Y157.355 E50.23394
G1 X49.195 Y156.567 E50.27471
G1 X49.894 Y153.881 E50.41318
G1 X50.513 Y151.184 E50.55123
G1 X51.052 Y148.498 E50.68791
G1 X51.507 Y145.834 E50.82274
G1 X51.894 Y143.124 E50.95932
G1 X52.204 Y140.394 E51.09639
G1 X52.436 Y137.65 E51.23378
G1 X52.589 Y134.931 E51.36965
G1 X52.677 Y130.838 E51.57389
G1 X52.678 Y77.483 E54.23578
G1 X52.638 Y74.686 E54.37534
G1 X52.523 Y71.969 E54.51102
G1 X52.328 Y69.222 E54.64841
G1 X52.06 Y66.517 E54.78402
G1 X51.711 Y63.786 E54.92138
G1 X51.289 Y61.097 E55.05718
G1 X50.788 Y58.399 E55.19408
G1 X50.207 Y55.705 E55.33158
G1 X49.578 Y53.132 E55.46372
G1 X49.262 Y51.985 E55.52308
G1 X49.025 Y51.083 E55.56961
G1 X48.911 Y50.297 E55.60923
G1 X48.91 Y40.257 E56.11013
G1 F2400 E51.11013
;MESH:Plate Stand - Small Dinner.stl
G0 F3600 X51.445 Y40.257
G0 X52.53 Y40.257
G0 X56.238 Y40.5
G1 F2400 E56.11013
G0 F3600 X56.238 Y40.08
;TYPE:WALL-INNER
G1 F1800 X55.959 Y40.2 E56.12528
G1 X52.71 Y40.2 E56.28738
G1 X52.71 Y49.667 E56.75969
G1 X55.878 Y49.667 E56.91774
G1 X56.079 Y49.701 E56.92791
G1 X56.307 Y49.846 E56.94139
G1 X56.41 Y49.987 E56.9501
G1 X56.478 Y50.235 E56.96293
G1 X56.474 Y158.069 E62.34279
G1 X56.412 Y158.275 E62.35352
G1 X56.326 Y158.399 E62.36105
G1 X56.142 Y158.539 E62.37259
G1 X55.959 Y158.6 E62.38221
G1 X52.709 Y158.6 E62.54435
G1 X52.71 Y168.067 E63.01666
G1 X55.879 Y168.067 E63.17477
G1 X56.08 Y168.101 E63.18494
G1 X56.282 Y168.221 E63.19666
G1 X56.449 Y168.476 E63.21187
G1 X56.479 Y168.643 E63.22033
G1 X56.478 Y188.741 E64.22302
G1 X57.412 Y188.218 E64.27643
G1 X58.226 Y187.733 E64.3237
G1 X59.043 Y187.216 E64.37194
G1 X59.858 Y186.664 E64.42105
G1 X60.726 Y186.027 E64.47476
G1 X61.466 Y185.424 E64.52239
G1 X61.996 Y184.957 E64.55763
G1 X62.561 Y184.426 E64.59631
G1 X63.151 Y183.797 E64.63934
G1 X63.716 Y183.133 E64.68283
G1 X64.183 Y182.53 E64.72088
G1 X64.759 Y181.663 E64.77281
G1 X65.237 Y180.802 E64.82195
G1 X65.474 Y180.327 E64.84843
G1 X65.714 Y179.795 E64.87755
G1 X66.014 Y179.056 E64.91734
G1 X66.359 Y178.008 E64.97238
G1 X66.633 Y176.952 E65.02681
G1 X66.796 Y176.209 E65.06476
G1 X66.983 Y175.16 E65.11792
G1 X67.088 Y174.429 E65.15477
G1 X67.173 Y173.718 E65.19049
G1 X67.257 Y172.843 E65.23434
G1 X67.341 Y171.62 E65.2955
G1 X67.382 Y170.771 E65.33791
G1 X67.413 Y169.676 E65.39256
G1 X67.426 Y168.4 E65.45622
G1 X67.422 Y167.51 E65.50063
G1 X67.384 Y165.645 E65.59369
G1 X67.326 Y164.066 E65.67252
G1 X67.235 Y162.184 E65.76652
G1 X67.085 Y159.651 E65.89312
G1 X66.823 Y155.91 E66.08021
G1 X65.765 Y142.351 E66.75873
G1 X65.506 Y138.669 E66.94288
G1 X65.294 Y135.284 E67.11209
G1 X65.193 Y133.493 E67.20159
G1 X65.044 Y130.379 E67.35712
G1 X64.932 Y127.318 E67.50994
G1 X64.895 Y125.852 E67.5831
G1 X64.863 Y124.138 E67.66863
G1 X64.848 Y122.25 E67.76282
G1 X64.85 Y120.956 E67.82738
G1 X64.871 Y119.193 E67.91534
G1 X64.901 Y117.83 E67.98336
G1 X64.959 Y116.091 E68.07017
G1 X65.022 Y114.702 E68.13954
G1 X65.128 Y112.861 E68.23154
G1 X65.268 Y110.958 E68.32673
G1 X65.424 Y109.218 E68.41389
G1 X65.583 Y107.693 E68.49039
G1 X65.714 Y106.582 E68.5462
G1 X65.94 Y104.858 E68.63294
G1 X66.193 Y103.177 E68.71775
G1 X66.47 Y101.541 E68.80054
G1 X66.738 Y100.111 E68.87312
G1 X67.055 Y98.581 E68.95107
G1 X67.233 Y97.787 E68.99167
G1 X67.515 Y96.603 E69.05239
G1 X67.9 Y95.109 E69.12936
