;FLAVOR:Marlin
;TIME:5458
;Filament used: 4.50833m
;Layer height: 0.15
;MINX:52.129
;MINY:46.4
;MINZ:0.3
;MAXX:167.872
;MAXY:173.6
;MAXZ:3
;Generated with Cura_SteamEngine main
M140 S60
M105
M190 S60
M104 S210
M105
M109 S210
M82 ;absolute extrusion mode
; Aquila X2 Custom Start G-code
G92 E0 ; Reset Extruder
G28 ; Home all axes
M420 S1
G1 Z2.0 F3000 ; Move Z Axis up little to prevent scratching of Heat Bed
G1 X0.1 Y20 Z0.3 F5000.0 ; Move to start position
G1 X0.1 Y200.0 Z0.3 F1500.0 E15 ; Draw the first line
G1 X0.4 Y200.0 Z0.3 F5000.0 ; Move to side a little
G1 X0.4 Y20 Z0.3 F1500.0 E30 ; Draw the second line
G92 E0 ; Reset Extruder
G1 Z2.0 F3000 ; Move Z Axis up little to prevent scratching of Heat Bed
G1 X5 Y20 Z0.3 F5000.0 ; Move over to prevent blob squish
G92 E0
G92 E0
G1 F2400 E-5
;LAYER_COUNT:19
;LAYER:0
M107
G0 F3600 X56.604 Y47.588 Z0.3
G0 X55.071 Y50.535
;TYPE:SKIRT
G1 F2400 E0
G1 F1800 X55.786 Y48.951 E0.0867
G1 X56.009 Y48.477 E0.11284
G1 X56.273 Y48.011 E0.13956
G1 X56.604 Y47.588 E0.16636
G1 X56.993 Y47.219 E0.19311
G1 X57.433 Y46.912 E0.21987
G1 X57.913 Y46.674 E0.2466
G1 X58.424 Y46.51 E0.27338
G1 X59.246 Y46.4 E0.31475
G1 X69.638 Y46.4 E0.83321
G1 X70.34 Y46.41 E0.86824
G1 X70.982 Y46.468 E0.9004
G1 X72.393 Y46.854 E0.97338
G1 X75.041 Y47.541 E1.10986
G1 X77.749 Y48.163 E1.24848
G1 X80.374 Y48.688 E1.38204
G1 X83.097 Y49.152 E1.51985
G1 X85.786 Y49.535 E1.65536
G1 X88.48 Y49.839 E1.79061
G1 X91.212 Y50.07 E1.9274
G1 X93.898 Y50.221 E2.06162
G1 X96.666 Y50.298 E2.19977
G1 X99.36 Y50.296 E2.33417
G1 X102.123 Y50.217 E2.47207
G1 X104.817 Y50.062 E2.6067
G1 X107.544 Y49.829 E2.74325
G1 X110.242 Y49.522 E2.87872
G1 X112.959 Y49.133 E3.01565
G1 X115.621 Y48.675 E3.15041
G1 X118.334 Y48.13 E3.28847
G1 X120.939 Y47.531 E3.42182
G1 X124.648 Y46.541 E3.61334
G1 X125.261 Y46.425 E3.64447
G1 X126.564 Y46.4 E3.70949
G1 X135.967 Y46.4 E4.17861
G1 X136.854 Y46.414 E4.22286
G1 X139.908 Y46.763 E4.37622
G1 X142.627 Y46.995 E4.51236
G1 X145.317 Y47.149 E4.64679
G1 X148.08 Y47.228 E4.78469
G1 X150.775 Y47.228 E4.91915
G1 X153.543 Y47.151 E5.0573
G1 X156.239 Y46.999 E5.19201
G1 X159.432 Y46.721 E5.35191
G1 X160.361 Y46.625 E5.39851
G1 X160.897 Y46.61 E5.42526
G1 X161.429 Y46.674 E5.45199
G1 X161.946 Y46.817 E5.47876
G1 X162.436 Y47.035 E5.50551
G1 X162.888 Y47.324 E5.53228
G1 X163.292 Y47.676 E5.55901
G1 X163.64 Y48.085 E5.5858
G1 X163.923 Y48.541 E5.61258
G1 X164.135 Y49.033 E5.63931
G1 X164.271 Y49.552 E5.66607
G1 X164.329 Y50.089 E5.69302
G1 X164.397 Y52.187 E5.79774
G1 X164.544 Y54.932 E5.93489
G1 X164.769 Y57.659 E6.0714
G1 X165.066 Y60.342 E6.20607
G1 X165.446 Y63.077 E6.34384
G1 X165.892 Y65.726 E6.47785
G1 X166.43 Y68.446 E6.61619
G1 X167.02 Y71.054 E6.74959
G1 X167.454 Y72.775 E6.83814
G1 X167.745 Y73.887 E6.89548
G1 X167.841 Y74.414 E6.92221
G1 X167.872 Y75.13 E6.95796
G1 X167.872 Y82.144 E7.30789
G1 X167.862 Y82.846 E7.34292
G1 X167.806 Y83.471 E7.37422
G1 X167.105 Y86.187 E7.51417
G1 X166.493 Y88.849 E7.65044
G1 X165.951 Y91.558 E7.78827
G1 X165.498 Y94.208 E7.9224
G1 X165.117 Y96.897 E8.05789
G1 X164.807 Y99.625 E8.19487
G1 X164.578 Y102.339 E8.33075
G1 X164.426 Y105.042 E8.46582
G1 X164.34 Y109.133 E8.66996
G1 X164.34 Y119.622 E9.19326
G1 X164.379 Y122.403 E9.33202
G1 X164.495 Y125.132 E9.46829
G1 X164.689 Y127.861 E9.60479
G1 X164.954 Y130.536 E9.7389
G1 X165.304 Y133.276 E9.87671
G1 X165.725 Y135.953 E10.0119
G1 X166.221 Y138.622 E10.14734
G1 X166.79 Y141.271 E10.28251
G1 X167.486 Y144.101 E10.42791
G1 X167.744 Y145.085 E10.47866
G1 X167.841 Y145.612 E10.5054
G1 X167.872 Y146.33 E10.54125
G1 X167.872 Y153.324 E10.89018
G1 X167.862 Y154.044 E10.92611
G1 X167.802 Y154.711 E10.95952
G1 X166.888 Y157.852 E11.12272
G1 X166.199 Y160.498 E11.25913
G1 X165.587 Y163.154 E11.39511
G1 X165.04 Y165.883 E11.53397
G1 X164.592 Y168.5 E11.66644
G1 X164.416 Y169.727 E11.72828
G1 X164.287 Y170.549 E11.76979
G1 X164.165 Y171.071 E11.79653
G1 X163.967 Y171.569 E11.82327
G1 X163.696 Y172.033 E11.85008
G1 X163.36 Y172.45 E11.8768
G1 X162.965 Y172.814 E11.90359
G1 X162.521 Y173.114 E11.93033
G1 X162.037 Y173.346 E11.95711
G1 X161.525 Y173.502 E11.98381
G1 X160.761 Y173.599 E12.02223
G1 X150.362 Y173.6 E12.54104
G1 X149.661 Y173.59 E12.57602
G1 X149.016 Y173.532 E12.60832
G1 X147.585 Y173.141 E12.68233
G1 X144.959 Y172.459 E12.81769
G1 X142.251 Y171.837 E12.95631
G1 X139.626 Y171.312 E13.08987
G1 X136.903 Y170.848 E13.22768
G1 X134.214 Y170.465 E13.36319
G1 X131.52 Y170.161 E13.49844
G1 X128.788 Y169.93 E13.63523
G1 X126.102 Y169.779 E13.76945
G1 X123.334 Y169.702 E13.9076
G1 X120.64 Y169.704 E14.042
G1 X117.877 Y169.783 E14.1799
G1 X115.183 Y169.938 E14.31453
G1 X112.456 Y170.171 E14.45108
G1 X109.758 Y170.478 E14.58655
G1 X107.041 Y170.867 E14.72348
G1 X104.379 Y171.325 E14.85824
G1 X101.666 Y171.87 E14.9963
G1 X99.061 Y172.469 E15.12965
G1 X95.352 Y173.459 E15.32117
G1 X94.739 Y173.575 E15.3523
G1 X93.436 Y173.6 E15.41732
G1 X84.033 Y173.6 E15.88644
G1 X83.146 Y173.586 E15.93069
G1 X80.092 Y173.237 E16.08405
G1 X77.373 Y173.005 E16.22019
G1 X74.683 Y172.851 E16.35462
G1 X71.92 Y172.772 E16.49252
G1 X69.225 Y172.772 E16.62698
G1 X66.457 Y172.849 E16.76513
G1 X63.761 Y173.001 E16.89984
G1 X60.568 Y173.279 E17.05975
G1 X59.639 Y173.375 E17.10634
G1 X59.103 Y173.39 E17.13309
G1 X58.571 Y173.326 E17.15982
G1 X58.054 Y173.183 E17.18659
G1 X57.564 Y172.965 E17.21334
G1 X57.112 Y172.676 E17.24011
G1 X56.708 Y172.324 E17.26684
G1 X56.36 Y171.915 E17.29363
G1 X56.077 Y171.459 E17.32041
G1 X55.865 Y170.967 E17.34714
G1 X55.708 Y170.321 E17.3803
G1 X55.602 Y169.608 E17.41627
G1 X55.155 Y166.855 E17.55541
G1 X54.642 Y164.174 E17.69159
G1 X54.058 Y161.528 E17.82678
G1 X53.403 Y158.915 E17.96118
G1 X52.656 Y156.258 E18.09888
G1 X52.284 Y155.013 E18.1637
G1 X52.172 Y154.489 E18.19043
G1 X52.129 Y153.67 E18.23135
G1 X52.129 Y146.651 E18.58153
G1 X52.14 Y145.944 E18.61681
G1 X52.197 Y145.32 E18.64807
G1 X52.893 Y142.625 E18.78693
G1 X53.507 Y139.954 E18.92367
G1 X54.049 Y137.247 E19.0614
G1 X54.501 Y134.604 E19.19517
G1 X54.882 Y131.915 E19.33067
G1 X55.192 Y129.187 E19.46764
G1 X55.421 Y126.474 E19.60348
G1 X55.573 Y123.77 E19.73859
G1 X55.66 Y119.669 E19.94324
G1 X55.66 Y91.575 E21.34486
G1 X55.621 Y88.794 E21.48361
G1 X55.505 Y86.065 E21.61989
G1 X55.311 Y83.336 E21.75638
G1 X55.046 Y80.659 E21.89059
G1 X54.696 Y77.921 E22.0283
G1 X54.275 Y75.243 E22.16355
G1 X53.779 Y72.575 E22.29894
G1 X53.21 Y69.926 E22.43411
G1 X52.516 Y67.104 E22.57909
G1 X52.257 Y66.114 E22.63015
G1 X52.16 Y65.587 E22.65688
G1 X52.129 Y64.87 E22.69269
G1 X52.129 Y57.856 E23.04262
G1 X52.139 Y57.153 E23.07769
G1 X52.187 Y56.619 E23.10444
G1 X52.313 Y56.097 E23.13123
G1 X52.547 Y55.539 E23.16142
G1 X53.874 Y52.995 E23.30457
G1 X55.071 Y50.535 E23.44106
G1 F2400 E18.44106
G0 F3600 X52.529 Y57.861
G1 F2400 E23.44106
G1 F1800 X52.539 Y57.158 E23.47613
G1 X52.586 Y56.655 E23.50134
G1 X52.712 Y56.165 E23.52658
G1 X52.902 Y55.724 E23.55054
G1 X54.231 Y53.176 E23.69391
G1 X55.437 Y50.696 E23.83149
G1 X56.148 Y49.122 E23.91766
G1 X56.371 Y48.648 E23.94379
G1 X56.622 Y48.209 E23.96902
G1 X56.939 Y47.815 E23.99425
G1 X57.314 Y47.475 E24.0195
G1 X57.737 Y47.199 E24.0447
G1 X58.199 Y46.993 E24.06994
G1 X58.687 Y46.863 E24.09513
G1 X59.281 Y46.8 E24.12493
G1 X69.633 Y46.8 E24.6414
G1 X70.335 Y46.81 E24.67642
G1 X70.92 Y46.865 E24.70574
G1 X72.31 Y47.245 E24.77763
G1 X74.948 Y47.93 E24.91361
G1 X77.654 Y48.551 E25.05212
G1 X80.34 Y49.089 E25.18879
G1 X83.009 Y49.544 E25.32386
G1 X85.717 Y49.929 E25.46032
G1 X88.434 Y50.235 E25.59673
G1 X91.192 Y50.469 E25.73482
G1 X93.902 Y50.621 E25.87024
G1 X96.654 Y50.698 E26.00759
G1 X99.372 Y50.696 E26.14319
G1 X102.123 Y50.617 E26.2805
G1 X104.873 Y50.459 E26.41792
G1 X107.587 Y50.227 E26.55382
G1 X110.278 Y49.921 E26.68894
G1 X113.012 Y49.529 E26.82673
G1 X115.731 Y49.062 E26.96437
G1 X118.397 Y48.527 E27.10003
G1 X121.014 Y47.924 E27.23401
G1 X124.751 Y46.927 E27.42697
G1 X125.315 Y46.824 E27.45558
G1 X126.564 Y46.8 E27.5179
G1 X135.961 Y46.8 E27.98672
G1 X136.823 Y46.813 E28.02973
G1 X139.865 Y47.161 E28.18249
G1 X142.571 Y47.393 E28.31798
G1 X145.317 Y47.549 E28.4552
G1 X148.069 Y47.628 E28.59256
G1 X150.787 Y47.628 E28.72816
G1 X153.539 Y47.551 E28.86551
G1 X156.265 Y47.398 E29.00173
G1 X159.502 Y47.116 E29.16383
G1 X160.402 Y47.023 E29.20897
G1 X160.907 Y47.011 E29.23417
G1 X161.409 Y47.079 E29.25945
G1 X161.893 Y47.224 E29.28465
G1 X162.348 Y47.444 E29.30987
G1 X162.762 Y47.734 E29.33509
G1 X163.127 Y48.084 E29.36032
G1 X163.431 Y48.488 E29.38554
G1 X163.668 Y48.935 E29.41078
G1 X163.831 Y49.413 E29.43598
G1 X163.929 Y50.102 E29.4707
G1 X163.998 Y52.212 E29.57602
G1 X164.144 Y54.952 E29.71292
G1 X164.367 Y57.664 E29.84867
G1 X164.674 Y60.439 E29.98796
G1 X165.041 Y63.076 E30.12079
G1 X165.505 Y65.838 E30.26052
G1 X166.032 Y68.499 E30.39586
G1 X166.635 Y71.163 E30.53213
G1 X167.067 Y72.876 E30.62026
G1 X167.358 Y73.988 E30.67761
G1 X167.471 Y74.771 E30.71708
G1 X167.472 Y82.139 E31.08467
G1 X167.462 Y82.841 E31.1197
G1 X167.409 Y83.404 E31.14791
G1 X166.719 Y86.076 E31.28559
G1 X166.107 Y88.741 E31.42201
G1 X165.56 Y91.477 E31.56121
G1 X165.101 Y94.157 E31.69686
G1 X164.724 Y96.815 E31.8308
G1 X164.41 Y99.583 E31.96978
G1 X164.179 Y102.317 E32.10666
G1 X164.026 Y105.04 E32.24273
G1 X163.94 Y109.106 E32.44563
G1 X163.94 Y119.628 E32.97057
G1 X163.98 Y122.426 E33.11018
G1 X164.095 Y125.143 E33.24585
G1 X164.29 Y127.889 E33.3832
G1 X164.558 Y130.593 E33.51876
G1 X164.906 Y133.317 E33.65576
G1 X165.331 Y136.017 E33.79213
G1 X165.831 Y138.707 E33.92863
G1 X166.403 Y141.377 E34.06486
G1 X167.085 Y144.149 E34.20728
G1 X167.357 Y145.186 E34.26077
G1 X167.471 Y145.971 E34.30034
G1 X167.472 Y153.318 E34.66688
G1 X167.462 Y154.038 E34.70281
G1 X167.406 Y154.643 E34.73312
G1 X166.5 Y157.754 E34.89478
G1 X165.808 Y160.413 E35.03185
G1 X165.193 Y163.084 E35.1686
G1 X164.653 Y165.775 E35.30553
G1 X164.195 Y168.453 E35.44107
G1 X164.021 Y169.665 E35.50216
G1 X163.892 Y170.487 E35.54367
G1 X163.775 Y170.979 E35.5689
G1 X163.581 Y171.446 E35.59413
G1 X163.316 Y171.877 E35.61937
G1 X162.987 Y172.26 E35.64456
G1 X162.602 Y172.587 E35.66976
G1 X162.169 Y172.85 E35.69504
G1 X161.701 Y173.04 E35.72024
G1 X161.209 Y173.155 E35.74545
G1 X160.721 Y173.199 E35.76989
G1 X150.367 Y173.2 E36.28646
G1 X149.666 Y173.19 E36.32143
G1 X149.082 Y173.135 E36.3507
G1 X147.69 Y172.755 E36.42269
G1 X145.052 Y172.07 E36.55866
G1 X142.346 Y171.449 E36.69717
G1 X139.66 Y170.911 E36.83384
G1 X136.991 Y170.456 E36.96892
G1 X134.283 Y170.071 E37.10538
G1 X131.566 Y169.765 E37.24179
G1 X128.808 Y169.531 E37.37988
G1 X126.098 Y169.379 E37.51529
G1 X123.346 Y169.302 E37.65264
G1 X120.628 Y169.304 E37.78825
G1 X117.877 Y169.383 E37.92555
G1 X115.127 Y169.541 E38.06298
G1 X112.413 Y169.773 E38.19887
G1 X109.722 Y170.079 E38.33399
G1 X106.988 Y170.471 E38.47179
G1 X104.269 Y170.938 E38.60942
G1 X101.603 Y171.473 E38.74508
G1 X98.986 Y172.076 E38.87907
G1 X95.249 Y173.073 E39.07203
G1 X94.685 Y173.176 E39.10063
G1 X93.436 Y173.2 E39.16295
G1 X84.039 Y173.2 E39.63177
G1 X83.177 Y173.187 E39.67478
G1 X80.135 Y172.839 E39.82754
G1 X77.429 Y172.607 E39.96304
G1 X74.683 Y172.451 E40.10026
G1 X71.931 Y172.372 E40.23761
G1 X69.213 Y172.372 E40.37321
G1 X66.461 Y172.449 E40.51056
G1 X63.735 Y172.602 E40.64678
G1 X60.498 Y172.884 E40.80889
G1 X59.598 Y172.977 E40.85403
G1 X59.093 Y172.989 E40.87923
G1 X58.591 Y172.921 E40.9045
G1 X58.107 Y172.776 E40.92971
G1 X57.652 Y172.556 E40.95492
G1 X57.238 Y172.266 E40.98014
G1 X56.873 Y171.916 E41.00537
G1 X56.569 Y171.512 E41.03059
G1 X56.332 Y171.065 E41.05584
G1 X56.139 Y170.499 E41.08567
G1 X55.997 Y169.543 E41.13389
G1 X55.551 Y166.793 E41.27288
G1 X55.037 Y164.111 E41.40912
G1 X54.442 Y161.416 E41.54681
G1 X53.792 Y158.823 E41.68018
G1 X53.038 Y156.136 E41.81941
G1 X52.668 Y154.901 E41.88373
G1 X52.565 Y154.406 E41.90896
G1 X52.53 Y153.766 E41.94093
G1 X52.529 Y146.657 E42.2956
G1 X52.54 Y145.95 E42.33088
G1 X52.594 Y145.387 E42.3591
G1 X53.279 Y142.736 E42.4957
G1 X53.895 Y140.051 E42.63314
G1 X54.441 Y137.327 E42.77174
G1 X54.898 Y134.656 E42.90693
G1 X55.277 Y131.98 E43.04177
G1 X55.589 Y129.229 E43.1799
G1 X55.82 Y126.496 E43.31674
G1 X55.973 Y123.772 E43.45285
G1 X56.06 Y119.698 E43.65615
G1 X56.06 Y91.569 E45.05951
G1 X56.02 Y88.771 E45.19912
G1 X55.905 Y86.052 E45.33489
G1 X55.71 Y83.308 E45.47213
G1 X55.442 Y80.602 E45.6078
G1 X55.094 Y77.88 E45.7447
G1 X54.669 Y75.179 E45.88112
G1 X54.169 Y72.49 E46.01757
G1 X53.597 Y69.82 E46.1538
G1 X52.916 Y67.055 E46.29587
G1 X52.643 Y66.013 E46.34961
G1 X52.53 Y65.229 E46.38913
G1 X52.529 Y57.861 E46.75672
G1 F2400 E41.75672
;MESH:Plate Stand - Bread and butter.stl
G0 F3600 X55.064 Y57.861
G0 X56.149 Y57.861
G0 X59.606 Y58.1
G1 F2400 E46.75672
G0 F3600 X59.606 Y57.691
;TYPE:WALL-INNER
G1 F1800 X59.335 Y57.796 E46.77122
G1 X56.329 Y57.8 E46.92119
G1 X56.329 Y64.6 E47.26044
G1 X59.335 Y64.604 E47.41041
G1 X59.606 Y64.709 E47.42491
G1 X59.804 Y64.944 E47.44024
G1 X59.86 Y65.123 E47.4496
G1 X59.859 Y146.054 E51.48726
G1 X59.814 Y146.233 E51.49647
G1 X59.597 Y146.497 E51.51352
G1 X59.335 Y146.596 E51.52749
G1 X56.329 Y146.6 E51.67746
G1 X56.329 Y153.4 E52.01672
G1 X59.335 Y153.404 E52.16669
G1 X59.526 Y153.461 E52.17663
G1 X59.652 Y153.545 E52.18419
G1 X59.783 Y153.704 E52.19446
G1 X59.857 Y153.939 E52.20676
G1 X59.861 Y168.894 E52.95286
G1 X60.73 Y168.508 E53.0003
G1 X61.526 Y168.127 E53.04433
G1 X62.258 Y167.757 E53.08525
G1 X62.9 Y167.41 E53.12166
G1 X63.501 Y167.065 E53.15623
G1 X64.335 Y166.541 E53.20537
G1 X65.217 Y165.929 E53.25893
G1 X66.133 Y165.178 E53.31803
G1 X66.645 Y164.688 E53.35338
G1 X67.315 Y163.969 E53.40241
G1 X67.972 Y163.093 E53.45704
G1 X68.383 Y162.397 E53.49737
G1 X68.776 Y161.628 E53.54045
G1 X69.093 Y160.826 E53.58348
G1 X69.28 Y160.263 E53.61308
G1 X69.437 Y159.706 E53.64195
G1 X69.557 Y159.206 E53.6676
G1 X69.714 Y158.414 E53.70788
G1 X69.831 Y157.634 E53.74723
G1 X69.901 Y157.023 E53.77791
G1 X69.99 Y155.9 E53.83412
G1 X70.03 Y155.026 E53.87777
G1 X70.05 Y153.387 E53.95954
G1 X70.009 Y151.734 E54.04204
G1 X69.963 Y150.704 E54.09347
G1 X69.866 Y149.068 E54.17524
G1 X69.775 Y147.811 E54.23811
G1 X69.546 Y145.114 E54.37315
G1 X68.594 Y135.362 E54.86199
G1 X68.343 Y132.597 E55.00051
G1 X68.207 Y130.986 E55.08117
G1 X68.031 Y128.676 E55.19675
G1 X67.926 Y127.165 E55.27231
G1 X67.779 Y124.534 E55.40378
G1 X67.714 Y123.022 E55.47928
G1 X67.662 Y121.328 E55.56384
G1 X67.636 Y119.856 E55.63729
G1 X67.631 Y119.03 E55.6785
G1 X67.638 Y117.785 E55.74061
G1 X67.654 Y116.802 E55.78966
G1 X67.729 Y114.696 E55.8948
G1 X67.855 Y112.62 E55.99856
G1 X67.921 Y111.826 E56.03831
G1 X68.036 Y110.598 E56.09984
G1 X68.165 Y109.454 E56.15728
G1 X68.291 Y108.47 E56.20677
G1 X68.456 Y107.335 E56.26399
G1 X68.739 Y105.661 E56.34869
G1 X68.903 Y104.813 E56.39178
G1 X69.101 Y103.856 E56.44054
G1 X69.278 Y103.074 E56.48054
G1 X69.515 Y102.112 E56.52997
G1 X69.73 Y101.302 E56.57178
G1 X69.942 Y100.554 E56.61057
G1 X70.363 Y99.188 E56.68188
G1 X70.655 Y98.321 E56.72752
G1 X70.958 Y97.483 E56.77198
G1 X71.247 Y96.733 E56.81208
G1 X71.675 Y95.692 E56.86823
G1 X72.021 Y94.912 E56.9108
G1 X72.418 Y94.066 E56.95743
G1 X72.742 Y93.413 E56.99379
G1 X73.1 Y92.731 E57.03222
G1 X73.457 Y92.083 E57.06913
G1 X73.778 Y91.525 E57.10125
G1 X74.12 Y90.957 E57.13433
G1 X74.463 Y90.413 E57.16641
G1 X74.86 Y89.808 E57.20251
G1 X75.266 Y89.218 E57.23825
G1 X75.595 Y88.761 E57.26634
G1 X76.031 Y88.177 E57.3027
G1 X76.647 Y87.389 E57.3526
G1 X77.818 Y86.028 E57.44217
G1 X78.674 Y85.135 E57.50389
G1 X79.227 Y84.584 E57.54283
G1 X80.053 Y83.812 E57.59924
G1 X80.621 Y83.304 E57.63726
G1 X81.185 Y82.828 E57.67408
G1 X81.68 Y82.426 E57.70589
G1 X82.289 Y81.952 E57.74439
G1 X83.087 Y81.356 E57.79408
G1 X83.654 Y80.954 E57.82876
G1 X84.498 Y80.385 E57.87954
G1 X85.258 Y79.897 E57.9246
G1 X86.273 Y79.283 E57.98379
G1 X86.818 Y78.965 E58.01527
G1 X87.613 Y78.522 E58.06067
G1 X88.727 Y77.936 E58.12347
G1 X89.409 Y77.591 E58.1616
G1 X89.999 Y77.304 E58.19433
G1 X91.232 Y76.728 E58.26223
G1 X92.98 Y75.958 E58.35752
