; generated by Slic3r 1.3.0 on 2022-04-06 at 00:30:04

; external perimeters extrusion width = 0.55mm (4.37mm^3/s)
; perimeters extrusion width = 0.70mm (11.44mm^3/s)
; infill extrusion width = 0.62mm (13.45mm^3/s)
; solid infill extrusion width = 0.70mm (3.81mm^3/s)
; top infill extrusion width = 0.70mm (2.86mm^3/s)

M107
M104 S200 ; set temperature
G28 ; home all axes
G1 Z5 F5000 ; lift nozzle

; Filament gcode

M109 S200 ; set temperature and wait for it to be reached
G21 ; set units to millimeters
G90 ; use absolute coordinates
M82 ; use absolute distances for extrusion
G92 E0
G1 Z0.350 F7800.000
G1 E-2.00000 F2400.00000
G92 E0
G1 X92.772 Y37.741 F7800.000
G1 E2.00000 F2400.00000
G1 F1800
G1 X93.915 Y35.753 E2.07096
G1 X95.668 Y34.274 E2.14192
G1 X97.820 Y33.481 E2.21289
G1 X99.000 Y33.375 E2.24954
G1 X101.000 Y33.375 E2.31142
G1 X103.259 Y33.772 E2.38238
G1 X105.247 Y34.915 E2.45335
G1 X106.726 Y36.668 E2.52431
G1 X107.519 Y38.820 E2.59527
G1 X107.625 Y40.000 E2.63192
G1 X107.625 Y160.000 E6.34488
G1 X107.228 Y162.259 E6.41584
G1 X106.085 Y164.247 E6.48680
G1 X104.332 Y165.726 E6.55777
G1 X102.180 Y166.519 E6.62873
G1 X101.000 Y166.625 E6.66538
G1 X99.000 Y166.625 E6.72726
G1 X96.741 Y166.228 E6.79822
G1 X94.753 Y165.085 E6.86919
G1 X93.274 Y163.332 E6.94015
G1 X92.481 Y161.180 E7.01111
G1 X92.375 Y160.000 E7.04776
G1 X92.375 Y40.000 E10.76072
G1 X92.759 Y37.815 E10.82936
G1 E8.82936 F2400.00000
G92 E0
G1 X100.650 Y40.350 F7800.000
G1 E2.00000 F2400.00000
G1 F1800
G1 X100.650 Y159.650 E5.69130
G1 X99.350 Y159.650 E5.73152
G1 X99.350 Y40.350 E9.42282
G1 X100.575 Y40.350 E9.46072
G1 X100.648 Y40.850 F7800.000
G1 X100.000 Y40.662 F7800.000
G1 F1800
G1 X100.000 Y159.338 E12.98645
G1 Z0.650 F7800.000
G1 X100.725 Y40.275 F7800.000
G1 F1800
G1 X100.725 Y159.725 E15.44836
G1 X99.275 Y159.725 E15.47824
G1 X99.275 Y40.275 E17.94015
G1 X100.650 Y40.275 E17.96849
G1 X100.723 Y40.775 F7800.000
G1 X100.000 Y40.555 F7800.000
G1 F1200
G1 X100.000 Y159.445 E22.13130
G1 Z0.950 F7800.000
G1 X100.725 Y40.275 F7800.000
G1 F1800
G1 X100.725 Y159.725 E24.59320
G1 X99.275 Y159.725 E24.62309
G1 X99.275 Y40.275 E27.08499
G1 X100.650 Y40.275 E27.11333
G1 X100.723 Y40.775 F7800.000
G1 X100.000 Y40.555 F7800.000
G1 F1200
G1 X100.000 Y159.445 E31.27614
M106 S226.95
G1 Z1.250 F7800.000
G1 X100.725 Y40.275 F7800.000
G1 F1800
G1 X100.725 Y159.725 E33.73804
G1 X99.275 Y159.725 E33.76793
G1 X99.275 Y40.275 E36.22983
G1 X100.650 Y40.275 E36.25817
G1 X100.723 Y40.775 F7800.000
G1 X100.000 Y40.555 F7800.000
G1 F1200
G1 X100.000 Y159.445 E40.42098
G1 Z1.550 F7800.000
G1 X100.725 Y40.275 F7800.000
G1 F1800
G1 X100.725 Y159.725 E42.88289
G1 X99.275 Y159.725 E42.91277
G1 X99.275 Y40.275 E45.37468
G1 X100.650 Y40.275 E45.40301
G1 X100.723 Y40.775 F7800.000
G1 X100.000 Y40.555 F7800.000
G1 F1200
G1 X100.000 Y159.445 E49.56583
G1 Z1.850 F7800.000
G1 X100.725 Y40.275 F7800.000
G1 F1800
G1 X100.725 Y159.725 E52.02773
G1 X99.275 Y159.725 E52.05761
G1 X99.275 Y40.275 E54.51952
G1 X100.650 Y40.275 E54.54786
G1 X100.723 Y40.775 F7800.000
G1 X100.000 Y40.555 F7800.000
G1 F1200
G1 X100.000 Y159.445 E58.71067
G1 Z2.150 F7800.000
G1 X100.725 Y40.275 F7800.000
G1 F1800
G1 X100.725 Y159.725 E61.17257
G1 X99.275 Y159.725 E61.20246
G1 X99.275 Y40.275 E63.66436
G1 X100.650 Y40.275 E63.69270
G1 X100.723 Y40.775 F7800.000
G1 X100.000 Y40.555 F7800.000
G1 F1200
G1 X100.000 Y159.445 E67.85551
G1 Z2.450 F7800.000
G1 X100.725 Y40.275 F7800.000
G1 F1800
G1 X100.725 Y159.725 E70.31742
G1 X99.275 Y159.725 E70.34730
G1 X99.275 Y40.275 E72.80920
G1 X100.650 Y40.275 E72.83754
G1 X100.723 Y40.775 F7800.000
G1 X100.000 Y40.555 F7800.000
G1 F1200
G1 X100.000 Y159.445 E77.00035
G1 Z2.750 F7800.000
G1 X100.725 Y40.275 F7800.000
G1 F1800
G1 X100.725 Y159.725 E79.46226
G1 X99.275 Y159.725 E79.49214
G1 X99.275 Y40.275 E81.95405
G1 X100.650 Y40.275 E81.98239
G1 X100.723 Y40.775 F7800.000
G1 X100.000 Y40.555 F7800.000
G1 F1200
G1 X100.000 Y159.445 E86.14520
G1 Z3.050 F7800.000
G1 X100.725 Y40.275 F7800.000
G1 F1800
G1 X100.725 Y159.725 E88.60710
G1 X99.275 Y159.725 E88.63699
G1 X99.275 Y40.275 E91.09889
G1 X100.650 Y40.275 E91.12723
G1 X100.723 Y40.775 F7800.000
G1 X100.000 Y40.555 F7800.000
G1 F1200
G1 X100.000 Y159.445 E95.29004
G1 Z3.350 F7800.000
G1 X100.725 Y40.275 F7800.000
G1 F1800
G1 X100.725 Y159.725 E97.75194
G1 X99.275 Y159.725 E97.78183
G1 X99.275 Y40.275 E100.24373
G1 X100.650 Y40.275 E100.27207
G1 X100.723 Y40.775 F7800.000
G1 X100.000 Y40.555 F7800.000
G1 F1200
G1 X100.000 Y159.445 E104.43488
G1 Z3.650 F7800.000
G1 X100.725 Y40.275 F7800.000
G1 F1800
G1 X100.725 Y159.725 E106.89679
G1 X99.275 Y159.725 E106.92667
G1 X99.275 Y40.275 E109.38858
G1 X100.650 Y40.275 E109.41692
G1 X100.723 Y40.775 F7800.000
G1 X100.000 Y40.555 F7800.000
G1 F1200
G1 X100.000 Y159.445 E113.57973
G1 Z3.950 F7800.000
G1 X100.725 Y40.275 F7800.000
G1 F1800
G1 X100.725 Y159.725 E116.04163
G1 X99.275 Y159.725 E116.07152
G1 X99.275 Y40.275 E118.53342
G1 X100.650 Y40.275 E118.56176
G1 X100.723 Y40.775 F7800.000
G1 X100.000 Y40.555 F7800.000
G1 F1200
G1 X100.000 Y159.445 E122.72457
G1 Z4.250 F7800.000
G1 X100.725 Y40.275 F7800.000
G1 F1800
G1 X100.725 Y159.725 E125.18647
G1 X99.275 Y159.725 E125.21636
G1 X99.275 Y40.275 E127.67826
G1 X100.650 Y40.275 E127.70660
G1 X100.723 Y40.775 F7800.000
G1 X100.000 Y40.555 F7800.000
G1 F1200
G1 X100.000 Y159.445 E131.86941
G1 Z4.550 F7800.000
G1 X100.725 Y40.275 F7800.000
G1 F1800
G1 X100.725 Y159.725 E134.33132
G1 X99.275 Y159.725 E134.36120
G1 X99.275 Y40.275 E136.82310
G1 X100.650 Y40.275 E136.85144
G1 X100.723 Y40.775 F7800.000
G1 X100.000 Y40.555 F7800.000
G1 F1200
G1 X100.000 Y159.445 E141.01425
G1 Z4.850 F7800.000
G1 X100.725 Y40.275 F7800.000
G1 F1800
G1 X100.725 Y159.725 E143.47616
G1 X99.275 Y159.725 E143.50604
G1 X99.275 Y40.275 E145.96795
G1 X100.650 Y40.275 E145.99629
G1 X100.723 Y40.775 F7800.000
G1 X100.000 Y40.555 F7800.000
G1 F1200
G1 X100.000 Y159.445 E150.15910
G1 Z5.150 F7800.000
G1 E148.15910 F2400.00000
G92 E0
G1 X100.725 Y40.275 F7800.000
G1 E2.00000 F2400.00000
G1 F1800
G1 X100.725 Y159.725 E4.46190
G1 X99.275 Y159.725 E4.49179
G1 X99.275 Y40.275 E6.95369
G1 X100.650 Y40.275 E6.98203
G1 X100.723 Y40.775 F7800.000
G1 X100.000 Y40.555 F7800.000
G1 F1200
G1 X100.000 Y159.445 E11.14484
M106 S224.4
G1 Z5.450 F7800.000
G1 E9.14484 F2400.00000
G92 E0
G1 X100.725 Y150.378 F7800.000
G1 E2.00000 F2400.00000
G1 F900
G1 X100.725 Y157.664 E2.15016
G1 X99.275 Y159.114 E2.19242
G1 X99.275 Y151.535 E2.34864
G1 X100.666 Y150.425 E2.38531
G1 X100.698 Y150.878 F7800.000
G1 X100.000 Y151.315 F7800.000
G1 F1200
G1 X100.000 Y157.993 E2.61912
G1 E0.61912 F2400.00000
G92 E0
G1 X99.275 Y146.866 F7800.000
G1 E2.00000 F2400.00000
G1 F900
G1 X99.275 Y140.921 E2.12254
G1 X100.725 Y140.010 E2.15783
G1 X100.725 Y145.710 E2.27531
G1 X99.334 Y146.819 E2.31199
G1 X99.407 Y146.384 F7800.000
G1 X100.000 Y145.929 F7800.000
G1 F1200
G1 X100.000 Y140.796 E2.49172
G1 E0.49172 F2400.00000
G92 E0
G1 X99.275 Y136.610 F7800.000
G1 E2.00000 F2400.00000
G1 F900
G1 X99.275 Y131.735 E2.10047
G1 X100.725 Y131.037 E2.13364
G1 X100.725 Y135.699 E2.22973
G1 X99.339 Y136.570 E2.26348
G1 X99.317 Y136.112 F7800.000
G1 X100.000 Y135.823 F7800.000
G1 F1200
G1 X100.000 Y131.697 E2.40796
G1 E0.40796 F2400.00000
G92 E0
G1 X99.275 Y127.684 F7800.000
G1 E2.00000 F2400.00000
G1 F900
G1 X99.275 Y123.519 E2.08585
G1 X100.725 Y123.011 E2.11751
G1 X100.725 Y126.986 E2.19942
G1 X99.343 Y127.651 E2.23104
G1 X99.325 Y127.186 F7800.000
G1 X100.000 Y127.024 F7800.000
G1 F1200
G1 X100.000 Y123.562 E2.35225
G1 E0.35225 F2400.00000
G92 E0
G1 X99.275 Y119.652 F7800.000
G1 E2.00000 F2400.00000
G1 F900
G1 X99.275 Y115.949 E2.07632
G1 X100.725 Y115.618 E2.10698
G1 X100.725 Y119.144 E2.17966
G1 X99.346 Y119.627 E2.20978
G1 X99.332 Y119.155 F7800.000
G1 X100.000 Y119.101 F7800.000
G1 F1200
G1 X100.000 Y116.071 E2.31589
G1 E0.31589 F2400.00000
G92 E0
G1 X99.275 Y112.205 F7800.000
G1 E2.00000 F2400.00000
G1 F900
G1 X99.275 Y108.781 E2.07057
G1 X100.725 Y108.617 E2.10065
G1 X100.725 Y111.874 E2.16777
G1 X99.348 Y112.188 E2.19688
G1 X99.339 Y111.709 F7800.000
G1 X100.000 Y111.752 F7800.000
G1 F1200
G1 X100.000 Y108.981 E2.29389
G1 E0.29389 F2400.00000
G92 E0
G1 X99.275 Y105.107 F7800.000
G1 E2.00000 F2400.00000
G1 F900
G1 X99.275 Y101.815 E2.06787
G1 X100.725 Y101.815 E2.09775
G1 X100.725 Y104.944 E2.16225
G1 X99.350 Y105.099 E2.19078
G1 X99.344 Y104.612 F7800.000
G1 X100.000 Y104.744 F7800.000
G1 F1200
G1 X100.000 Y102.095 E2.28353
G1 E0.28353 F2400.00000
G92 E0
G1 X99.275 Y98.165 F7800.000
G1 E2.00000 F2400.00000
G1 F900
G1 X99.275 Y94.871 E2.06788
G1 X100.725 Y95.034 E2.09795
G1 X100.725 Y98.165 E2.16247
G1 X99.350 Y98.165 E2.19081
G1 X99.347 Y97.670 F7800.000
G1 X100.000 Y97.884 F7800.000
G1 F1200
G1 X100.000 Y95.235 E2.28357
G1 E0.28357 F2400.00000
G92 E0
G1 X100.725 Y91.361 F7800.000
G1 E2.00000 F2400.00000
G1 F900
G1 X99.275 Y91.198 E2.03007
G1 X99.275 Y87.772 E2.10069
G1 X100.725 Y88.103 E2.13134
G1 X100.725 Y91.286 E2.19695
G1 X100.279 Y91.135 F7800.000
G1 X100.000 Y90.998 F7800.000
G1 F1200
G1 X100.000 Y88.225 E2.29403
G1 E0.29403 F2400.00000
G92 E0
G1 X100.725 Y84.359 F7800.000
G1 E2.00000 F2400.00000
G1 F900
G1 X99.275 Y84.028 E2.03065
G1 X99.275 Y80.322 E2.10704
G1 X100.725 Y80.829 E2.13870
G1 X100.725 Y84.284 E2.20991
G1 X100.301 Y84.094 F7800.000
G1 X100.000 Y83.906 F7800.000
G1 F1200
G1 X100.000 Y80.872 E2.31613
G1 E0.31613 F2400.00000
G92 E0
G1 X100.725 Y76.962 F7800.000
G1 E2.00000 F2400.00000
G1 F900
G1 X99.275 Y76.455 E2.03166
G1 X99.275 Y72.285 E2.11761
G1 X100.725 Y72.983 E2.15078
G1 X100.725 Y76.887 E2.23124
G1 X100.326 Y76.660 F7800.000
G1 X100.000 Y76.411 F7800.000
G1 F1200
G1 X100.000 Y72.945 E2.35261
G1 E0.35261 F2400.00000
G92 E0
G1 X100.725 Y68.932 F7800.000
G1 E2.00000 F2400.00000
G1 F900
G1 X99.275 Y68.234 E2.03317
G1 X99.275 Y63.352 E2.13378
G1 X100.725 Y64.263 E2.16908
G1 X100.725 Y68.857 E2.26376
G1 X100.355 Y68.595 F7800.000
G1 X100.000 Y68.272 F7800.000
G1 F1200
G1 X100.000 Y64.139 E2.40847
G1 E0.40847 F2400.00000
G92 E0
G1 X100.725 Y59.952 F7800.000
G1 E2.00000 F2400.00000
G1 F900
G1 X99.275 Y59.041 E2.03529
G1 X99.275 Y53.087 E2.15802
G1 X100.725 Y54.243 E2.19625
G1 X100.725 Y59.877 E2.31237
G1 X100.387 Y59.584 F7800.000
G1 X100.000 Y59.166 F7800.000
G1 F1200
G1 X100.000 Y54.023 E2.49244
G1 E0.49244 F2400.00000
G92 E0
G1 X100.725 Y49.574 F7800.000
G1 E2.00000 F2400.00000
G1 F900
G1 X99.275 Y48.418 E2.03822
G1 X99.275 Y40.826 E2.19470
G1 X100.725 Y42.276 E2.23697
G1 X100.725 Y49.499 E2.38584
G1 X100.421 Y49.177 F7800.000
G1 X100.000 Y48.638 F7800.000
G1 F1200
G1 X100.000 Y41.947 E2.62010
G1 Z5.750 F7800.000
G1 E0.62010 F2400.00000
G92 E0
G1 X100.725 Y150.378 F7800.000
G1 E2.00000 F2400.00000
G1 F900
G1 X100.725 Y157.664 E2.15016
G1 X99.275 Y159.114 E2.19242
G1 X99.275 Y151.535 E2.34864
G1 X100.666 Y150.425 E2.38531
G1 X100.698 Y150.878 F7800.000
G1 X100.000 Y151.315 F7800.000
G1 F1200
G1 X100.000 Y157.993 E2.61912
G1 E0.61912 F2400.00000
G92 E0
G1 X99.275 Y146.866 F7800.000
G1 E2.00000 F2400.00000
G1 F900
G1 X99.275 Y140.921 E2.12254
G1 X100.725 Y140.010 E2.15783
G1 X100.725 Y145.710 E2.27531
G1 X99.334 Y146.819 E2.31199
G1 X99.388 Y146.379 F7800.000
G1 X100.000 Y145.929 F7800.000
G1 F1200
G1 X100.000 Y140.796 E2.49172
G1 E0.49172 F2400.00000
G92 E0
G1 X99.275 Y136.610 F7800.000
G1 E2.00000 F2400.00000
G1 F900
G1 X99.275 Y131.735 E2.10047
G1 X100.725 Y131.037 E2.13364
G1 X100.725 Y135.699 E2.22973
G1 X99.339 Y136.570 E2.26348
G1 X99.317 Y136.112 F7800.000
G1 X100.000 Y135.823 F7800.000
G1 F1200
G1 X100.000 Y131.697 E2.40796
G1 E0.40796 F2400.00000
G92 E0
G1 X99.275 Y127.684 F7800.000
G1 E2.00000 F2400.00000
G1 F900
G1 X99.275 Y123.519 E2.08585
G1 X100.725 Y123.011 E2.11751
G1 X100.725 Y126.986 E2.19942
G1 X99.343 Y127.651 E2.23104
G1 X99.325 Y127.186 F7800.000
G1 X100.000 Y127.024 F7800.000
G1 F1200
G1 X100.000 Y123.562 E2.35225
G1 E0.35225 F2400.00000
G92 E0
G1 X99.275 Y119.652 F7800.000
G1 E2.00000 F2400.00000
G1 F900
G1 X99.275 Y115.949 E2.07632
G1 X100.725 Y115.618 E2.10698
G1 X100.725 Y119.144 E2.17966
G1 X99.346 Y119.627 E2.20978
G1 X99.332 Y119.155 F7800.000
G1 X100.000 Y119.101 F7800.000
G1 F1200
G1 X100.000 Y116.071 E2.31589
G1 E0.31589 F2400.00000
G92 E0
G1 X99.275 Y112.205 F7800.000
G1 E2.00000 F2400.00000
G1 F900
G1 X99.275 Y108.781 E2.07057
G1 X100.725 Y108.617 E2.10065
G1 X100.725 Y111.874 E2.16777
G1 X99.348 Y112.188 E2.19688
G1 X99.339 Y111.709 F7800.000
G1 X100.000 Y111.752 F7800.000
G1 F1200
G1 X100.000 Y108.981 E2.29389
G1 E0.29389 F2400.00000
G92 E0
G1 X99.275 Y105.107 F7800.000
G1 E2.00000 F2400.00000
G1 F900
G1 X99.275 Y101.815 E2.06787
G1 X100.725 Y101.815 E2.09775
G1 X100.725 Y104.944 E2.16225
G1 X99.350 Y105.099 E2.19078
G1 X99.344 Y104.612 F7800.000
G1 X100.000 Y104.744 F7800.000
G1 F1200
G1 X100.000 Y102.095 E2.28353
G1 E0.28353 F2400.00000
G92 E0
G1 X99.275 Y98.165 F7800.000
G1 E2.00000 F2400.00000
G1 F900
G1 X99.275 Y94.871 E2.06788
G1 X100.725 Y95.034 E2.09795
G1 X100.725 Y98.165 E2.16247
G1 X99.350 Y98.165 E2.19081
G1 X99.347 Y97.670 F7800.000
G1 X100.000 Y97.884 F7800.000
G1 F1200
G1 X100.000 Y95.235 E2.28357
G1 E0.28357 F2400.00000
G92 E0
G1 X100.725 Y91.361 F7800.000
G1 E2.00000 F2400.00000
G1 F900
G1 X99.275 Y91.198 E2.03007
G1 X99.275 Y87.772 E2.10069
G1 X100.725 Y88.103 E2.13134
G1 X100.725 Y91.286 E2.19695
G1 X100.279 Y91.135 F7800.000
G1 X100.000 Y90.998 F7800.000
G1 F1200
G1 X100.000 Y88.225 E2.29403
G1 E0.29403 F2400.00000
G92 E0
G1 X100.725 Y84.359 F7800.000
G1 E2.00000 F2400.00000
G1 F900
G1 X99.275 Y84.028 E2.03065
G1 X99.275 Y80.322 E2.10704
G1 X100.725 Y80.829 E2.13870
G1 X100.725 Y84.284 E2.20991
G1 X100.301 Y84.094 F7800.000
G1 X100.000 Y83.906 F7800.000
G1 F1200
G1 X100.000 Y80.872 E2.31613
G1 E0.31613 F2400.00000
G92 E0
G1 X100.725 Y76.962 F7800.000
G1 E2.00000 F2400.00000
G1 F900
G1 X99.275 Y76.455 E2.03166
G1 X99.275 Y72.285 E2.11761
G1 X100.725 Y72.983 E2.15078
G1 X100.725 Y76.887 E2.23124
G1 X100.326 Y76.660 F7800.000
G1 X100.000 Y76.411 F7800.000
G1 F1200
G1 X100.000 Y72.945 E2.35261
G1 E0.35261 F2400.00000
G92 E0
G1 X100.725 Y68.932 F7800.000
G1 E2.00000 F2400.00000
G1 F900
G1 X99.275 Y68.234 E2.03317
G1 X99.275 Y63.352 E2.13378
G1 X100.725 Y64.263 E2.16908
G1 X100.725 Y68.857 E2.26376
G1 X100.382 Y68.568 F7800.000
G1 X100.000 Y68.272 F7800.000
G1 F1200
G1 X100.000 Y64.139 E2.40847
G1 E0.40847 F2400.00000
G92 E0
G1 X100.725 Y59.952 F7800.000
G1 E2.00000 F2400.00000
G1 F900
G1 X99.275 Y59.041 E2.03529
G1 X99.275 Y53.087 E2.15802
G1 X100.725 Y54.243 E2.19625
G1 X100.725 Y59.877 E2.31237
G1 X100.410 Y59.564 F7800.000
G1 X100.000 Y59.166 F7800.000
G1 F1200
G1 X100.000 Y54.023 E2.49244
G1 E0.49244 F2400.00000
G92 E0
G1 X100.725 Y49.574 F7800.000
G1 E2.00000 F2400.00000
G1 F900
G1 X99.275 Y48.418 E2.03822
G1 X99.275 Y40.826 E2.19470
G1 X100.725 Y42.276 E2.23697
G1 X100.725 Y49.499 E2.38584
G1 X100.421 Y49.177 F7800.000
G1 X100.000 Y48.638 F7800.000
G1 F1200
G1 X100.000 Y41.947 E2.62010
G1 Z6.050 F7800.000
G1 E0.62010 F2400.00000
G92 E0
G1 X100.725 Y150.378 F7800.000
G1 E2.00000 F2400.00000
G1 F900
G1 X100.725 Y157.664 E2.15016
G1 X99.275 Y159.114 E2.19242
G1 X99.275 Y151.535 E2.34864
G1 X100.666 Y150.425 E2.38531
G1 X100.698 Y150.878 F7800.000
G1 X100.000 Y151.315 F7800.000
G1 F1200
G1 X100.000 Y157.993 E2.61912
G1 E0.61912 F2400.00000
G92 E0
G1 X99.275 Y146.866 F7800.000
G1 E2.00000 F2400.00000
G1 F900
G1 X99.275 Y140.921 E2.12254
G1 X100.725 Y140.010 E2.15783
G1 X100.725 Y145.710 E2.27531
G1 X99.334 Y146.819 E2.31199
G1 X99.373 Y146.376 F7800.000
G1 X100.000 Y145.929 F7800.000
G1 F1200
G1 X100.000 Y140.796 E2.49172
G1 E0.49172 F2400.00000
G92 E0
G1 X99.275 Y136.610 F7800.000
G1 E2.00000 F2400.00000
G1 F900
G1 X99.275 Y131.735 E2.10047
G1 X100.725 Y131.037 E2.13364
G1 X100.725 Y135.699 E2.22973
G1 X99.339 Y136.570 E2.26348
G1 X99.317 Y136.112 F7800.000
G1 X100.000 Y135.823 F7800.000
G1 F1200
G1 X100.000 Y131.697 E2.40796
G1 E0.40796 F2400.00000
G92 E0
G1 X99.275 Y127.684 F7800.000
G1 E2.00000 F2400.00000
G1 F900
