;FLAVOR:Marlin
;TIME:9012
;Filament used: 8.01693m
;Layer height: 0.15
;MINX:33.662
;MINY:34.278
;MINZ:0.3
;MAXX:186.025
;MAXY:185.722
;MAXZ:7.5
;Generated with Cura_SteamEngine 5.0.0
M140 S60
M105
M190 S60
M104 S210
M105
M109 S210
M82 ;absolute extrusion mode
; Aquila X2 Custom Start G-code
G92 E0 ; Reset Extruder
G28 ; Home all axes
M420 S1
G1 Z2.0 F3000 ; Move Z Axis up little to prevent scratching of Heat Bed
G1 X0.1 Y20 Z0.3 F5000.0 ; Move to start position
G1 X0.1 Y200.0 Z0.3 F1500.0 E15 ; Draw the first line
G1 X0.4 Y200.0 Z0.3 F5000.0 ; Move to side a little
G1 X0.4 Y20 Z0.3 F1500.0 E30 ; Draw the second line
G92 E0 ; Reset Extruder
G1 Z2.0 F3000 ; Move Z Axis up little to prevent scratching of Heat Bed
G1 X5 Y20 Z0.3 F5000.0 ; Move over to prevent blob squish
G92 E0
G92 E0
G1 F2400 E-5
;LAYER_COUNT:49
;LAYER:0
M107
G0 F3600 X56.249 Y56.039 Z0.3
G0 X52.183 Y60.371
;TYPE:SKIRT
G1 F2400 E0
G1 F1800 X53.075 Y59.364 E0.06712
G1 X53.733 Y58.641 E0.11589
G1 X54.806 Y57.501 E0.19399
G1 X55.443 Y56.846 E0.23958
G1 X56.249 Y56.039 E0.29648
G1 X57.365 Y54.967 E0.37368
G1 X58.125 Y54.256 E0.4256
G1 X59.263 Y53.233 E0.50195
G1 X60.096 Y52.506 E0.55711
G1 X61.186 Y51.593 E0.62804
G1 X62.081 Y50.862 E0.6857
G1 X63.304 Y49.907 E0.76311
G1 X64.132 Y49.279 E0.81496
G1 X65.392 Y48.362 E0.8927
G1 X66.277 Y47.737 E0.94676
G1 X67.45 Y46.945 E1.01737
G1 X68.418 Y46.31 E1.07513
G1 X69.723 Y45.49 E1.15202
G1 X70.617 Y44.947 E1.2042
G1 X71.851 Y44.23 E1.27541
G1 X72.88 Y43.652 E1.33429
G1 X74.254 Y42.916 E1.41205
G1 X75.131 Y42.461 E1.46134
G1 X76.566 Y41.755 E1.54113
G1 X77.458 Y41.332 E1.59038
G1 X78.864 Y40.698 E1.66733
G1 X79.822 Y40.282 E1.71944
G1 X81.249 Y39.696 E1.7964
G1 X82.064 Y39.371 E1.84017
G1 X83.104 Y38.98 E1.89561
G1 X84.809 Y38.372 E1.98592
G1 X86.105 Y37.942 E2.05404
G1 X87.282 Y37.572 E2.11559
G1 X88.661 Y37.166 E2.18731
G1 X89.754 Y36.863 E2.2439
G1 X91.125 Y36.511 E2.31452
G1 X92.277 Y36.233 E2.37364
G1 X93.658 Y35.927 E2.44421
G1 X94.852 Y35.683 E2.50501
G1 X96.142 Y35.443 E2.57047
G1 X97.401 Y35.23 E2.63418
G1 X98.746 Y35.028 E2.70203
G1 X99.907 Y34.872 E2.76047
G1 X101.232 Y34.717 E2.82703
G1 X102.513 Y34.589 E2.89126
G1 X103.86 Y34.479 E2.95868
G1 X105.214 Y34.391 E3.02638
G1 X106.498 Y34.333 E3.0905
G1 X107.548 Y34.298 E3.14291
G1 X109.065 Y34.278 E3.2186
G1 X110.336 Y34.284 E3.28202
G1 X111.738 Y34.314 E3.35198
G1 X112.935 Y34.361 E3.41174
G1 X114.224 Y34.432 E3.47615
G1 X115.584 Y34.532 E3.54418
G1 X116.801 Y34.642 E3.60515
G1 X118.233 Y34.797 E3.67701
G1 X119.392 Y34.942 E3.73528
G1 X120.791 Y35.143 E3.80579
G1 X121.937 Y35.326 E3.86369
G1 X123.382 Y35.583 E3.93691
G1 X124.493 Y35.801 E3.9934
G1 X125.953 Y36.115 E4.0679
G1 X127.091 Y36.379 E4.12619
G1 X128.434 Y36.715 E4.19525
G1 X129.567 Y37.018 E4.25377
G1 X130.943 Y37.414 E4.3252
G1 X132.013 Y37.739 E4.38099
G1 X133.432 Y38.201 E4.45544
G1 X134.552 Y38.585 E4.51451
G1 X135.909 Y39.078 E4.58655
G1 X136.908 Y39.459 E4.63989
G1 X138.387 Y40.055 E4.71944
G1 X139.139 Y40.37 E4.76012
G1 X140.677 Y41.05 E4.84401
G1 X141.698 Y41.521 E4.90011
G1 X143.051 Y42.179 E4.97517
G1 X144.133 Y42.725 E5.03563
G1 X145.336 Y43.361 E5.10352
G1 X146.345 Y43.915 E5.16095
G1 X147.722 Y44.704 E5.24013
G1 X148.38 Y45.094 E5.27829
G1 X149.845 Y45.999 E5.3642
G1 X150.606 Y46.485 E5.40925
G1 X151.977 Y47.4 E5.49148
G1 X152.982 Y48.092 E5.55236
G1 X154.17 Y48.95 E5.62547
G1 X155.004 Y49.568 E5.67726
G1 X156.256 Y50.536 E5.75621
G1 X157.036 Y51.158 E5.80598
G1 X158.321 Y52.224 E5.88928
G1 X158.907 Y52.722 E5.92765
G1 X160.206 Y53.874 E6.01427
G1 X161.021 Y54.622 E6.06946
G1 X162.07 Y55.623 E6.1418
G1 X162.902 Y56.437 E6.19987
G1 X163.888 Y57.444 E6.27018
G1 X164.697 Y58.295 E6.32876
G1 X165.642 Y59.328 E6.39861
G1 X166.455 Y60.241 E6.4596
G1 X167.362 Y61.305 E6.52935
G1 X168.133 Y62.233 E6.58954
G1 X168.999 Y63.321 E6.65892
G1 X170.023 Y64.661 E6.74306
G1 X171.123 Y66.166 E6.83606
G1 X171.995 Y67.431 E6.91271
G1 X172.855 Y68.728 E6.99035
G1 X173.348 Y69.498 E7.03597
G1 X174.325 Y71.082 E7.12882
G1 X174.723 Y71.754 E7.16778
G1 X175.618 Y73.325 E7.25799
G1 X176.012 Y74.049 E7.29911
G1 X176.824 Y75.594 E7.38619
G1 X177.209 Y76.36 E7.42896
G1 X178.001 Y78.002 E7.51991
G1 X178.325 Y78.709 E7.55871
G1 X179.045 Y80.346 E7.64793
G1 X179.371 Y81.127 E7.69015
G1 X180.036 Y82.795 E7.77974
G1 X180.323 Y83.552 E7.82013
G1 X180.939 Y85.264 E7.9109
G1 X181.285 Y86.282 E7.96454
G1 X182.2 Y88.852 E8.10065
G1 X183.195 Y91.415 E8.23781
G1 X184.251 Y93.918 E8.37335
G1 X184.753 Y95.021 E8.43381
G1 X184.801 Y95.153 E8.44081
G1 X185.324 Y96.307 E8.50402
G1 X185.496 Y96.783 E8.52927
G1 X185.609 Y97.531 E8.56702
G1 X185.62 Y97.956 E8.58823
G1 X185.621 Y104.207 E8.90009
G1 X185.608 Y104.988 E8.93906
G1 X185.57 Y105.891 E8.98415
G1 X185.492 Y108.682 E9.12345
G1 X185.492 Y111.402 E9.25915
G1 X185.572 Y114.177 E9.39765
G1 X185.602 Y114.792 E9.42837
G1 X185.62 Y115.456 E9.46151
G1 X185.621 Y121.706 E9.77332
G1 X185.611 Y122.418 E9.80885
G1 X185.564 Y122.921 E9.83405
G1 X185.438 Y123.411 E9.85929
G1 X185.326 Y123.693 E9.87443
G1 X184.119 Y126.357 E10.02035
G1 X183.056 Y128.899 E10.15781
G1 X182.077 Y131.438 E10.29357
G1 X180.687 Y135.447 E10.50526
G1 X179.808 Y137.792 E10.6302
G1 X178.81 Y140.196 E10.76006
G1 X177.753 Y142.518 E10.88735
G1 X176.606 Y144.829 E11.01606
G1 X176.042 Y145.881 E11.07561
G1 X175.919 Y146.135 E11.08969
G1 X175.379 Y147.101 E11.14491
G1 X174.045 Y149.377 E11.27652
G1 X172.67 Y151.554 E11.40498
G1 X172.261 Y152.149 E11.441
G1 X171.638 Y153.078 E11.49681
G1 X170.825 Y154.245 E11.56777
G1 X169.664 Y155.818 E11.66531
G1 X168.45 Y157.37 E11.76361
G1 X167.917 Y158.029 E11.80589
G1 X166.681 Y159.496 E11.9016
G1 X166.282 Y159.958 E11.93205
G1 X165.011 Y161.364 E12.02661
G1 X164.336 Y162.09 E12.07607
G1 X163.377 Y163.08 E12.14483
G1 X162.483 Y163.978 E12.20805
G1 X161.364 Y165.054 E12.2855
G1 X160.666 Y165.708 E12.33322
G1 X158.986 Y167.21 E12.44565
G1 X158.122 Y167.945 E12.50224
G1 X156.704 Y169.11 E12.5938
G1 X155.519 Y170.038 E12.66889
G1 X154.6 Y170.736 E12.72647
G1 X153.513 Y171.529 E12.79359
G1 X152.48 Y172.258 E12.85667
G1 X151.234 Y173.1 E12.9317
G1 X150.332 Y173.69 E12.98547
G1 X149.071 Y174.483 E13.05979
G1 X148.186 Y175.021 E13.11146
G1 X146.848 Y175.8 E13.1887
G1 X145.805 Y176.384 E13.24834
G1 X144.563 Y177.049 E13.31863
G1 X143.544 Y177.576 E13.37586
G1 X142.244 Y178.216 E13.44815
G1 X141.153 Y178.732 E13.50836
G1 X140.025 Y179.243 E13.57014
G1 X138.875 Y179.74 E13.63265
G1 X137.497 Y180.307 E13.70699
G1 X136.418 Y180.73 E13.76481
G1 X135.153 Y181.199 E13.83212
G1 X134.008 Y181.604 E13.89271
G1 X132.637 Y182.06 E13.96479
G1 X131.504 Y182.418 E14.02407
G1 X130.196 Y182.804 E14.09211
G1 X128.917 Y183.158 E14.15832
G1 X127.692 Y183.473 E14.22142
G1 X126.52 Y183.756 E14.28158
G1 X125.127 Y184.066 E14.35277
G1 X123.795 Y184.338 E14.4206
G1 X122.589 Y184.56 E14.48178
G1 X121.362 Y184.767 E14.54386
G1 X119.958 Y184.979 E14.6147
G1 X118.758 Y185.139 E14.67509
G1 X117.422 Y185.293 E14.74219
G1 X116.191 Y185.416 E14.80391
G1 X114.793 Y185.528 E14.87388
G1 X113.565 Y185.606 E14.93527
G1 X112.366 Y185.662 E14.99515
G1 X110.96 Y185.706 E15.06533
G1 X109.718 Y185.722 E15.1273
G1 X108.331 Y185.715 E15.1965
G1 X107.114 Y185.689 E15.25723
G1 X105.696 Y185.634 E15.32803
G1 X104.473 Y185.564 E15.38914
G1 X103.245 Y185.474 E15.45057
G1 X101.811 Y185.344 E15.52241
G1 X100.615 Y185.214 E15.58243
G1 X99.235 Y185.041 E15.65182
G1 X98.107 Y184.881 E15.70866
G1 X96.741 Y184.662 E15.77768
G1 X95.418 Y184.425 E15.84473
G1 X94.25 Y184.198 E15.90409
G1 X92.835 Y183.894 E15.9763
G1 X91.93 Y183.689 E16.02259
G1 X90.353 Y183.294 E16.1037
G1 X89.159 Y182.975 E16.16536
G1 X87.823 Y182.59 E16.23472
G1 X86.643 Y182.231 E16.29626
G1 X85.158 Y181.747 E16.37418
G1 X84.479 Y181.515 E16.40998
G1 X82.784 Y180.9 E16.49994
G1 X81.841 Y180.54 E16.5503
G1 X80.337 Y179.935 E16.63117
G1 X79.659 Y179.651 E16.66785
G1 X78.061 Y178.944 E16.75503
G1 X77.057 Y178.481 E16.81019
G1 X75.668 Y177.807 E16.88721
G1 X74.718 Y177.327 E16.94031
G1 X73.435 Y176.65 E17.01269
G1 X72.459 Y176.115 E17.06822
G1 X71.226 Y175.409 E17.1391
G1 X70.24 Y174.827 E17.19622
G1 X68.801 Y173.935 E17.28069
G1 X68.153 Y173.522 E17.31902
G1 X66.628 Y172.502 E17.41056
G1 X66.024 Y172.089 E17.44706
G1 X64.614 Y171.077 E17.53365
G1 X63.927 Y170.569 E17.57628
G1 X62.535 Y169.495 E17.66399
G1 X61.651 Y168.792 E17.72034
G1 X60.464 Y167.806 E17.79733
G1 X59.841 Y167.275 E17.83817
G1 X58.502 Y166.088 E17.92744
G1 X57.917 Y165.554 E17.96696
G1 X56.659 Y164.357 E18.05359
G1 X55.792 Y163.507 E18.11416
G1 X54.806 Y162.499 E18.18451
G1 X54.177 Y161.839 E18.23
G1 X53.053 Y160.61 E18.31309
G1 X52.302 Y159.766 E18.36945
G1 X51.316 Y158.608 E18.44533
G1 X50.601 Y157.745 E18.50124
G1 X49.703 Y156.617 E18.57318
G1 X49.023 Y155.734 E18.62878
G1 X48.25 Y154.69 E18.69359
G1 X47.341 Y153.416 E18.77167
G1 X46.822 Y152.663 E18.81729
G1 X45.817 Y151.151 E18.90787
G1 X45.339 Y150.406 E18.95203
G1 X44.468 Y148.987 E19.0351
G1 X44.024 Y148.238 E19.07854
G1 X43.131 Y146.671 E19.16852
G1 X42.742 Y145.961 E19.20891
G1 X41.907 Y144.368 E19.29864
G1 X41.526 Y143.607 E19.3411
G1 X40.764 Y142.025 E19.4287
G1 X40.432 Y141.305 E19.46826
G1 X39.686 Y139.607 E19.56079
G1 X39.368 Y138.844 E19.60203
G1 X38.723 Y137.227 E19.68888
G1 X38.424 Y136.44 E19.73088
G1 X37.822 Y134.767 E19.81959
G1 X37.556 Y133.984 E19.86085
G1 X37.003 Y132.259 E19.95122
G1 X36.763 Y131.464 E19.99265
G1 X36.279 Y129.753 E20.08136
G1 X36.072 Y128.967 E20.12191
G1 X35.644 Y127.228 E20.21126
G1 X35.457 Y126.404 E20.25342
G1 X35.095 Y124.682 E20.34121
G1 X34.934 Y123.847 E20.38363
G1 X34.631 Y122.099 E20.47214
G1 X34.507 Y121.305 E20.51223
G1 X34.254 Y119.492 E20.60356
G1 X34.159 Y118.702 E20.64326
G1 X33.971 Y116.884 E20.73444
G1 X33.901 Y116.064 E20.7755
G1 X33.782 Y114.34 E20.86172
G1 X33.737 Y113.463 E20.90553
G1 X33.676 Y111.703 E20.99339
G1 X33.663 Y110.862 E21.03535
G1 X33.662 Y109.103 E21.12311
G1 X33.678 Y108.253 E21.16552
G1 X33.737 Y106.529 E21.25158
G1 X33.781 Y105.665 E21.29474
G1 X33.9 Y103.942 E21.38091
G1 X33.971 Y103.12 E21.42207
G1 X34.158 Y101.312 E21.51275
G1 X34.252 Y100.531 E21.552
G1 X34.489 Y98.811 E21.63862
G1 X34.62 Y97.968 E21.68118
G1 X34.921 Y96.228 E21.76928
G1 X35.098 Y95.297 E21.81656
G1 X35.29 Y94.38 E21.8633
G1 X35.821 Y92.027 E21.98365
G1 X35.976 Y91.418 E22.015
G1 X36.506 Y89.431 E22.1176
G1 X37.227 Y87.026 E22.24286
G1 X38.064 Y84.546 E22.37344
G1 X39.049 Y81.941 E22.51239
G1 X39.934 Y79.817 E22.62718
G1 X40.672 Y78.176 E22.71695
G1 X41.029 Y77.413 E22.75898
G1 X42.189 Y75.086 E22.8887
G1 X42.484 Y74.547 E22.91935
G1 X42.987 Y73.598 E22.97294
G1 X43.409 Y72.831 E23.01661
G1 X44.068 Y71.707 E23.08162
G1 X44.136 Y71.566 E23.08943
G1 X45.253 Y69.729 E23.19669
G1 X45.329 Y69.626 E23.20307
G1 X46.088 Y68.434 E23.27358
G1 X46.849 Y67.31 E23.3413
G1 X46.9 Y67.219 E23.3465
G1 X47.548 Y66.292 E23.40293
G1 X48.007 Y65.671 E23.44145
G1 X48.722 Y64.68 E23.50242
G1 X49.459 Y63.696 E23.56376
G1 X50.802 Y62.007 E23.67141
G1 X52.183 Y60.371 E23.77822
G1 F2400 E18.77822
;MESH:LightCover-Cover.stl
G0 F3600 X54.585 Y61.471
G0 X55.409 Y62.19
G0 X180.765 Y104.847
G1 F2400 E23.77822
G0 F3600 X181.176 Y104.847
;TYPE:WALL-OUTER
G1 F1800 X181.232 Y104.734 E23.78452
G1 X181.375 Y104.675 E23.79223
G1 X182.221 Y104.675 E23.83444
G1 X182.22 Y97.825 E24.17619
G1 X180.838 Y97.825 E24.24514
G1 X180.682 Y97.752 E24.25373
G1 X180.467 Y96.755 E24.30461
G1 X180.153 Y95.117 E24.38782
G1 X179.597 Y92.681 E24.51248
G1 X178.958 Y90.272 E24.63682
G1 X178.237 Y87.881 E24.76141
G1 X177.432 Y85.516 E24.88605
G1 X176.546 Y83.183 E25.01056
G1 X175.58 Y80.88 E25.13515
G1 X174.536 Y78.611 E25.25976
G1 X173.414 Y76.383 E25.38422
G1 X172.216 Y74.193 E25.50875
G1 X170.942 Y72.046 E25.63331
G1 X169.594 Y69.943 E25.75793
G1 X168.476 Y68.31 E25.85667
G1 X168.079 Y67.758 E25.89059
G1 X167 Y66.296 E25.98124
G1 X166.69 Y65.886 E26.00688
G1 X165.613 Y64.525 E26.09347
G1 X165.132 Y63.93 E26.13164
G1 X164.025 Y62.628 E26.21691
G1 X163.508 Y62.032 E26.25627
G1 X162.373 Y60.787 E26.34032
G1 X161.821 Y60.192 E26.38081
G1 X160.663 Y59.005 E26.46354
G1 X160.117 Y58.461 E26.502
G1 X158.888 Y57.283 E26.58693
G1 X158.309 Y56.741 E26.6265
G1 X156.924 Y55.5 E26.71928
G1 X156.445 Y55.087 E26.75083
G1 X155.172 Y54.024 E26.83357
G1 X154.522 Y53.497 E26.87532
G1 X153.231 Y52.489 E26.95703
G1 X152.547 Y51.972 E26.99981
G1 X151.233 Y51.02 E27.08076
G1 X150.52 Y50.52 E27.12421
G1 X149.058 Y49.536 E27.21213
G1 X148.376 Y49.093 E27.2527
G1 X146.97 Y48.214 E27.33543
G1 X146.323 Y47.826 E27.37307
G1 X145.321 Y47.247 E27.4308
G1 X144.636 Y46.856 E27.47015
G1 X144.082 Y46.545 E27.50185
G1 X142.808 Y45.868 E27.57383
G1 X141.951 Y45.426 E27.62194
G1 X140.595 Y44.762 E27.69726
G1 X139.704 Y44.341 E27.74643
G1 X138.213 Y43.672 E27.82796
G1 X137.424 Y43.334 E27.87078
G1 X136.067 Y42.779 E27.94392
G1 X135.109 Y42.407 E27.9952
G1 X133.754 Y41.907 E28.06725
G1 X132.763 Y41.56 E28.11964
G1 X131.398 Y41.109 E28.19136
G1 X130.39 Y40.795 E28.24403
G1 X129.045 Y40.402 E28.31394
G1 X127.991 Y40.113 E28.36846
G1 X126.654 Y39.771 E28.43732
G1 X125.57 Y39.512 E28.49292
G1 X124.242 Y39.219 E28.56077
G1 X123.131 Y38.995 E28.61731
G1 X121.816 Y38.753 E28.68402
G1 X120.673 Y38.563 E28.74182
G1 X119.372 Y38.37 E28.80744
G1 X118.203 Y38.216 E28.86627
G1 X116.918 Y38.069 E28.93079
G1 X116.342 Y38.015 E28.95966
G1 X115.724 Y37.954 E28.99064
G1 X114.454 Y37.854 E29.0542
G1 X113.236 Y37.778 E29.11508
G1 X111.985 Y37.722 E29.17756
G1 X110.742 Y37.688 E29.23959
G1 X109.512 Y37.676 E29.30096
G1 X108.123 Y37.684 E29.37026
G1 X107.042 Y37.713 E29.42421
G1 X105.757 Y37.766 E29.48837
G1 X104.571 Y37.835 E29.54764
G1 X103.268 Y37.934 E29.61284
G1 X102.109 Y38.041 E29.67091
G1 X100.788 Y38.187 E29.73721
G1 X99.653 Y38.332 E29.7943
G1 X98.317 Y38.526 E29.86165
G1 X97.208 Y38.706 E29.9177
G1 X95.859 Y38.95 E29.9861
G1 X94.779 Y39.164 E30.04103
G1 X93.417 Y39.46 E30.11056
G1 X92.367 Y39.705 E30.16435
G1 X90.994 Y40.051 E30.23499
G1 X89.972 Y40.327 E30.28781
G1 X88.594 Y40.727 E30.3594
G1 X87.616 Y41.026 E30.41042
G1 X86.217 Y41.483 E30.48384
G1 X85.257 Y41.814 E30.5345
G1 X83.724 Y42.375 E30.61595
G1 X82.939 Y42.679 E30.65794
G1 X81.55 Y43.242 E30.73272
G1 X80.655 Y43.623 E30.78125
G1 X79.265 Y44.242 E30.85716
G1 X78.402 Y44.643 E30.90464
G1 X77.016 Y45.319 E30.98157
G1 X76.186 Y45.741 E31.02802
G1 X74.805 Y46.474 E31.10603
G1 X74.009 Y46.912 E31.15135
G1 X72.636 Y47.702 E31.23038
G1 X71.874 Y48.156 E31.27464
G1 X70.508 Y49.008 E31.35495
G1 X69.78 Y49.475 E31.39811
G1 X68.428 Y50.383 E31.47936
G1 X67.734 Y50.864 E31.52148
G1 X66.399 Y51.83 E31.60369
G1 X65.74 Y52.321 E31.64469
G1 X64.418 Y53.346 E31.72815
G1 X63.792 Y53.846 E31.76812
G1 X62.493 Y54.929 E31.8525
G1 X61.9 Y55.438 E31.89149
G1 X60.622 Y56.58 E31.97699
G1 X60.063 Y57.092 E32.01481
G1 X58.808 Y58.292 E32.10144
G1 X58.238 Y58.853 E32.14134
G1 X57.055 Y60.068 E32.22595
G1 X56.562 Y60.587 E32.26166
G1 X55.237 Y62.041 E32.3598
G1 X54.906 Y62.419 E32.38487
G1 X53.614 Y63.938 E32.48436
G1 X53.211 Y64.436 E32.51632
G1 X52.158 Y65.765 E32.60091
G1 X51.757 Y66.282 E32.63355
G1 X51.387 Y67.035 E32.67541
G1 X51.175 Y67.492 E32.70054
G1 X50.677 Y68.172 E32.74259
G1 X50.555 Y68.25 E32.74982
G1 X50.268 Y68.337 E32.76478
G1 X49.775 Y69.453 E32.82565
G1 X49.37 Y70.055 E32.86185
G1 X49.202 Y70.274 E32.87562
G1 X48.879 Y70.382 E32.89261
G1 X48.611 Y71.004 E32.9264
G1 X48.423 Y71.492 E32.95249
G1 X47.907 Y72.312 E33.00083
G1 X47.799 Y72.396 E33.00765
G1 X47.559 Y72.473 E33.02023
G1 X47.141 Y73.597 E33.08005
G1 X46.883 Y74.045 E33.10585
G1 X46.629 Y74.475 E33.13076
G1 X46.315 Y74.608 E33.14778
G1 X45.936 Y75.716 E33.2062
G1 X45.445 Y76.629 E33.25792
G1 X45.333 Y76.723 E33.26521
G1 X45.141 Y76.787 E33.27531
G1 X44.976 Y77.294 E33.30191
G1 X44.816 Y77.838 E33.3302
G1 X44.306 Y78.868 E33.38754
G1 X44.046 Y79.003 E33.40216
G1 X43.747 Y80.082 E33.45802
G1 X43.277 Y81.115 E33.51464
G1 X43.166 Y81.207 E33.52183
G1 X43.02 Y81.257 E33.52953
G1 X42.783 Y82.244 E33.58017
G1 X42.551 Y82.812 E33.61078
G1 X42.302 Y83.411 E33.64314
G1 X42.19 Y83.504 E33.65041
