;FLAVOR:Marlin
;TIME:157
;Filament used: 0.0663921m
;Layer height: 0.1
;MINX:98.122
;MINY:99.863
;MINZ:0.3
;MAXX:121.885
;MAXY:120.138
;MAXZ:2.5
;Generated with Cura_SteamEngine 4.13.1
M140 S60
M105
M190 S60
M104 S210
M105
M109 S210
M82 ;absolute extrusion mode
; Aquila X2 Custom Start G-code
G92 E0 ; Reset Extruder
G28 ; Home all axes
M420 S1
G1 Z2.0 F3000 ; Move Z Axis up little to prevent scratching of Heat Bed
G1 X0.1 Y20 Z0.3 F5000.0 ; Move to start position
G1 X0.1 Y200.0 Z0.3 F1500.0 E15 ; Draw the first line
G1 X0.4 Y200.0 Z0.3 F5000.0 ; Move to side a little
G1 X0.4 Y20 Z0.3 F1500.0 E30 ; Draw the second line
G92 E0 ; Reset Extruder
G1 Z2.0 F3000 ; Move Z Axis up little to prevent scratching of Heat Bed
G1 X5 Y20 Z0.3 F5000.0 ; Move over to prevent blob squish
G92 E0
G92 E0
G1 F2400 E-5
;LAYER_COUNT:23
;LAYER:0
M107
G0 F3600 X101.33 Y103.03 Z0.3
;TYPE:SKIRT
G1 F2400 E0
G1 F1800 X101.97 Y102.491 E0.04174
G1 X102.457 Y102.136 E0.07181
G1 X103.036 Y101.762 E0.1062
G1 X103.656 Y101.408 E0.14182
G1 X104.202 Y101.135 E0.17227
G1 X104.803 Y100.868 E0.20508
G1 X105.049 Y100.771 E0.21828
G1 X105.66 Y100.551 E0.25068
G1 X106.261 Y100.366 E0.28205
G1 X106.916 Y100.203 E0.31572
G1 X107.493 Y100.084 E0.34511
G1 X108.16 Y99.982 E0.37878
G1 X108.658 Y99.924 E0.40379
G1 X109.225 Y99.88 E0.43216
G1 X109.655 Y99.865 E0.45363
G1 X110.318 Y99.863 E0.48671
G1 X110.928 Y99.888 E0.51717
G1 X111.623 Y99.952 E0.55199
G1 X112.23 Y100.038 E0.58257
G1 X112.742 Y100.127 E0.6085
G1 X113.332 Y100.259 E0.63866
G1 X113.944 Y100.424 E0.67029
G1 X114.6 Y100.637 E0.7047
G1 X115.245 Y100.886 E0.73919
G1 X115.715 Y101.092 E0.76479
G1 X116.276 Y101.366 E0.79594
G1 X116.495 Y101.486 E0.8084
G1 X116.957 Y101.755 E0.83507
G1 X117.439 Y102.066 E0.86369
G1 X118.084 Y102.537 E0.90353
G1 X118.5 Y102.883 E0.93053
G1 X118.962 Y103.312 E0.96198
G1 X119.318 Y103.678 E0.98746
G1 X119.72 Y104.136 E1.01786
G1 X120.125 Y104.663 E1.05102
G1 X120.483 Y105.194 E1.08297
G1 X120.87 Y105.869 E1.12179
G1 X121.152 Y106.465 E1.15468
G1 X121.39 Y107.081 E1.18763
G1 X121.59 Y107.751 E1.22251
G1 X121.748 Y108.451 E1.25831
G1 X121.858 Y109.341 E1.30305
G1 X121.885 Y109.965 E1.33421
G1 X121.869 Y110.511 E1.36147
G1 X121.779 Y111.388 E1.40545
G1 X121.659 Y111.98 E1.43558
G1 X121.482 Y112.624 E1.46891
G1 X121.266 Y113.252 E1.50204
G1 X121.065 Y113.727 E1.52777
G1 X120.747 Y114.349 E1.56262
G1 X120.472 Y114.822 E1.58992
G1 X120.099 Y115.372 E1.62307
G1 X119.737 Y115.843 E1.65271
G1 X119.368 Y116.267 E1.68075
G1 X118.952 Y116.699 E1.71067
G1 X118.569 Y117.052 E1.73666
G1 X118.058 Y117.482 E1.76998
G1 X117.86 Y117.629 E1.78228
G1 X117.361 Y117.979 E1.81269
G1 X116.741 Y118.37 E1.84926
G1 X116.486 Y118.515 E1.86389
G1 X116.028 Y118.756 E1.88971
G1 X115.436 Y119.032 E1.9223
G1 X114.927 Y119.241 E1.94975
G1 X114.412 Y119.426 E1.97705
G1 X113.908 Y119.585 E2.00342
G1 X113.244 Y119.762 E2.0377
G1 X112.705 Y119.879 E2.06522
G1 X112.007 Y119.997 E2.10054
G1 X111.22 Y120.089 E2.14007
G1 X110.988 Y120.106 E2.15167
G1 X110.452 Y120.133 E2.17845
G1 X109.692 Y120.138 E2.21637
G1 X109.009 Y120.108 E2.25048
G1 X108.313 Y120.042 E2.28535
G1 X107.566 Y119.929 E2.32305
G1 X107.072 Y119.836 E2.34813
G1 X106.494 Y119.699 E2.37776
G1 X106.291 Y119.643 E2.38827
G1 X105.76 Y119.484 E2.41592
G1 X105.188 Y119.287 E2.4461
G1 X104.503 Y119.008 E2.483
G1 X103.983 Y118.765 E2.51164
G1 X103.524 Y118.525 E2.53748
G1 X103 Y118.22 E2.56773
G1 X102.483 Y117.88 E2.5986
G1 X102.047 Y117.564 E2.62546
G1 X101.56 Y117.171 E2.65669
G1 X101.115 Y116.766 E2.6867
G1 X100.598 Y116.235 E2.72368
G1 X100.267 Y115.85 E2.74901
G1 X99.815 Y115.257 E2.78621
G1 X99.423 Y114.653 E2.82213
G1 X99.056 Y113.983 E2.86025
G1 X98.753 Y113.313 E2.89693
G1 X98.567 Y112.805 E2.92392
G1 X98.377 Y112.138 E2.95852
G1 X98.255 Y111.554 E2.98829
G1 X98.164 Y110.924 E3.02004
G1 X98.122 Y110.346 E3.04896
G1 X98.134 Y109.436 E3.09436
G1 X98.21 Y108.701 E3.13122
G1 X98.3 Y108.208 E3.15623
G1 X98.463 Y107.557 E3.18971
G1 X98.698 Y106.838 E3.22745
G1 X98.949 Y106.242 E3.25971
G1 X99.3 Y105.551 E3.29838
G1 X99.712 Y104.889 E3.33728
G1 X100.146 Y104.296 E3.37394
G1 X100.69 Y103.661 E3.41566
G1 X101.33 Y103.03 E3.46049
G0 F3600 X101.605 Y103.321
G1 F1800 X102.221 Y102.803 E3.50065
G1 X102.682 Y102.468 E3.52908
G1 X103.249 Y102.101 E3.56278
G1 X103.835 Y101.765 E3.59648
G1 X104.381 Y101.492 E3.62693
G1 X104.961 Y101.236 E3.65856
G1 X105.185 Y101.148 E3.67057
G1 X105.796 Y100.928 E3.70297
G1 X106.374 Y100.75 E3.73314
G1 X107.01 Y100.592 E3.76583
G1 X107.572 Y100.476 E3.79446
G1 X108.217 Y100.378 E3.82701
G1 X109.085 Y100.29 E3.87054
G1 X109.656 Y100.265 E3.89905
G1 X110.319 Y100.263 E3.93213
G1 X110.908 Y100.287 E3.96154
G1 X111.584 Y100.35 E3.99541
G1 X112.17 Y100.433 E4.02494
G1 X112.671 Y100.521 E4.05032
G1 X113.241 Y100.649 E4.07946
G1 X113.834 Y100.808 E4.11009
G1 X114.459 Y101.011 E4.14288
G1 X115.085 Y101.252 E4.17634
G1 X115.555 Y101.458 E4.20195
G1 X116.095 Y101.723 E4.23196
G1 X116.294 Y101.831 E4.24325
G1 X116.756 Y102.1 E4.26992
G1 X117.218 Y102.399 E4.29738
G1 X117.843 Y102.857 E4.33604
G1 X118.232 Y103.18 E4.36126
G1 X118.675 Y103.591 E4.39141
G1 X119.031 Y103.957 E4.41688
G1 X119.416 Y104.395 E4.44598
G1 X119.805 Y104.903 E4.4779
G1 X120.139 Y105.397 E4.50765
G1 X120.513 Y106.049 E4.54515
G1 X120.783 Y106.621 E4.5767
G1 X121.012 Y107.214 E4.60842
G1 X121.201 Y107.844 E4.64123
G1 X121.354 Y108.518 E4.67571
G1 X121.46 Y109.381 E4.71909
G1 X121.485 Y109.964 E4.74821
G1 X121.47 Y110.478 E4.77386
G1 X121.385 Y111.319 E4.81603
G1 X121.268 Y111.898 E4.8455
G1 X121.099 Y112.509 E4.87713
G1 X120.893 Y113.106 E4.90864
G1 X120.613 Y113.742 E4.94331
G1 X120.316 Y114.301 E4.97489
G1 X119.98 Y114.844 E5.00674
G1 X119.677 Y115.272 E5.03291
G1 X119.316 Y115.722 E5.06169
G1 X118.865 Y116.22 E5.09521
G1 X118.435 Y116.635 E5.12502
G1 X117.998 Y117.016 E5.15395
G1 X117.63 Y117.302 E5.1772
G1 X117.131 Y117.652 E5.20761
G1 X116.531 Y118.029 E5.24296
G1 X116.3 Y118.161 E5.25623
G1 X115.842 Y118.402 E5.28205
G1 X115.271 Y118.668 E5.31348
G1 X114.778 Y118.87 E5.34006
G1 X114.28 Y119.048 E5.36645
G1 X113.789 Y119.203 E5.39213
G1 X113.158 Y119.371 E5.42471
G1 X112.629 Y119.486 E5.45172
G1 X111.943 Y119.602 E5.48643
G1 X111.179 Y119.691 E5.5248
G1 X110.968 Y119.707 E5.53536
G1 X110.432 Y119.734 E5.56214
G1 X109.695 Y119.738 E5.59891
G1 X109.034 Y119.708 E5.63192
G1 X108.356 Y119.645 E5.66589
G1 X107.63 Y119.535 E5.70252
G1 X106.946 Y119.398 E5.73733
G1 X106.406 Y119.26 E5.76513
G1 X105.875 Y119.101 E5.79279
G1 X105.322 Y118.91 E5.82197
G1 X104.659 Y118.64 E5.85769
G1 X104.169 Y118.411 E5.88467
G1 X103.71 Y118.171 E5.91051
G1 X103.216 Y117.883 E5.93904
G1 X102.718 Y117.556 E5.96877
G1 X102.282 Y117.24 E5.99563
G1 X101.825 Y116.871 E6.02493
G1 X101.387 Y116.473 E6.05446
G1 X100.89 Y115.961 E6.09006
G1 X100.475 Y115.47 E6.12213
G1 X100.147 Y115.033 E6.14939
G1 X99.763 Y114.442 E6.18456
G1 X99.409 Y113.795 E6.22135
G1 X99.128 Y113.175 E6.25531
G1 X98.945 Y112.676 E6.28183
G1 X98.764 Y112.038 E6.31491
G1 X98.65 Y111.494 E6.34264
G1 X98.562 Y110.883 E6.37344
G1 X98.522 Y110.341 E6.40055
G1 X98.532 Y109.472 E6.44391
G1 X98.605 Y108.762 E6.47952
G1 X98.778 Y107.923 E6.52226
G1 X98.961 Y107.294 E6.55494
G1 X99.181 Y106.704 E6.58636
G1 X99.515 Y105.996 E6.62541
G1 X99.873 Y105.372 E6.6613
G1 X100.189 Y104.906 E6.68939
G1 X100.674 Y104.283 E6.72878
G1 X101.172 Y103.734 E6.76576
G1 X101.605 Y103.321 E6.79562
G0 F3600 X101.88 Y103.611
G1 F1800 X102.472 Y103.115 E6.83415
G1 X102.906 Y102.799 E6.86093
G1 X103.461 Y102.44 E6.89391
G1 X104.014 Y102.123 E6.92571
G1 X104.56 Y101.85 E6.95616
G1 X105.119 Y101.603 E6.98665
G1 X105.32 Y101.524 E6.99743
G1 X105.931 Y101.304 E7.02983
G1 X106.487 Y101.134 E7.05883
G1 X107.103 Y100.981 E7.0905
G1 X107.651 Y100.869 E7.1184
G1 X108.274 Y100.774 E7.14985
G1 X109.119 Y100.689 E7.19222
G1 X109.657 Y100.665 E7.21908
G1 X110.32 Y100.663 E7.25216
G1 X110.888 Y100.687 E7.28052
G1 X111.544 Y100.748 E7.31339
G1 X112.11 Y100.829 E7.34192
G1 X112.791 Y100.954 E7.37646
G1 X113.517 Y101.134 E7.41378
G1 X114.147 Y101.326 E7.44664
G1 X114.745 Y101.546 E7.47842
G1 X114.924 Y101.619 E7.48807
G1 X115.394 Y101.825 E7.51367
G1 X115.914 Y102.079 E7.54254
G1 X116.092 Y102.177 E7.55268
G1 X116.554 Y102.446 E7.57935
G1 X116.997 Y102.732 E7.60566
G1 X117.603 Y103.176 E7.64314
G1 X118.219 Y103.706 E7.68368
G1 X118.389 Y103.87 E7.69547
G1 X118.745 Y104.236 E7.72094
G1 X119.111 Y104.654 E7.74866
G1 X119.484 Y105.142 E7.7793
G1 X119.794 Y105.601 E7.80693
G1 X120.156 Y106.23 E7.84314
G1 X120.415 Y106.777 E7.87334
G1 X120.635 Y107.347 E7.90382
G1 X120.812 Y107.937 E7.93455
G1 X120.959 Y108.585 E7.9677
G1 X121.062 Y109.42 E8.00967
G1 X121.085 Y109.962 E8.03674
G1 X121.032 Y110.93 E8.0851
G1 X120.876 Y111.815 E8.12994
G1 X120.716 Y112.394 E8.15991
G1 X120.521 Y112.959 E8.18973
G1 X120.253 Y113.568 E8.22292
G1 X119.97 Y114.099 E8.25294
G1 X119.653 Y114.614 E8.28311
G1 X119.358 Y115.03 E8.30855
G1 X119.015 Y115.459 E8.33596
G1 X118.572 Y115.947 E8.36884
G1 X118.161 Y116.343 E8.39731
G1 X117.737 Y116.713 E8.42539
G1 X117.4 Y116.974 E8.44665
G1 X116.901 Y117.324 E8.47706
G1 X116.322 Y117.688 E8.51118
G1 X116.113 Y117.807 E8.52318
G1 X115.655 Y118.048 E8.549
G1 X115.106 Y118.303 E8.5792
G1 X114.629 Y118.498 E8.60491
G1 X114.149 Y118.67 E8.63035
G1 X113.67 Y118.821 E8.65541
G1 X113.072 Y118.98 E8.68628
G1 X112.553 Y119.094 E8.71279
G1 X111.88 Y119.207 E8.74683
G1 X111.138 Y119.293 E8.7841
G1 X110.948 Y119.307 E8.79361
G1 X110.287 Y119.339 E8.82662
G1 X109.698 Y119.338 E8.85601
G1 X109.058 Y119.309 E8.88797
G1 X108.399 Y119.247 E8.92099
G1 X107.695 Y119.14 E8.95652
G1 X107.042 Y119.01 E8.98974
G1 X106.52 Y118.877 E9.01661
G1 X105.989 Y118.718 E9.04426
G1 X105.456 Y118.533 E9.07241
G1 X104.815 Y118.271 E9.10696
G1 X104.354 Y118.056 E9.13234
G1 X103.895 Y117.816 E9.15818
G1 X103.432 Y117.546 E9.18492
G1 X102.952 Y117.232 E9.21353
G1 X102.516 Y116.916 E9.2404
G1 X102.089 Y116.571 E9.26779
G1 X101.659 Y116.179 E9.29682
G1 X101.181 Y115.687 E9.33104
G1 X100.791 Y115.226 E9.36116
G1 X100.478 Y114.809 E9.38718
G1 X100.103 Y114.231 E9.42155
G1 X99.762 Y113.607 E9.45703
G1 X99.503 Y113.036 E9.48831
G1 X99.324 Y112.548 E9.51424
G1 X99.151 Y111.937 E9.54592
G1 X99.046 Y111.434 E9.57156
G1 X98.96 Y110.842 E9.6014
G1 X98.922 Y110.336 E9.62672
G1 X98.931 Y109.508 E9.66803
G1 X99 Y108.823 E9.70238
G1 X99.167 Y108.015 E9.74354
G1 X99.344 Y107.411 E9.77494
G1 X99.553 Y106.851 E9.80476
G1 X99.874 Y106.173 E9.84219
G1 X100.207 Y105.592 E9.8756
G1 X100.509 Y105.146 E9.90247
G1 X100.973 Y104.548 E9.94023
G1 X101.453 Y104.019 E9.97587
G1 X101.88 Y103.611 E10.00533
G0 F3600 X102.155 Y103.902
G1 F1800 X102.722 Y103.427 E10.04224
G1 X103.13 Y103.13 E10.06741
G1 X103.674 Y102.779 E10.09971
G1 X104.193 Y102.481 E10.12957
G1 X104.739 Y102.208 E10.16003
G1 X105.277 Y101.971 E10.18936
G1 X105.456 Y101.9 E10.19896
G1 X106.067 Y101.68 E10.23136
G1 X106.6 Y101.517 E10.25917
G1 X107.196 Y101.37 E10.28979
G1 X107.73 Y101.261 E10.31698
G1 X108.33 Y101.169 E10.34727
G1 X109.152 Y101.087 E10.38848
G1 X109.658 Y101.065 E10.41375
G1 X110.321 Y101.063 E10.44683
G1 X110.867 Y101.086 E10.47409
G1 X111.504 Y101.146 E10.50601
G1 X112.05 Y101.224 E10.53353
G1 X112.7 Y101.344 E10.56651
G1 X113.414 Y101.521 E10.60321
G1 X114.026 Y101.707 E10.63512
G1 X114.604 Y101.92 E10.66585
G1 X114.764 Y101.985 E10.67447
G1 X115.234 Y102.191 E10.70007
G1 X115.732 Y102.436 E10.72776
G1 X115.891 Y102.523 E10.7368
G1 X116.353 Y102.792 E10.76347
G1 X116.775 Y103.065 E10.78855
G1 X117.362 Y103.496 E10.82488
G1 X117.951 Y104.003 E10.86365
G1 X118.102 Y104.149 E10.87413
G1 X118.458 Y104.515 E10.8996
G1 X118.807 Y104.914 E10.92605
G1 X119.164 Y105.381 E10.95538
G1 X119.45 Y105.804 E10.98085
G1 X119.799 Y106.41 E11.01574
G1 X120.046 Y106.933 E11.0446
G1 X120.258 Y107.48 E11.07386
G1 X120.423 Y108.03 E11.10251
G1 X120.565 Y108.652 E11.13434
G1 X120.664 Y109.459 E11.1749
G1 X120.685 Y109.96 E11.19992
G1 X120.633 Y110.897 E11.24674
G1 X120.485 Y111.733 E11.2891
G1 X120.333 Y112.279 E11.31737
G1 X120.149 Y112.812 E11.3455
G1 X119.893 Y113.394 E11.37722
G1 X119.625 Y113.897 E11.40566
G1 X119.325 Y114.385 E11.43424
G1 X118.986 Y114.859 E11.46331
G1 X118.561 Y115.37 E11.49647
G1 X118.131 Y115.824 E11.52767
G1 X117.476 Y116.41 E11.57152
G1 X117.171 Y116.647 E11.59079
G1 X116.672 Y116.997 E11.62119
G1 X116.113 Y117.347 E11.6541
G1 X115.927 Y117.453 E11.66478
G1 X115.469 Y117.694 E11.6906
G1 X114.942 Y117.939 E11.71959
G1 X114.341 Y118.18 E11.7519
G1 X113.551 Y118.439 E11.79338
G1 X112.986 Y118.59 E11.82255
G1 X112.477 Y118.701 E11.84854
G1 X111.817 Y118.812 E11.88193
G1 X111.097 Y118.895 E11.91809
G1 X110.928 Y118.908 E11.92655
G1 X110.281 Y118.939 E11.95887
G1 X109.701 Y118.938 E11.9878
G1 X109.083 Y118.91 E12.01867
G1 X108.442 Y118.849 E12.05079
G1 X107.759 Y118.745 E12.08526
G1 X107.138 Y118.622 E12.11684
G1 X106.635 Y118.494 E12.14274
G1 X106.104 Y118.335 E12.17039
G1 X105.59 Y118.156 E12.19754
G1 X104.97 Y117.903 E12.23095
G1 X104.539 Y117.702 E12.25468
G1 X104.08 Y117.462 E12.28052
G1 X103.648 Y117.209 E12.3055
G1 X103.187 Y116.908 E12.33296
G1 X102.751 Y116.592 E12.35983
G1 X102.354 Y116.271 E12.3853
G1 X101.931 Y115.886 E12.41383
G1 X101.473 Y115.413 E12.44668
G1 X101.108 Y114.981 E12.4749
G1 X100.646 Y114.344 E12.51416
G1 X100.335 Y113.834 E12.54396
G1 X100.044 Y113.277 E12.57531
G1 X99.732 Y112.502 E12.61699
G1 X99.538 Y111.836 E12.6516
G1 X99.377 Y110.952 E12.69643
G1 X99.322 Y110.33 E12.72758
G1 X99.329 Y109.545 E12.76675
G1 X99.396 Y108.884 E12.79989
G1 X99.557 Y108.107 E12.83948
G1 X99.726 Y107.528 E12.86957
G1 X99.925 Y106.999 E12.89777
G1 X100.233 Y106.349 E12.93365
G1 X100.542 Y105.811 E12.96461
G1 X100.829 Y105.386 E12.99019
G1 X101.272 Y104.814 E13.02629
G1 X101.734 Y104.303 E13.06066
G1 X102.155 Y103.902 E13.08966
G1 F2400 E8.08966
;MESH:Remote Button Cap.stl
G0 F3600 X103.871 Y105.755
G0 X104.456 Y106.425
G0 X103.548 Y108.555
G0 X103.302 Y109.464
G0 X104.573 Y109.731
G0 X106.035 Y107.8
G0 X106.803 Y107.146
G0 X107.654 Y106.713
G0 X108.701 Y106.48
G0 X109.74 Y106.52
G0 X110.759 Y106.829
G0 X111.657 Y107.384
G0 X112.388 Y108.153
G0 X112.897 Y109.082
G0 X111.718 Y109.723
G0 X110.153 Y111.389
;TYPE:WALL-INNER
G1 F2400 E13.08966
G1 F1800 X109.855 Y111.39 E13.10453
G1 X109.504 Y111.305 E13.12255
G1 X109.177 Y111.128 E13.1411
G1 X108.914 Y110.878 E13.1592
G1 X108.723 Y110.567 E13.17741
G1 X108.532 Y109.991 E13.20769
G1 X108.778 Y109.323 E13.2432
G1 X108.999 Y109.025 E13.26171
G1 X109.283 Y108.801 E13.27976
G1 X109.555 Y108.675 E13.29471
G1 X109.907 Y108.608 E13.31259
G1 X110.332 Y108.643 E13.33386
G1 X110.663 Y108.771 E13.35157
G1 X110.961 Y108.987 E13.36993
G1 X111.184 Y109.261 E13.38756
G1 X111.343 Y109.608 E13.4066
G1 X111.458 Y110.02 E13.42794
G1 X111.243 Y110.635 E13.46044
G1 X111.045 Y110.926 E13.478
G1 X110.762 Y111.171 E13.49668
G1 X110.512 Y111.3 E13.51071
G1 X110.153 Y111.389 E13.52916
G0 F3600 X111.549 Y110.268
G0 X113.14 Y109.758
G0 X113.059 Y109.7
;TYPE:WALL-OUTER
G1 F1800 X112.86 Y109.096 E13.56089
G1 X112.637 Y108.619 E13.58716
G1 X112.356 Y108.176 E13.61333
G1 X112.019 Y107.772 E13.63958
G1 X111.633 Y107.415 E13.66581
G1 X111.204 Y107.112 E13.69202
G1 X110.741 Y106.865 E13.7182
G1 X110.248 Y106.68 E13.74447
G1 X109.736 Y106.56 E13.7707
G1 X109.23 Y106.506 E13.79609
G1 X108.704 Y106.519 E13.82234
G1 X108.168 Y106.603 E13.84941
G1 X107.665 Y106.751 E13.87557
G1 X107.184 Y106.962 E13.90177
G1 X106.734 Y107.234 E13.928
G1 X106.334 Y107.55 E13.95344
G1 X105.957 Y107.939 E13.98046
G1 X105.643 Y108.361 E14.00671
G1 X105.385 Y108.819 E14.03293
G1 X105.189 Y109.307 E14.05917
G1 X105.058 Y109.816 E14.08539
G1 X104.996 Y110.3 E14.10973
G1 X103.3 Y110.3 E14.19435
G1 X103.401 Y110.861 E14.22279
G1 X103.582 Y111.425 E14.25234
G1 X103.929 Y112.099 E14.29016
G1 X104.23 Y112.518 E14.3159
G1 X104.57 Y112.903 E14.34152
G1 X105.006 Y113.303 E14.37104
G1 X105.469 Y113.65 E14.39991
G1 X106.02 Y113.984 E14.43205
G1 X106.603 Y114.268 E14.46441
G1 X107.231 Y114.509 E14.49797
G1 X107.895 Y114.7 E14.53244
G1 X108.566 Y114.835 E14.56658
